engine/Code/CryPlugins/CinematicCamera/Assets/cinecam/luts/look_warm_print_33.cube
# Generated by tools/ocio-bake/bake.py -- do not edit by hand.
#
# ReC-LUT-Space: ACEScct
#
# preset            : look_warm_print
# config URI        : (none -- ACEScct arithmetic only, no OCIO)
# config name       : (none)
# ACES version      : (n/a -- a look is not an ACES transform)
# input space       : ACEScct   (LUT domain is this encoding, [0,1], red fastest)
# display           : (none -- a look, not an output transform)
# view              : (none)
# output encoding   : ACEScct (a look: same encoding in and out)
# grid size         : 33^3
# OCIO library      : 2.5.2
# baked (UTC)       : 2026-09-10T02:50:52Z
# tool git hash     : fa0f045d905e8df94b7136ca6cd9e37ebbed98ac-dirty
# tool sha256[:16]  : 48c8b086d843e6ac
#
# A SHIPPED LOOK. Warm shadows and cooler highlights is a per-channel Lift and Gain, i.e. one
# ASC CDL and nothing else, plus a little contrast and slightly softer colour. Mid grey is left
# where it is. Same caveat as look_film_contrast: this is a demonstration of the slot, not a
# show look.
# 
# THE RECIPE, so that nothing here is a mystery. Everything below is a control the CineCam
# Grade component itself has: type these numbers in and you get this file's picture, live.
# Applied in ACEScct, in the chain's own order: ASC CDL -> saturation -> master curve.
# 
#   Grade group
#     Lift (RGB)          +0.010000 +0.002000 -0.010000
#     Gamma (RGB)          1.000000  1.000000  1.000000
#     Gain (RGB)           0.985000  0.997000  1.015000
#     Contrast             1.040000
#     Contrast Pivot       0.4135878   (= ACEScct(0.18), the default)
#     Saturation           0.970000
#     CDL base (slope/offset/power) left neutral
# 
#   Curves group -- master curve, in STOPS (black / shadow / mid / highlight / white;
#   knots at ACEScct 0, mid grey -4 stops, mid grey, mid grey +4 stops, 1.0):
#     +0.000  +0.000  +0.000  +0.000  +0.000
# 
#   and the ONE ASC CDL the whole Grade group folds into -- what the camera publishes and
#   what a .cdl sidecar carries. The master curve above is NOT in it: a CDL cannot hold a
#   curve, which is exactly why the two are separate groups on the component.
#     slope      1.014000 1.034800 1.066000
#     offset     -0.006144 -0.014464 -0.026944
#     power      1.000000 1.000000 1.000000
#     saturation 0.970000
#
TITLE "Warm print -- warm shadows, cooler highlights"
LUT_3D_SIZE 9
DOMAIN_MIN 0.0 0.0 0.0
DOMAIN_MAX 1.0 1.0 1.0
0.000000 0.000000 0.000000
0.117758 0.000769 0.000769
0.241513 0.001578 0.001578
0.365269 0.002386 0.002386
0.489025 0.003194 0.003194
0.612781 0.004003 0.004003
0.736537 0.004811 0.004811
0.860293 0.005620 0.005620
0.984049 0.006428 0.006428
0.002465 0.113905 0.002465
0.120223 0.114674 0.003234
0.243978 0.115483 0.004043
0.367734 0.116291 0.004851
0.491490 0.117099 0.005659
0.615246 0.117908 0.006468
0.739002 0.118716 0.007276
0.862758 0.119525 0.008085
0.986514 0.120333 0.008893
0.005240 0.242150 0.005240
0.122998 0.242919 0.006010
0.246754 0.243727 0.006818
0.370510 0.244536 0.007626
0.494266 0.245344 0.008435
0.618022 0.246153 0.009243
0.741777 0.246961 0.010052
0.865533 0.247769 0.010860
0.989289 0.248578 0.011668
0.008016 0.370395 0.008016
0.125773 0.371164 0.008785
0.249529 0.371972 0.009593
0.373285 0.372781 0.010402
0.497041 0.373589 0.011210
0.620797 0.374397 0.012019
0.744553 0.375206 0.012827
0.868309 0.376014 0.013635
0.992065 0.376823 0.014444
0.010791 0.498639 0.010791
0.128549 0.499409 0.011560
0.252304 0.500217 0.012369
0.376060 0.501025 0.013177
0.499816 0.501834 0.013985
0.623572 0.502642 0.014794
0.747328 0.503451 0.015602
0.871084 0.504259 0.016411
0.994840 0.505068 0.017219
0.013566 0.626884 0.013566
0.131324 0.627653 0.014336
0.255080 0.628462 0.015144
0.378836 0.629270 0.015952
0.502592 0.630079 0.016761
0.626348 0.630887 0.017569
0.750103 0.631696 0.018378
0.873859 0.632504 0.019186
0.997615 0.633312 0.019994
0.016342 0.755129 0.016342
0.134099 0.755898 0.017111
0.257855 0.756707 0.017919
0.381611 0.757515 0.018728
0.505367 0.758324 0.019536
0.629123 0.759132 0.020345
0.752879 0.759940 0.021153
0.876635 0.760749 0.021961
1.000391 0.761557 0.022770
0.019117 0.883374 0.019117
0.136875 0.884143 0.019886
0.260630 0.884952 0.020695
0.384386 0.885760 0.021503
0.508142 0.886568 0.022311
0.631898 0.887377 0.023120
0.755654 0.888185 0.023928
0.879410 0.888994 0.024737
1.003166 0.889802 0.025545
0.021892 1.011619 0.021892
0.139650 1.012388 0.022662
0.263406 1.013196 0.023470
0.387162 1.014005 0.024278
0.510918 1.014813 0.025087
0.634674 1.015622 0.025895
0.758429 1.016430 0.026704
0.882185 1.017238 0.027512
1.005941 1.018047 0.028320
0.000230 0.000230 0.103348
0.117988 0.000999 0.104117
0.241744 0.001808 0.104925
0.365500 0.002616 0.105734
0.489256 0.003425 0.106542
0.613011 0.004233 0.107350
0.736767 0.005042 0.108159
0.860523 0.005850 0.108967
0.984279 0.006658 0.109776
0.002695 0.114135 0.105813
0.120453 0.114904 0.106582
0.244209 0.115713 0.107390
0.367965 0.116521 0.108199
0.491721 0.117330 0.109007
0.615476 0.118138 0.109815
0.739232 0.118946 0.110624
0.862988 0.119755 0.111432
0.986744 0.120563 0.112241
0.005471 0.242380 0.108588
0.123228 0.243149 0.109357
0.246984 0.243958 0.110166
0.370740 0.244766 0.110974
0.494496 0.245574 0.111782
0.618252 0.246383 0.112591
0.742008 0.247191 0.113399
0.865764 0.248000 0.114208
0.989519 0.248808 0.115016
0.008246 0.370625 0.111363
0.126003 0.371394 0.112132
0.249759 0.372202 0.112941
0.373515 0.373011 0.113749
0.497271 0.373819 0.114558
0.621027 0.374628 0.115366
0.744783 0.375436 0.116175
0.868539 0.376245 0.116983
0.992295 0.377053 0.117791
0.011021 0.498870 0.114139
0.128779 0.499639 0.114908
0.252535 0.500447 0.115716
0.376291 0.501256 0.116525
0.500047 0.502064 0.117333
0.623802 0.502873 0.118141
0.747558 0.503681 0.118950
0.871314 0.504489 0.119758
0.995070 0.505298 0.120567
0.013797 0.627114 0.116914
0.131554 0.627884 0.117683
0.255310 0.628692 0.118492
0.379066 0.629501 0.119300
0.502822 0.630309 0.120108
0.626578 0.631117 0.120917
0.750334 0.631926 0.121725
0.874090 0.632734 0.122534
0.997846 0.633543 0.123342
0.016572 0.755359 0.119689
0.134329 0.756129 0.120458
0.258085 0.756937 0.121267
0.381841 0.757745 0.122075
0.505597 0.758554 0.122884
0.629353 0.759362 0.123692
0.753109 0.760171 0.124501
0.876865 0.760979 0.125309
1.000621 0.761787 0.126117
0.019347 0.883604 0.122465
0.137105 0.884373 0.123234
0.260861 0.885182 0.124042
0.384617 0.885990 0.124851
0.508373 0.886799 0.125659
0.632128 0.887607 0.126467
0.755884 0.888415 0.127276
0.879640 0.889224 0.128084
1.003396 0.890032 0.128893
0.022123 1.011849 0.125240
0.139880 1.012618 0.126009
0.263636 1.013427 0.126818
0.387392 1.014235 0.127626
0.511148 1.015043 0.128434
0.634904 1.015852 0.129243
0.758660 1.016660 0.130051
0.882416 1.017469 0.130860
1.006172 1.018277 0.131668
0.000519 0.000519 0.232889
0.118276 0.001288 0.233658
0.242032 0.002097 0.234466
0.365788 0.002905 0.235275
0.489544 0.003713 0.236083
0.613300 0.004522 0.236892
0.737056 0.005330 0.237700
0.860812 0.006139 0.238508
0.984568 0.006947 0.239317
0.002984 0.114424 0.235354
0.120741 0.115193 0.236123
0.244497 0.116001 0.236931
0.368253 0.116810 0.237740
0.492009 0.117618 0.238548
0.615765 0.118427 0.239357
0.739521 0.119235 0.240165
0.863277 0.120043 0.240973
0.987033 0.120852 0.241782
0.005759 0.242669 0.238129
0.123517 0.243438 0.238898
0.247273 0.244246 0.239707
0.371029 0.245055 0.240515
0.494784 0.245863 0.241323
0.618540 0.246671 0.242132
0.742296 0.247480 0.242940
0.866052 0.248288 0.243749
0.989808 0.249097 0.244557
0.008535 0.370913 0.240904
0.126292 0.371683 0.241674
0.250048 0.372491 0.242482
0.373804 0.373299 0.243290
0.497560 0.374108 0.244099
0.621316 0.374916 0.244907
0.745072 0.375725 0.245716
0.868828 0.376533 0.246524
0.992583 0.377342 0.247332
0.011310 0.499158 0.243680
0.129067 0.499928 0.244449
0.252823 0.500736 0.245257
0.376579 0.501544 0.246066
0.500335 0.502353 0.246874
0.624091 0.503161 0.247683
0.747847 0.503970 0.248491
0.871603 0.504778 0.249299
0.995359 0.505586 0.250108
0.014085 0.627403 0.246455
0.131843 0.628172 0.247224
0.255599 0.628981 0.248033
0.379355 0.629789 0.248841
0.503110 0.630598 0.249649
0.626866 0.631406 0.250458
0.750622 0.632214 0.251266
0.874378 0.633023 0.252075
0.998134 0.633831 0.252883
0.016861 0.755648 0.249230
0.134618 0.756417 0.250000
0.258374 0.757226 0.250808
0.382130 0.758034 0.251616
0.505886 0.758842 0.252425
0.629642 0.759651 0.253233
0.753398 0.760459 0.254042
0.877154 0.761268 0.254850
1.000909 0.762076 0.255658
0.019636 0.883893 0.252006
0.137393 0.884662 0.252775
0.261149 0.885470 0.253583
0.384905 0.886279 0.254392
0.508661 0.887087 0.255200
0.632417 0.887896 0.256009
0.756173 0.888704 0.256817
0.879929 0.889512 0.257625
1.003685 0.890321 0.258434
0.022411 1.012138 0.254781
0.140169 1.012907 0.255550
0.263925 1.013715 0.256359
0.387681 1.014524 0.257167
0.511436 1.015332 0.257975
0.635192 1.016140 0.258784
0.758948 1.016949 0.259592
0.882704 1.017757 0.260401
1.006460 1.018566 0.261209
0.000807 0.000807 0.362430
0.118565 0.001577 0.363199
0.242321 0.002385 0.364007
0.366077 0.003194 0.364816
0.489833 0.004002 0.365624
0.613589 0.004810 0.366433
0.737345 0.005619 0.367241
0.861100 0.006427 0.368049
0.984856 0.007236 0.368858
0.003273 0.114712 0.364895
0.121030 0.115482 0.365664
0.244786 0.116290 0.366472
0.368542 0.117098 0.367281
0.492298 0.117907 0.368089
0.616054 0.118715 0.368898
0.739810 0.119524 0.369706
0.863565 0.120332 0.370514
0.987321 0.121141 0.371323
0.006048 0.242957 0.367670
0.123805 0.243726 0.368439
0.247561 0.244535 0.369248
0.371317 0.245343 0.370056
0.495073 0.246152 0.370865
0.618829 0.246960 0.371673
0.742585 0.247769 0.372481
0.866341 0.248577 0.373290
0.990097 0.249385 0.374098
0.008823 0.371202 0.370445
0.126581 0.371971 0.371215
0.250337 0.372780 0.372023
0.374093 0.373588 0.372832
0.497848 0.374397 0.373640
0.621604 0.375205 0.374448
0.745360 0.376013 0.375257
0.869116 0.376822 0.376065
0.992872 0.377630 0.376874
0.011599 0.499447 0.373221
0.129356 0.500216 0.373990
0.253112 0.501025 0.374798
0.376868 0.501833 0.375607
0.500624 0.502641 0.376415
0.624380 0.503450 0.377224
0.748136 0.504258 0.378032
0.871891 0.505067 0.378840
0.995647 0.505875 0.379649
0.014374 0.627692 0.375996
0.132131 0.628461 0.376765
0.255887 0.629269 0.377574
0.379643 0.630078 0.378382
0.503399 0.630886 0.379191
0.627155 0.631695 0.379999
0.750911 0.632503 0.380807
0.874667 0.633311 0.381616
0.998423 0.634120 0.382424
0.017149 0.755937 0.378771
0.134907 0.756706 0.379541
0.258663 0.757514 0.380349
0.382419 0.758323 0.381158
0.506174 0.759131 0.381966
0.629930 0.759939 0.382774
0.753686 0.760748 0.383583
0.877442 0.761556 0.384391
1.001198 0.762365 0.385200
0.019925 0.884181 0.381547
0.137682 0.884951 0.382316
0.261438 0.885759 0.383124
0.385194 0.886567 0.383933
0.508950 0.887376 0.384741
0.632706 0.888184 0.385550
0.756462 0.888993 0.386358
0.880217 0.889801 0.387166
1.003973 0.890610 0.387975
0.022700 1.012426 0.384322
0.140457 1.013195 0.385091
0.264213 1.014004 0.385900
0.387969 1.014812 0.386708
0.511725 1.015621 0.387517
0.635481 1.016429 0.388325
0.759237 1.017238 0.389133
0.882993 1.018046 0.389942
1.006749 1.018854 0.390750
0.001096 0.001096 0.491971
0.118854 0.001865 0.492740
0.242610 0.002674 0.493549
0.366365 0.003482 0.494357
0.490121 0.004291 0.495165
0.613877 0.005099 0.495974
0.737633 0.005907 0.496782
0.861389 0.006716 0.497591
0.985145 0.007524 0.498399
0.003561 0.115001 0.494436
0.121319 0.115770 0.495205
0.245075 0.116579 0.496014
0.368830 0.117387 0.496822
0.492586 0.118195 0.497630
0.616342 0.119004 0.498439
0.740098 0.119812 0.499247
0.863854 0.120621 0.500056
0.987610 0.121429 0.500864
0.006336 0.243246 0.497211
0.124094 0.244015 0.497980
0.247850 0.244823 0.498789
0.371606 0.245632 0.499597
0.495362 0.246440 0.500406
0.619118 0.247249 0.501214
0.742874 0.248057 0.502023
0.866629 0.248866 0.502831
0.990385 0.249674 0.503639
0.009112 0.371491 0.499987
0.126869 0.372260 0.500756
0.250625 0.373068 0.501564
0.374381 0.373877 0.502373
0.498137 0.374685 0.503181
0.621893 0.375494 0.503989
0.745649 0.376302 0.504798
0.869405 0.377110 0.505606
0.993161 0.377919 0.506415
0.011887 0.499736 0.502762
0.129645 0.500505 0.503531
0.253401 0.501313 0.504340
0.377156 0.502122 0.505148
0.500912 0.502930 0.505956
0.624668 0.503738 0.506765
0.748424 0.504547 0.507573
0.872180 0.505355 0.508382
0.995936 0.506164 0.509190
0.014662 0.627980 0.505537
0.132420 0.628750 0.506306
0.256176 0.629558 0.507115
0.379932 0.630366 0.507923
0.503688 0.631175 0.508732
0.627444 0.631983 0.509540
0.751200 0.632792 0.510349
0.874955 0.633600 0.511157
0.998711 0.634408 0.511965
0.017438 0.756225 0.508313
0.135195 0.756994 0.509082
0.258951 0.757803 0.509890
0.382707 0.758611 0.510699
0.506463 0.759420 0.511507
0.630219 0.760228 0.512315
0.753975 0.761036 0.513124
0.877731 0.761845 0.513932
1.001487 0.762653 0.514741
0.020213 0.884470 0.511088
0.137971 0.885239 0.511857
0.261727 0.886048 0.512666
0.385482 0.886856 0.513474
0.509238 0.887664 0.514282
0.632994 0.888473 0.515091
0.756750 0.889281 0.515899
0.880506 0.890090 0.516708
1.004262 0.890898 0.517516
0.022988 1.012715 0.513863
0.140746 1.013484 0.514632
0.264502 1.014292 0.515441
0.388258 1.015101 0.516249
0.512014 1.015909 0.517058
0.635770 1.016718 0.517866
0.759526 1.017526 0.518675
0.883281 1.018335 0.519483
1.007037 1.019143 0.520291
0.001385 0.001385 0.621512
0.119142 0.002154 0.622281
0.242898 0.002962 0.623090
0.366654 0.003771 0.623898
0.490410 0.004579 0.624706
0.614166 0.005388 0.625515
0.737922 0.006196 0.626323
0.861678 0.007004 0.627132
0.985434 0.007813 0.627940
0.003850 0.115290 0.623977
0.121607 0.116059 0.624746
0.245363 0.116867 0.625555
0.369119 0.117676 0.626363
0.492875 0.118484 0.627171
0.616631 0.119293 0.627980
0.740387 0.120101 0.628788
0.864143 0.120909 0.629597
0.987899 0.121718 0.630405
0.006625 0.243534 0.626752
0.124383 0.244304 0.627522
0.248139 0.245112 0.628330
0.371894 0.245921 0.629138
0.495650 0.246729 0.629947
0.619406 0.247537 0.630755
0.743162 0.248346 0.631564
0.866918 0.249154 0.632372
0.990674 0.249963 0.633180
0.009400 0.371779 0.629528
0.127158 0.372549 0.630297
0.250914 0.373357 0.631105
0.374670 0.374165 0.631914
0.498426 0.374974 0.632722
0.622182 0.375782 0.633531
0.745937 0.376591 0.634339
0.869693 0.377399 0.635147
0.993449 0.378207 0.635956
0.012176 0.500024 0.632303
0.129933 0.500793 0.633072
0.253689 0.501602 0.633881
0.377445 0.502410 0.634689
0.501201 0.503219 0.635497
0.624957 0.504027 0.636306
0.748713 0.504835 0.637114
0.872469 0.505644 0.637923
0.996225 0.506452 0.638731
0.014951 0.628269 0.635078
0.132709 0.629038 0.635848
0.256465 0.629847 0.636656
0.380220 0.630655 0.637464
0.503976 0.631463 0.638273
0.627732 0.632272 0.639081
0.751488 0.633080 0.639890
0.875244 0.633889 0.640698
0.999000 0.634697 0.641506
0.017726 0.756514 0.637854
0.135484 0.757283 0.638623
0.259240 0.758091 0.639431
0.382996 0.758900 0.640240
0.506752 0.759708 0.641048
0.630508 0.760517 0.641857
0.754263 0.761325 0.642665
0.878019 0.762134 0.643473
1.001775 0.762942 0.644282
0.020502 0.884759 0.640629
0.138259 0.885528 0.641398
0.262015 0.886336 0.642207
0.385771 0.887145 0.643015
0.509527 0.887953 0.643823
0.633283 0.888762 0.644632
0.757039 0.889570 0.645440
0.880795 0.890378 0.646249
1.004551 0.891187 0.647057
0.023277 1.013003 0.643404
0.141035 1.013773 0.644174
0.264791 1.014581 0.644982
0.388546 1.015390 0.645790
0.512302 1.016198 0.646599
0.636058 1.017006 0.647407
0.759814 1.017815 0.648216
0.883570 1.018623 0.649024
1.007326 1.019432 0.649832
0.001673 0.001673 0.751053
0.119431 0.002443 0.751822
0.243187 0.003251 0.752631
0.366943 0.004059 0.753439
0.490699 0.004868 0.754248
0.614455 0.005676 0.755056
0.738210 0.006485 0.755864
0.861966 0.007293 0.756673
0.985722 0.008101 0.757481
0.004138 0.115578 0.753518
0.121896 0.116347 0.754287
0.245652 0.117156 0.755096
0.369408 0.117964 0.755904
0.493164 0.118773 0.756713
0.616920 0.119581 0.757521
0.740675 0.120390 0.758329
0.864431 0.121198 0.759138
0.988187 0.122006 0.759946
0.006914 0.243823 0.756293
0.124671 0.244592 0.757063
0.248427 0.245401 0.757871
0.372183 0.246209 0.758680
0.495939 0.247018 0.759488
0.619695 0.247826 0.760296
0.743451 0.248634 0.761105
0.867207 0.249443 0.761913
0.990963 0.250251 0.762722
0.009689 0.372068 0.759069
0.127447 0.372837 0.759838
0.251202 0.373646 0.760646
0.374958 0.374454 0.761455
0.498714 0.375262 0.762263
0.622470 0.376071 0.763072
0.746226 0.376879 0.763880
0.869982 0.377688 0.764689
0.993738 0.378496 0.765497
0.012464 0.500313 0.761844
0.130222 0.501082 0.762613
0.253978 0.501890 0.763422
0.377734 0.502699 0.764230
0.501490 0.503507 0.765039
0.625246 0.504316 0.765847
0.749001 0.505124 0.766655
0.872757 0.505932 0.767464
0.996513 0.506741 0.768272
0.015240 0.628558 0.764619
0.132997 0.629327 0.765389
0.256753 0.630135 0.766197
0.380509 0.630944 0.767006
0.504265 0.631752 0.767814
0.628021 0.632560 0.768622
0.751777 0.633369 0.769431
0.875533 0.634177 0.770239
0.999289 0.634986 0.771048
0.018015 0.756802 0.767395
0.135773 0.757572 0.768164
0.259528 0.758380 0.768972
0.383284 0.759188 0.769781
0.507040 0.759997 0.770589
0.630796 0.760805 0.771398
0.754552 0.761614 0.772206
0.878308 0.762422 0.773015
1.002064 0.763231 0.773823
0.020790 0.885047 0.770170
0.138548 0.885816 0.770939
0.262304 0.886625 0.771748
0.386060 0.887433 0.772556
0.509816 0.888242 0.773365
0.633572 0.889050 0.774173
0.757327 0.889859 0.774981
0.881083 0.890667 0.775790
1.004839 0.891475 0.776598
0.023566 1.013292 0.772945
0.141323 1.014061 0.773715
0.265079 1.014870 0.774523
0.388835 1.015678 0.775332
0.512591 1.016487 0.776140
0.636347 1.017295 0.776948
0.760103 1.018103 0.777757
0.883859 1.018912 0.778565
1.007615 1.019720 0.779374
0.001962 0.001962 0.880594
0.119719 0.002731 0.881363
0.243475 0.003540 0.882172
0.367231 0.004348 0.882980
0.490987 0.005156 0.883789
0.614743 0.005965 0.884597
0.738499 0.006773 0.885406
0.862255 0.007582 0.886214
0.986011 0.008390 0.887022
0.004427 0.115867 0.883059
0.122185 0.116636 0.883829
0.245940 0.117445 0.884637
0.369696 0.118253 0.885445
0.493452 0.119061 0.886254
0.617208 0.119870 0.887062
0.740964 0.120678 0.887871
0.864720 0.121487 0.888679
0.988476 0.122295 0.889487
0.007202 0.244112 0.885835
0.124960 0.244881 0.886604
0.248716 0.245689 0.887412
0.372472 0.246498 0.888221
0.496228 0.247306 0.889029
0.619983 0.248115 0.889837
0.743739 0.248923 0.890646
0.867495 0.249731 0.891454
0.991251 0.250540 0.892263
0.009978 0.372357 0.888610
0.127735 0.373126 0.889379
0.251491 0.373934 0.890188
0.375247 0.374743 0.890996
0.499003 0.375551 0.891804
0.622759 0.376359 0.892613
0.746515 0.377168 0.893421
0.870271 0.377976 0.894230
0.994027 0.378785 0.895038
0.012753 0.500601 0.891385
0.130511 0.501371 0.892155
0.254266 0.502179 0.892963
0.378022 0.502987 0.893771
0.501778 0.503796 0.894580
0.625534 0.504604 0.895388
0.749290 0.505413 0.896197
0.873046 0.506221 0.897005
0.996802 0.507029 0.897813
0.015528 0.628846 0.894161
0.133286 0.629615 0.894930
0.257042 0.630424 0.895738
0.380798 0.631232 0.896547
0.504554 0.632041 0.897355
0.628309 0.632849 0.898163
0.752065 0.633657 0.898972
0.875821 0.634466 0.899780
0.999577 0.635274 0.900589
0.018304 0.757091 0.896936
0.136061 0.757860 0.897705
0.259817 0.758669 0.898514
0.383573 0.759477 0.899322
0.507329 0.760286 0.900130
0.631085 0.761094 0.900939
0.754841 0.761902 0.901747
0.878597 0.762711 0.902556
1.002353 0.763519 0.903364
0.021079 0.885336 0.899711
0.138837 0.886105 0.900481
0.262592 0.886914 0.901289
0.386348 0.887722 0.902097
0.510104 0.888530 0.902906
0.633860 0.889339 0.903714
0.757616 0.890147 0.904523
0.881372 0.890956 0.905331
1.005128 0.891764 0.906139
0.023854 1.013581 0.902487
0.141612 1.014350 0.903256
0.265368 1.015158 0.904064
0.389124 1.015967 0.904873
0.512880 1.016775 0.905681
0.636635 1.017584 0.906489
0.760391 1.018392 0.907298
0.884147 1.019200 0.908106
1.007903 1.020009 0.908915
0.002251 0.002251 1.010135
0.120008 0.003020 1.010905
0.243764 0.003828 1.011713
0.367520 0.004637 1.012521
0.491276 0.005445 1.013330
0.615032 0.006253 1.014138
0.738788 0.007062 1.014947
0.862544 0.007870 1.015755
0.986299 0.008679 1.016563
0.004716 0.116155 1.012600
0.122473 0.116925 1.013370
0.246229 0.117733 1.014178
0.369985 0.118542 1.014986
0.493741 0.119350 1.015795
0.617497 0.120158 1.016603
0.741253 0.120967 1.017412
0.865009 0.121775 1.018220
0.988765 0.122584 1.019029
0.007491 0.244400 1.015376
0.125248 0.245170 1.016145
0.249004 0.245978 1.016953
0.372760 0.246786 1.017762
0.496516 0.247595 1.018570
0.620272 0.248403 1.019379
0.744028 0.249212 1.020187
0.867784 0.250020 1.020995
0.991540 0.250828 1.021804
0.010266 0.372645 1.018151
0.128024 0.373414 1.018920
0.251780 0.374223 1.019729
0.375536 0.375031 1.020537
0.499292 0.375840 1.021346
0.623047 0.376648 1.022154
0.746803 0.377456 1.022962
0.870559 0.378265 1.023771
0.994315 0.379073 1.024579
0.013042 0.500890 1.020926
0.130799 0.501659 1.021696
0.254555 0.502468 1.022504
0.378311 0.503276 1.023312
0.502067 0.504084 1.024121
0.625823 0.504893 1.024929
0.749579 0.505701 1.025738
0.873335 0.506510 1.026546
0.997091 0.507318 1.027355
0.015817 0.629135 1.023702
0.133574 0.629904 1.024471
0.257330 0.630712 1.025279
0.381086 0.631521 1.026088
0.504842 0.632329 1.026896
0.628598 0.633138 1.027705
0.752354 0.633946 1.028513
0.876110 0.634755 1.029321
0.999866 0.635563 1.030130
0.018592 0.757380 1.026477
0.136350 0.758149 1.027246
0.260106 0.758957 1.028055
0.383862 0.759766 1.028863
0.507618 0.760574 1.029672
0.631373 0.761383 1.030480
0.755129 0.762191 1.031288
0.878885 0.762999 1.032097
1.002641 0.763808 1.032905
0.021368 0.885624 1.029252
0.139125 0.886394 1.030022
0.262881 0.887202 1.030830
0.386637 0.888011 1.031638
0.510393 0.888819 1.032447
0.634149 0.889627 1.033255
0.757905 0.890436 1.034064
0.881661 0.891244 1.034872
1.005417 0.892053 1.035681
0.024143 1.013869 1.032028
0.141900 1.014639 1.032797
0.265656 1.015447 1.033605
0.389412 1.016255 1.034414
0.513168 1.017064 1.035222
0.636924 1.017872 1.036031
0.760680 1.018681 1.036839
0.884436 1.019489 1.037647
1.008192 1.020297 1.038456
