engine/Code/CryPlugins/CinematicCamera/Assets/cinecam/luts/look_warm_print_33.cube
# Generated by tools/ocio-bake/bake.py -- do not edit by hand.
#
# ReC-LUT-Space: ACEScct
#
# preset            : look_warm_print
# config URI        : (none -- ACEScct arithmetic only, no OCIO)
# config name       : (none)
# ACES version      : (n/a -- a look is not an ACES transform)
# input space       : ACEScct   (LUT domain is this encoding, [0,1], red fastest)
# display           : (none -- a look, not an output transform)
# view              : (none)
# output encoding   : ACEScct (a look: same encoding in and out)
# grid size         : 33^3
# OCIO library      : 2.5.2
# baked (UTC)       : 2026-09-10T02:50:52Z
# tool git hash     : fa0f045d905e8df94b7136ca6cd9e37ebbed98ac-dirty
# tool sha256[:16]  : 48c8b086d843e6ac
#
# A SHIPPED LOOK. Warm shadows and cooler highlights is a per-channel Lift and Gain, i.e. one
# ASC CDL and nothing else, plus a little contrast and slightly softer colour. Mid grey is left
# where it is. Same caveat as look_film_contrast: this is a demonstration of the slot, not a
# show look.
# 
# THE RECIPE, so that nothing here is a mystery. Everything below is a control the CineCam
# Grade component itself has: type these numbers in and you get this file's picture, live.
# Applied in ACEScct, in the chain's own order: ASC CDL -> saturation -> master curve.
# 
#   Grade group
#     Lift (RGB)          +0.010000 +0.002000 -0.010000
#     Gamma (RGB)          1.000000  1.000000  1.000000
#     Gain (RGB)           0.985000  0.997000  1.015000
#     Contrast             1.040000
#     Contrast Pivot       0.4135878   (= ACEScct(0.18), the default)
#     Saturation           0.970000
#     CDL base (slope/offset/power) left neutral
# 
#   Curves group -- master curve, in STOPS (black / shadow / mid / highlight / white;
#   knots at ACEScct 0, mid grey -4 stops, mid grey, mid grey +4 stops, 1.0):
#     +0.000  +0.000  +0.000  +0.000  +0.000
# 
#   and the ONE ASC CDL the whole Grade group folds into -- what the camera publishes and
#   what a .cdl sidecar carries. The master curve above is NOT in it: a CDL cannot hold a
#   curve, which is exactly why the two are separate groups on the component.
#     slope      1.014000 1.034800 1.066000
#     offset     -0.006144 -0.014464 -0.026944
#     power      1.000000 1.000000 1.000000
#     saturation 0.970000
#
TITLE "Warm print -- warm shadows, cooler highlights"
LUT_3D_SIZE 5
DOMAIN_MIN 0.0 0.0 0.0
DOMAIN_MAX 1.0 1.0 1.0
0.000000 0.000000 0.000000
0.241513 0.001578 0.001578
0.489025 0.003194 0.003194
0.736537 0.004811 0.004811
0.984049 0.006428 0.006428
0.005240 0.242150 0.005240
0.246754 0.243727 0.006818
0.494266 0.245344 0.008435
0.741777 0.246961 0.010052
0.989289 0.248578 0.011668
0.010791 0.498639 0.010791
0.252304 0.500217 0.012369
0.499816 0.501834 0.013985
0.747328 0.503451 0.015602
0.994840 0.505068 0.017219
0.016342 0.755129 0.016342
0.257855 0.756707 0.017919
0.505367 0.758324 0.019536
0.752879 0.759940 0.021153
1.000391 0.761557 0.022770
0.021892 1.011619 0.021892
0.263406 1.013196 0.023470
0.510918 1.014813 0.025087
0.758429 1.016430 0.026704
1.005941 1.018047 0.028320
0.000519 0.000519 0.232889
0.242032 0.002097 0.234466
0.489544 0.003713 0.236083
0.737056 0.005330 0.237700
0.984568 0.006947 0.239317
0.005759 0.242669 0.238129
0.247273 0.244246 0.239707
0.494784 0.245863 0.241323
0.742296 0.247480 0.242940
0.989808 0.249097 0.244557
0.011310 0.499158 0.243680
0.252823 0.500736 0.245257
0.500335 0.502353 0.246874
0.747847 0.503970 0.248491
0.995359 0.505586 0.250108
0.016861 0.755648 0.249230
0.258374 0.757226 0.250808
0.505886 0.758842 0.252425
0.753398 0.760459 0.254042
1.000909 0.762076 0.255658
0.022411 1.012138 0.254781
0.263925 1.013715 0.256359
0.511436 1.015332 0.257975
0.758948 1.016949 0.259592
1.006460 1.018566 0.261209
0.001096 0.001096 0.491971
0.242610 0.002674 0.493549
0.490121 0.004291 0.495165
0.737633 0.005907 0.496782
0.985145 0.007524 0.498399
0.006336 0.243246 0.497211
0.247850 0.244823 0.498789
0.495362 0.246440 0.500406
0.742874 0.248057 0.502023
0.990385 0.249674 0.503639
0.011887 0.499736 0.502762
0.253401 0.501313 0.504340
0.500912 0.502930 0.505956
0.748424 0.504547 0.507573
0.995936 0.506164 0.509190
0.017438 0.756225 0.508313
0.258951 0.757803 0.509890
0.506463 0.759420 0.511507
0.753975 0.761036 0.513124
1.001487 0.762653 0.514741
0.022988 1.012715 0.513863
0.264502 1.014292 0.515441
0.512014 1.015909 0.517058
0.759526 1.017526 0.518675
1.007037 1.019143 0.520291
0.001673 0.001673 0.751053
0.243187 0.003251 0.752631
0.490699 0.004868 0.754248
0.738210 0.006485 0.755864
0.985722 0.008101 0.757481
0.006914 0.243823 0.756293
0.248427 0.245401 0.757871
0.495939 0.247018 0.759488
0.743451 0.248634 0.761105
0.990963 0.250251 0.762722
0.012464 0.500313 0.761844
0.253978 0.501890 0.763422
0.501490 0.503507 0.765039
0.749001 0.505124 0.766655
0.996513 0.506741 0.768272
0.018015 0.756802 0.767395
0.259528 0.758380 0.768972
0.507040 0.759997 0.770589
0.754552 0.761614 0.772206
1.002064 0.763231 0.773823
0.023566 1.013292 0.772945
0.265079 1.014870 0.774523
0.512591 1.016487 0.776140
0.760103 1.018103 0.777757
1.007615 1.019720 0.779374
0.002251 0.002251 1.010135
0.243764 0.003828 1.011713
0.491276 0.005445 1.013330
0.738788 0.007062 1.014947
0.986299 0.008679 1.016563
0.007491 0.244400 1.015376
0.249004 0.245978 1.016953
0.496516 0.247595 1.018570
0.744028 0.249212 1.020187
0.991540 0.250828 1.021804
0.013042 0.500890 1.020926
0.254555 0.502468 1.022504
0.502067 0.504084 1.024121
0.749579 0.505701 1.025738
0.997091 0.507318 1.027355
0.018592 0.757380 1.026477
0.260106 0.758957 1.028055
0.507618 0.760574 1.029672
0.755129 0.762191 1.031288
1.002641 0.763808 1.032905
0.024143 1.013869 1.032028
0.265656 1.015447 1.033605
0.513168 1.017064 1.035222
0.760680 1.018681 1.036839
1.008192 1.020297 1.038456
