engine/Code/CryPlugins/CinematicCamera/Assets/cinecam/luts/look_film_contrast_33.cube
# Generated by tools/ocio-bake/bake.py -- do not edit by hand.
#
# ReC-LUT-Space: ACEScct
#
# preset            : look_film_contrast
# config URI        : (none -- ACEScct arithmetic only, no OCIO)
# config name       : (none)
# ACES version      : (n/a -- a look is not an ACES transform)
# input space       : ACEScct   (LUT domain is this encoding, [0,1], red fastest)
# display           : (none -- a look, not an output transform)
# view              : (none)
# output encoding   : ACEScct (a look: same encoding in and out)
# grid size         : 33^3
# OCIO library      : 2.5.2
# baked (UTC)       : 2026-09-10T02:50:52Z
# tool git hash     : fa0f045d905e8df94b7136ca6cd9e37ebbed98ac-dirty
# tool sha256[:16]  : 48c8b086d843e6ac
#
# A SHIPPED LOOK, and deliberately a simple one. There is no hue rotation, no highlight
# desaturation and no per-hue saturation in here -- the things an LMT is normally for. This
# file exists to be readable, reproducible on the component's own controls, and to prove the
# LMT slot works. Interesting looks are authored in Resolve and come back as their own cube.
# 
# THE RECIPE, so that nothing here is a mystery. Everything below is a control the CineCam
# Grade component itself has: type these numbers in and you get this file's picture, live.
# Applied in ACEScct, in the chain's own order: ASC CDL -> saturation -> master curve.
# 
#   Grade group
#     Lift (RGB)          +0.000000 +0.000000 +0.000000
#     Gamma (RGB)          1.000000  1.000000  1.000000
#     Gain (RGB)           1.000000  1.000000  1.000000
#     Contrast             1.050000
#     Contrast Pivot       0.4135878   (= ACEScct(0.18), the default)
#     Saturation           1.030000
#     CDL base (slope/offset/power) left neutral
# 
#   Curves group -- master curve, in STOPS (black / shadow / mid / highlight / white;
#   knots at ACEScct 0, mid grey -4 stops, mid grey, mid grey +4 stops, 1.0):
#     +0.000  -0.450  +0.000  +0.300  +0.000
# 
#   and the ONE ASC CDL the whole Grade group folds into -- what the camera publishes and
#   what a .cdl sidecar carries. The master curve above is NOT in it: a CDL cannot hold a
#   curve, which is exactly why the two are separate groups on the component.
#     slope      1.050000 1.050000 1.050000
#     offset     -0.020679 -0.020679 -0.020679
#     power      1.000000 1.000000 1.000000
#     saturation 1.030000
#
TITLE "Film contrast -- soft S-curve about mid grey"
LUT_3D_SIZE 5
DOMAIN_MIN 0.0 0.0 0.0
DOMAIN_MAX 1.0 1.0 1.0
0.000000 0.000000 0.000000
0.224285 -0.001542 -0.001542
0.526044 -0.003217 -0.003217
0.798428 -0.004891 -0.004891
1.053635 -0.006565 -0.006565
-0.005189 0.220287 -0.005189
0.218603 0.218603 -0.006731
0.520389 0.216778 -0.008405
0.793523 0.214958 -0.010079
1.048447 0.213143 -0.011754
-0.010821 0.517754 -0.010821
0.212484 0.516070 -0.012363
0.514242 0.514242 -0.014037
0.788188 0.512414 -0.015711
1.042815 0.510584 -0.017386
-0.016453 0.787485 -0.016453
0.206420 0.786023 -0.017995
0.508088 0.784434 -0.019669
0.782844 0.782844 -0.021344
1.037182 0.781254 -0.023018
-0.022085 1.038115 -0.022085
0.200416 1.036573 -0.023627
0.501927 1.034899 -0.025302
0.777490 1.033224 -0.026976
1.031550 1.031550 -0.028650
-0.000524 -0.000524 0.225406
0.223710 -0.002066 0.223710
0.525474 -0.003740 0.221873
0.797933 -0.005415 0.220040
1.053111 -0.007089 0.218212
-0.005712 0.219715 0.219715
0.218031 0.218031 0.218031
0.519818 0.216208 0.216208
0.793027 0.214390 0.214390
1.047923 0.212577 0.212577
-0.011344 0.517182 0.213586
0.211918 0.515499 0.211918
0.513670 0.513670 0.210111
0.787692 0.511841 0.208309
1.042291 0.510012 0.206512
-0.016977 0.786989 0.207513
0.205859 0.785526 0.205859
0.507515 0.783937 0.204070
0.782347 0.782347 0.202286
1.036659 0.780756 0.200507
-0.022609 1.037591 0.201497
0.199860 1.036049 0.199860
0.501354 1.034375 0.198089
0.776991 1.032701 0.196323
1.031026 1.031026 0.194563
-0.001092 -0.001092 0.528357
0.223085 -0.002635 0.526678
0.524854 -0.004309 0.524854
0.797396 -0.005983 0.523030
1.052543 -0.007657 0.521205
-0.006281 0.219094 0.522705
0.217412 0.217412 0.521024
0.519198 0.215590 0.519198
0.792489 0.213774 0.517371
1.047354 0.211962 0.515543
-0.011913 0.516562 0.516562
0.211303 0.514878 0.514878
0.513049 0.513049 0.513049
0.787153 0.511220 0.511220
1.041722 0.509391 0.509391
-0.017545 0.786449 0.510410
0.205251 0.784986 0.508724
0.506894 0.783397 0.506894
0.781807 0.781807 0.505063
1.036090 0.780215 0.503231
-0.023177 1.037023 0.504251
0.199258 1.035480 0.502564
0.500731 1.033806 0.500731
0.776450 1.032132 0.498899
1.030458 1.030458 0.497065
-0.001661 -0.001661 0.801478
0.222462 -0.003203 0.800022
0.524235 -0.004877 0.798441
0.796859 -0.006552 0.796859
1.051974 -0.008226 0.795276
-0.006849 0.218473 0.796577
0.216793 0.216793 0.795119
0.518577 0.214973 0.793535
0.791950 0.213158 0.791950
1.046786 0.211348 0.790365
-0.012482 0.515941 0.791248
0.210690 0.514257 0.789788
0.512428 0.512428 0.788201
0.786613 0.510599 0.786613
1.041154 0.508769 0.785025
-0.018114 0.785910 0.785910
0.204643 0.784446 0.784446
0.506272 0.782857 0.782857
0.781266 0.781266 0.781266
1.035521 0.779675 0.779675
-0.023746 1.036454 0.780562
0.198657 1.034912 0.779095
0.500109 1.033238 0.777502
0.775909 1.031563 0.775909
1.029889 1.029889 0.774314
-0.002230 -0.002230 1.057971
0.221838 -0.003772 1.056428
0.523615 -0.005446 1.054754
0.796321 -0.007120 1.053080
1.051406 -0.008795 1.051406
-0.007418 0.217853 1.052782
0.216174 0.216174 1.051240
0.517957 0.214356 1.049566
0.791412 0.212542 1.047891
1.046217 0.210734 1.046217
-0.013050 0.515320 1.047150
0.210077 0.513636 1.045608
0.511807 0.511807 1.043933
0.786074 0.509978 1.042259
1.040585 0.508147 1.040585
-0.018682 0.785371 1.041518
0.204036 0.783907 1.039975
0.505650 0.782317 1.038301
0.780726 0.780726 1.036627
1.034953 0.779134 1.034953
-0.024315 1.035886 1.035886
0.198056 1.034343 1.034343
0.499487 1.032669 1.032669
0.775367 1.030995 1.030995
1.029321 1.029321 1.029321
