engine/Code/CryPlugins/CinematicCamera/Assets/cinecam/luts/look_warm_print_33.cube
# Generated by tools/ocio-bake/bake.py -- do not edit by hand.
#
# ReC-LUT-Space: ACEScct
#
# preset            : look_warm_print
# config URI        : (none -- ACEScct arithmetic only, no OCIO)
# config name       : (none)
# ACES version      : (n/a -- a look is not an ACES transform)
# input space       : ACEScct   (LUT domain is this encoding, [0,1], red fastest)
# display           : (none -- a look, not an output transform)
# view              : (none)
# output encoding   : ACEScct (a look: same encoding in and out)
# grid size         : 33^3
# OCIO library      : 2.5.2
# baked (UTC)       : 2026-09-10T02:50:52Z
# tool git hash     : fa0f045d905e8df94b7136ca6cd9e37ebbed98ac-dirty
# tool sha256[:16]  : 48c8b086d843e6ac
#
# A SHIPPED LOOK. Warm shadows and cooler highlights is a per-channel Lift and Gain, i.e. one
# ASC CDL and nothing else, plus a little contrast and slightly softer colour. Mid grey is left
# where it is. Same caveat as look_film_contrast: this is a demonstration of the slot, not a
# show look.
# 
# THE RECIPE, so that nothing here is a mystery. Everything below is a control the CineCam
# Grade component itself has: type these numbers in and you get this file's picture, live.
# Applied in ACEScct, in the chain's own order: ASC CDL -> saturation -> master curve.
# 
#   Grade group
#     Lift (RGB)          +0.010000 +0.002000 -0.010000
#     Gamma (RGB)          1.000000  1.000000  1.000000
#     Gain (RGB)           0.985000  0.997000  1.015000
#     Contrast             1.040000
#     Contrast Pivot       0.4135878   (= ACEScct(0.18), the default)
#     Saturation           0.970000
#     CDL base (slope/offset/power) left neutral
# 
#   Curves group -- master curve, in STOPS (black / shadow / mid / highlight / white;
#   knots at ACEScct 0, mid grey -4 stops, mid grey, mid grey +4 stops, 1.0):
#     +0.000  +0.000  +0.000  +0.000  +0.000
# 
#   and the ONE ASC CDL the whole Grade group folds into -- what the camera publishes and
#   what a .cdl sidecar carries. The master curve above is NOT in it: a CDL cannot hold a
#   curve, which is exactly why the two are separate groups on the component.
#     slope      1.014000 1.034800 1.066000
#     offset     -0.006144 -0.014464 -0.026944
#     power      1.000000 1.000000 1.000000
#     saturation 0.970000
#
TITLE "Warm print -- warm shadows, cooler highlights"
LUT_3D_SIZE 33
DOMAIN_MIN 0.0 0.0 0.0
DOMAIN_MAX 1.0 1.0 1.0
0.000000 0.000000 0.000000
0.024941 0.000163 0.000163
0.055880 0.000365 0.000365
0.086819 0.000567 0.000567
0.117758 0.000769 0.000769
0.148696 0.000971 0.000971
0.179635 0.001173 0.001173
0.210574 0.001376 0.001376
0.241513 0.001578 0.001578
0.272452 0.001780 0.001780
0.303391 0.001982 0.001982
0.334330 0.002184 0.002184
0.365269 0.002386 0.002386
0.396208 0.002588 0.002588
0.427147 0.002790 0.002790
0.458086 0.002992 0.002992
0.489025 0.003194 0.003194
0.519964 0.003397 0.003397
0.550903 0.003599 0.003599
0.581842 0.003801 0.003801
0.612781 0.004003 0.004003
0.643720 0.004205 0.004205
0.674659 0.004407 0.004407
0.705598 0.004609 0.004609
0.736537 0.004811 0.004811
0.767476 0.005013 0.005013
0.798415 0.005215 0.005215
0.829354 0.005418 0.005418
0.860293 0.005620 0.005620
0.891232 0.005822 0.005822
0.922171 0.006024 0.006024
0.953110 0.006226 0.006226
0.984049 0.006428 0.006428
0.000384 0.017721 0.000384
0.025324 0.017884 0.000546
0.056263 0.018086 0.000749
0.087202 0.018288 0.000951
0.118141 0.018491 0.001153
0.149080 0.018693 0.001355
0.180019 0.018895 0.001557
0.210958 0.019097 0.001759
0.241897 0.019299 0.001961
0.272836 0.019501 0.002163
0.303775 0.019703 0.002365
0.334714 0.019905 0.002567
0.365653 0.020107 0.002770
0.396592 0.020309 0.002972
0.427531 0.020512 0.003174
0.458470 0.020714 0.003376
0.489409 0.020916 0.003578
0.520348 0.021118 0.003780
0.551287 0.021320 0.003982
0.582226 0.021522 0.004184
0.613165 0.021724 0.004386
0.644104 0.021926 0.004588
0.675043 0.022128 0.004791
0.705982 0.022330 0.004993
0.736921 0.022533 0.005195
0.767860 0.022735 0.005397
0.798799 0.022937 0.005599
0.829738 0.023139 0.005801
0.860676 0.023341 0.006003
0.891615 0.023543 0.006205
0.922554 0.023745 0.006407
0.953493 0.023947 0.006610
0.984432 0.024149 0.006812
0.001077 0.049782 0.001077
0.026018 0.049945 0.001240
0.056957 0.050148 0.001442
0.087896 0.050350 0.001644
0.118835 0.050552 0.001847
0.149774 0.050754 0.002049
0.180713 0.050956 0.002251
0.211652 0.051158 0.002453
0.242591 0.051360 0.002655
0.273530 0.051562 0.002857
0.304469 0.051764 0.003059
0.335408 0.051966 0.003261
0.366347 0.052169 0.003463
0.397286 0.052371 0.003665
0.428225 0.052573 0.003868
0.459164 0.052775 0.004070
0.490103 0.052977 0.004272
0.521042 0.053179 0.004474
0.551981 0.053381 0.004676
0.582920 0.053583 0.004878
0.613859 0.053785 0.005080
0.644797 0.053987 0.005282
0.675736 0.054190 0.005484
0.706675 0.054392 0.005687
0.737614 0.054594 0.005889
0.768553 0.054796 0.006091
0.799492 0.054998 0.006293
0.830431 0.055200 0.006495
0.861370 0.055402 0.006697
0.892309 0.055604 0.006899
0.923248 0.055806 0.007101
0.954187 0.056008 0.007303
0.985126 0.056211 0.007505
0.001771 0.081844 0.001771
0.026712 0.082007 0.001934
0.057651 0.082209 0.002136
0.088590 0.082411 0.002338
0.119529 0.082613 0.002540
0.150468 0.082815 0.002743
0.181407 0.083017 0.002945
0.212346 0.083219 0.003147
0.243285 0.083421 0.003349
0.274224 0.083623 0.003551
0.305163 0.083826 0.003753
0.336102 0.084028 0.003955
0.367041 0.084230 0.004157
0.397979 0.084432 0.004359
0.428918 0.084634 0.004561
0.459857 0.084836 0.004764
0.490796 0.085038 0.004966
0.521735 0.085240 0.005168
0.552674 0.085442 0.005370
0.583613 0.085644 0.005572
0.614552 0.085847 0.005774
0.645491 0.086049 0.005976
0.676430 0.086251 0.006178
0.707369 0.086453 0.006380
0.738308 0.086655 0.006582
0.769247 0.086857 0.006785
0.800186 0.087059 0.006987
0.831125 0.087261 0.007189
0.862064 0.087463 0.007391
0.893003 0.087665 0.007593
0.923942 0.087868 0.007795
0.954881 0.088070 0.007997
0.985820 0.088272 0.008199
0.002465 0.113905 0.002465
0.027406 0.114068 0.002628
0.058345 0.114270 0.002830
0.089284 0.114472 0.003032
0.120223 0.114674 0.003234
0.151162 0.114876 0.003436
0.182100 0.115078 0.003638
0.213039 0.115280 0.003841
0.243978 0.115483 0.004043
0.274917 0.115685 0.004245
0.305856 0.115887 0.004447
0.336795 0.116089 0.004649
0.367734 0.116291 0.004851
0.398673 0.116493 0.005053
0.429612 0.116695 0.005255
0.460551 0.116897 0.005457
0.491490 0.117099 0.005659
0.522429 0.117301 0.005862
0.553368 0.117504 0.006064
0.584307 0.117706 0.006266
0.615246 0.117908 0.006468
0.646185 0.118110 0.006670
0.677124 0.118312 0.006872
0.708063 0.118514 0.007074
0.739002 0.118716 0.007276
0.769941 0.118918 0.007478
0.800880 0.119120 0.007680
0.831819 0.119322 0.007883
0.862758 0.119525 0.008085
0.893697 0.119727 0.008287
0.924636 0.119929 0.008489
0.955575 0.120131 0.008691
0.986514 0.120333 0.008893
0.003159 0.145966 0.003159
0.028099 0.146129 0.003322
0.059038 0.146331 0.003524
0.089977 0.146533 0.003726
0.120916 0.146735 0.003928
0.151855 0.146937 0.004130
0.182794 0.147140 0.004332
0.213733 0.147342 0.004534
0.244672 0.147544 0.004736
0.275611 0.147746 0.004939
0.306550 0.147948 0.005141
0.337489 0.148150 0.005343
0.368428 0.148352 0.005545
0.399367 0.148554 0.005747
0.430306 0.148756 0.005949
0.461245 0.148958 0.006151
0.492184 0.149161 0.006353
0.523123 0.149363 0.006555
0.554062 0.149565 0.006758
0.585001 0.149767 0.006960
0.615940 0.149969 0.007162
0.646879 0.150171 0.007364
0.677818 0.150373 0.007566
0.708757 0.150575 0.007768
0.739696 0.150777 0.007970
0.770635 0.150979 0.008172
0.801574 0.151182 0.008374
0.832513 0.151384 0.008576
0.863452 0.151586 0.008779
0.894391 0.151788 0.008981
0.925330 0.151990 0.009183
0.956269 0.152192 0.009385
0.987208 0.152394 0.009587
0.003853 0.178027 0.003853
0.028793 0.178190 0.004016
0.059732 0.178392 0.004218
0.090671 0.178594 0.004420
0.121610 0.178797 0.004622
0.152549 0.178999 0.004824
0.183488 0.179201 0.005026
0.214427 0.179403 0.005228
0.245366 0.179605 0.005430
0.276305 0.179807 0.005632
0.307244 0.180009 0.005835
0.338183 0.180211 0.006037
0.369122 0.180413 0.006239
0.400061 0.180615 0.006441
0.431000 0.180818 0.006643
0.461939 0.181020 0.006845
0.492878 0.181222 0.007047
0.523817 0.181424 0.007249
0.554756 0.181626 0.007451
0.585695 0.181828 0.007653
0.616634 0.182030 0.007856
0.647573 0.182232 0.008058
0.678512 0.182434 0.008260
0.709451 0.182636 0.008462
0.740390 0.182839 0.008664
0.771329 0.183041 0.008866
0.802268 0.183243 0.009068
0.833207 0.183445 0.009270
0.864146 0.183647 0.009472
0.895085 0.183849 0.009674
0.926024 0.184051 0.009877
0.956963 0.184253 0.010079
0.987902 0.184455 0.010281
0.004547 0.210089 0.004547
0.029487 0.210251 0.004709
0.060426 0.210454 0.004912
0.091365 0.210656 0.005114
0.122304 0.210858 0.005316
0.153243 0.211060 0.005518
0.184182 0.211262 0.005720
0.215121 0.211464 0.005922
0.246060 0.211666 0.006124
0.276999 0.211868 0.006326
0.307938 0.212070 0.006528
0.338877 0.212272 0.006730
0.369816 0.212475 0.006933
0.400755 0.212677 0.007135
0.431694 0.212879 0.007337
0.462633 0.213081 0.007539
0.493572 0.213283 0.007741
0.524511 0.213485 0.007943
0.555450 0.213687 0.008145
0.586389 0.213889 0.008347
0.617328 0.214091 0.008549
0.648267 0.214294 0.008751
0.679206 0.214496 0.008954
0.710145 0.214698 0.009156
0.741084 0.214900 0.009358
0.772023 0.215102 0.009560
0.802962 0.215304 0.009762
0.833901 0.215506 0.009964
0.864839 0.215708 0.010166
0.895778 0.215910 0.010368
0.926717 0.216112 0.010570
0.957656 0.216315 0.010773
0.988595 0.216517 0.010975
0.005240 0.242150 0.005240
0.030181 0.242313 0.005403
0.061120 0.242515 0.005605
0.092059 0.242717 0.005807
0.122998 0.242919 0.006010
0.153937 0.243121 0.006212
0.184876 0.243323 0.006414
0.215815 0.243525 0.006616
0.246754 0.243727 0.006818
0.277693 0.243929 0.007020
0.308632 0.244132 0.007222
0.339571 0.244334 0.007424
0.370510 0.244536 0.007626
0.401449 0.244738 0.007828
0.432388 0.244940 0.008031
0.463327 0.245142 0.008233
0.494266 0.245344 0.008435
0.525205 0.245546 0.008637
0.556144 0.245748 0.008839
0.587083 0.245951 0.009041
0.618022 0.246153 0.009243
0.648960 0.246355 0.009445
0.679899 0.246557 0.009647
0.710838 0.246759 0.009850
0.741777 0.246961 0.010052
0.772716 0.247163 0.010254
0.803655 0.247365 0.010456
0.834594 0.247567 0.010658
0.865533 0.247769 0.010860
0.896472 0.247972 0.011062
0.927411 0.248174 0.011264
0.958350 0.248376 0.011466
0.989289 0.248578 0.011668
0.005934 0.274211 0.005934
0.030875 0.274374 0.006097
0.061814 0.274576 0.006299
0.092753 0.274778 0.006501
0.123692 0.274980 0.006703
0.154631 0.275182 0.006906
0.185570 0.275384 0.007108
0.216509 0.275586 0.007310
0.247448 0.275789 0.007512
0.278387 0.275991 0.007714
0.309326 0.276193 0.007916
0.340265 0.276395 0.008118
0.371204 0.276597 0.008320
0.402142 0.276799 0.008522
0.433081 0.277001 0.008724
0.464020 0.277203 0.008927
0.494959 0.277405 0.009129
0.525898 0.277608 0.009331
0.556837 0.277810 0.009533
0.587776 0.278012 0.009735
0.618715 0.278214 0.009937
0.649654 0.278416 0.010139
0.680593 0.278618 0.010341
0.711532 0.278820 0.010543
0.742471 0.279022 0.010745
0.773410 0.279224 0.010948
0.804349 0.279426 0.011150
0.835288 0.279629 0.011352
0.866227 0.279831 0.011554
0.897166 0.280033 0.011756
0.928105 0.280235 0.011958
0.959044 0.280437 0.012160
0.989983 0.280639 0.012362
0.006628 0.306272 0.006628
0.031569 0.306435 0.006791
0.062508 0.306637 0.006993
0.093447 0.306839 0.007195
0.124386 0.307041 0.007397
0.155325 0.307243 0.007599
0.186263 0.307446 0.007801
0.217202 0.307648 0.008004
0.248141 0.307850 0.008206
0.279080 0.308052 0.008408
0.310019 0.308254 0.008610
0.340958 0.308456 0.008812
0.371897 0.308658 0.009014
0.402836 0.308860 0.009216
0.433775 0.309062 0.009418
0.464714 0.309265 0.009620
0.495653 0.309467 0.009822
0.526592 0.309669 0.010025
0.557531 0.309871 0.010227
0.588470 0.310073 0.010429
0.619409 0.310275 0.010631
0.650348 0.310477 0.010833
0.681287 0.310679 0.011035
0.712226 0.310881 0.011237
0.743165 0.311083 0.011439
0.774104 0.311286 0.011641
0.805043 0.311488 0.011843
0.835982 0.311690 0.012046
0.866921 0.311892 0.012248
0.897860 0.312094 0.012450
0.928799 0.312296 0.012652
0.959738 0.312498 0.012854
0.990677 0.312700 0.013056
0.007322 0.338333 0.007322
0.032262 0.338496 0.007485
0.063201 0.338698 0.007687
0.094140 0.338900 0.007889
0.125079 0.339103 0.008091
0.156018 0.339305 0.008293
0.186957 0.339507 0.008495
0.217896 0.339709 0.008697
0.248835 0.339911 0.008899
0.279774 0.340113 0.009102
0.310713 0.340315 0.009304
0.341652 0.340517 0.009506
0.372591 0.340719 0.009708
0.403530 0.340922 0.009910
0.434469 0.341124 0.010112
0.465408 0.341326 0.010314
0.496347 0.341528 0.010516
0.527286 0.341730 0.010718
0.558225 0.341932 0.010921
0.589164 0.342134 0.011123
0.620103 0.342336 0.011325
0.651042 0.342538 0.011527
0.681981 0.342740 0.011729
0.712920 0.342943 0.011931
0.743859 0.343145 0.012133
0.774798 0.343347 0.012335
0.805737 0.343549 0.012537
0.836676 0.343751 0.012739
0.867615 0.343953 0.012942
0.898554 0.344155 0.013144
0.929493 0.344357 0.013346
0.960432 0.344559 0.013548
0.991371 0.344761 0.013750
0.008016 0.370395 0.008016
0.032956 0.370557 0.008179
0.063895 0.370760 0.008381
0.094834 0.370962 0.008583
0.125773 0.371164 0.008785
0.156712 0.371366 0.008987
0.187651 0.371568 0.009189
0.218590 0.371770 0.009391
0.249529 0.371972 0.009593
0.280468 0.372174 0.009795
0.311407 0.372376 0.009998
0.342346 0.372579 0.010200
0.373285 0.372781 0.010402
0.404224 0.372983 0.010604
0.435163 0.373185 0.010806
0.466102 0.373387 0.011008
0.497041 0.373589 0.011210
0.527980 0.373791 0.011412
0.558919 0.373993 0.011614
0.589858 0.374195 0.011816
0.620797 0.374397 0.012019
0.651736 0.374600 0.012221
0.682675 0.374802 0.012423
0.713614 0.375004 0.012625
0.744553 0.375206 0.012827
0.775492 0.375408 0.013029
0.806431 0.375610 0.013231
0.837370 0.375812 0.013433
0.868309 0.376014 0.013635
0.899248 0.376216 0.013837
0.930187 0.376418 0.014040
0.961126 0.376621 0.014242
0.992065 0.376823 0.014444
0.008710 0.402456 0.008710
0.033650 0.402619 0.008872
0.064589 0.402821 0.009075
0.095528 0.403023 0.009277
0.126467 0.403225 0.009479
0.157406 0.403427 0.009681
0.188345 0.403629 0.009883
0.219284 0.403831 0.010085
0.250223 0.404033 0.010287
0.281162 0.404236 0.010489
0.312101 0.404438 0.010691
0.343040 0.404640 0.010893
0.373979 0.404842 0.011096
0.404918 0.405044 0.011298
0.435857 0.405246 0.011500
0.466796 0.405448 0.011702
0.497735 0.405650 0.011904
0.528674 0.405852 0.012106
0.559613 0.406054 0.012308
0.590552 0.406257 0.012510
0.621491 0.406459 0.012712
0.652430 0.406661 0.012914
0.683369 0.406863 0.013117
0.714308 0.407065 0.013319
0.745247 0.407267 0.013521
0.776186 0.407469 0.013723
0.807125 0.407671 0.013925
0.838064 0.407873 0.014127
0.869002 0.408075 0.014329
0.899941 0.408278 0.014531
0.930880 0.408480 0.014733
0.961819 0.408682 0.014936
0.992758 0.408884 0.015138
0.009403 0.434517 0.009403
0.034344 0.434680 0.009566
0.065283 0.434882 0.009768
0.096222 0.435084 0.009970
0.127161 0.435286 0.010173
0.158100 0.435488 0.010375
0.189039 0.435690 0.010577
0.219978 0.435893 0.010779
0.250917 0.436095 0.010981
0.281856 0.436297 0.011183
0.312795 0.436499 0.011385
0.343734 0.436701 0.011587
0.374673 0.436903 0.011789
0.405612 0.437105 0.011991
0.436551 0.437307 0.012194
0.467490 0.437509 0.012396
0.498429 0.437711 0.012598
0.529368 0.437914 0.012800
0.560307 0.438116 0.013002
0.591246 0.438318 0.013204
0.622185 0.438520 0.013406
0.653123 0.438722 0.013608
0.684062 0.438924 0.013810
0.715001 0.439126 0.014013
0.745940 0.439328 0.014215
0.776879 0.439530 0.014417
0.807818 0.439732 0.014619
0.838757 0.439935 0.014821
0.869696 0.440137 0.015023
0.900635 0.440339 0.015225
0.931574 0.440541 0.015427
0.962513 0.440743 0.015629
0.993452 0.440945 0.015831
0.010097 0.466578 0.010097
0.035038 0.466741 0.010260
0.065977 0.466943 0.010462
0.096916 0.467145 0.010664
0.127855 0.467347 0.010866
0.158794 0.467550 0.011069
0.189733 0.467752 0.011271
0.220672 0.467954 0.011473
0.251611 0.468156 0.011675
0.282550 0.468358 0.011877
0.313489 0.468560 0.012079
0.344428 0.468762 0.012281
0.375367 0.468964 0.012483
0.406305 0.469166 0.012685
0.437244 0.469368 0.012887
0.468183 0.469571 0.013090
0.499122 0.469773 0.013292
0.530061 0.469975 0.013494
0.561000 0.470177 0.013696
0.591939 0.470379 0.013898
0.622878 0.470581 0.014100
0.653817 0.470783 0.014302
0.684756 0.470985 0.014504
0.715695 0.471187 0.014706
0.746634 0.471389 0.014908
0.777573 0.471592 0.015111
0.808512 0.471794 0.015313
0.839451 0.471996 0.015515
0.870390 0.472198 0.015717
0.901329 0.472400 0.015919
0.932268 0.472602 0.016121
0.963207 0.472804 0.016323
0.994146 0.473006 0.016525
0.010791 0.498639 0.010791
0.035732 0.498802 0.010954
0.066671 0.499004 0.011156
0.097610 0.499207 0.011358
0.128549 0.499409 0.011560
0.159488 0.499611 0.011762
0.190426 0.499813 0.011964
0.221365 0.500015 0.012167
0.252304 0.500217 0.012369
0.283243 0.500419 0.012571
0.314182 0.500621 0.012773
0.345121 0.500823 0.012975
0.376060 0.501025 0.013177
0.406999 0.501228 0.013379
0.437938 0.501430 0.013581
0.468877 0.501632 0.013783
0.499816 0.501834 0.013985
0.530755 0.502036 0.014188
0.561694 0.502238 0.014390
0.592633 0.502440 0.014592
0.623572 0.502642 0.014794
0.654511 0.502844 0.014996
0.685450 0.503046 0.015198
0.716389 0.503249 0.015400
0.747328 0.503451 0.015602
0.778267 0.503653 0.015804
0.809206 0.503855 0.016006
0.840145 0.504057 0.016209
0.871084 0.504259 0.016411
0.902023 0.504461 0.016613
0.932962 0.504663 0.016815
0.963901 0.504865 0.017017
0.994840 0.505068 0.017219
0.011485 0.530701 0.011485
0.036425 0.530864 0.011648
0.067364 0.531066 0.011850
0.098303 0.531268 0.012052
0.129242 0.531470 0.012254
0.160181 0.531672 0.012456
0.191120 0.531874 0.012658
0.222059 0.532076 0.012860
0.252998 0.532278 0.013062
0.283937 0.532480 0.013265
0.314876 0.532682 0.013467
0.345815 0.532885 0.013669
0.376754 0.533087 0.013871
0.407693 0.533289 0.014073
0.438632 0.533491 0.014275
0.469571 0.533693 0.014477
0.500510 0.533895 0.014679
0.531449 0.534097 0.014881
0.562388 0.534299 0.015084
0.593327 0.534501 0.015286
0.624266 0.534703 0.015488
0.655205 0.534906 0.015690
0.686144 0.535108 0.015892
0.717083 0.535310 0.016094
0.748022 0.535512 0.016296
0.778961 0.535714 0.016498
0.809900 0.535916 0.016700
0.840839 0.536118 0.016902
0.871778 0.536320 0.017105
0.902717 0.536522 0.017307
0.933656 0.536725 0.017509
0.964595 0.536927 0.017711
0.995534 0.537129 0.017913
0.012179 0.562762 0.012179
0.037119 0.562925 0.012342
0.068058 0.563127 0.012544
0.098997 0.563329 0.012746
0.129936 0.563531 0.012948
0.160875 0.563733 0.013150
0.191814 0.563935 0.013352
0.222753 0.564137 0.013554
0.253692 0.564339 0.013756
0.284631 0.564542 0.013958
0.315570 0.564744 0.014161
0.346509 0.564946 0.014363
0.377448 0.565148 0.014565
0.408387 0.565350 0.014767
0.439326 0.565552 0.014969
0.470265 0.565754 0.015171
0.501204 0.565956 0.015373
0.532143 0.566158 0.015575
0.563082 0.566360 0.015777
0.594021 0.566563 0.015979
0.624960 0.566765 0.016182
0.655899 0.566967 0.016384
0.686838 0.567169 0.016586
0.717777 0.567371 0.016788
0.748716 0.567573 0.016990
0.779655 0.567775 0.017192
0.810594 0.567977 0.017394
0.841533 0.568179 0.017596
0.872472 0.568382 0.017798
0.903411 0.568584 0.018000
0.934350 0.568786 0.018203
0.965289 0.568988 0.018405
0.996228 0.569190 0.018607
0.012873 0.594823 0.012873
0.037813 0.594986 0.013035
0.068752 0.595188 0.013238
0.099691 0.595390 0.013440
0.130630 0.595592 0.013642
0.161569 0.595794 0.013844
0.192508 0.595996 0.014046
0.223447 0.596199 0.014248
0.254386 0.596401 0.014450
0.285325 0.596603 0.014652
0.316264 0.596805 0.014854
0.347203 0.597007 0.015056
0.378142 0.597209 0.015259
0.409081 0.597411 0.015461
0.440020 0.597613 0.015663
0.470959 0.597815 0.015865
0.501898 0.598017 0.016067
0.532837 0.598220 0.016269
0.563776 0.598422 0.016471
0.594715 0.598624 0.016673
0.625654 0.598826 0.016875
0.656593 0.599028 0.017077
0.687532 0.599230 0.017280
0.718471 0.599432 0.017482
0.749410 0.599634 0.017684
0.780349 0.599836 0.017886
0.811288 0.600039 0.018088
0.842227 0.600241 0.018290
0.873165 0.600443 0.018492
0.904104 0.600645 0.018694
0.935043 0.600847 0.018896
0.965982 0.601049 0.019099
0.996921 0.601251 0.019301
0.013566 0.626884 0.013566
0.038507 0.627047 0.013729
0.069446 0.627249 0.013931
0.100385 0.627451 0.014133
0.131324 0.627653 0.014336
0.162263 0.627856 0.014538
0.193202 0.628058 0.014740
0.224141 0.628260 0.014942
0.255080 0.628462 0.015144
0.286019 0.628664 0.015346
0.316958 0.628866 0.015548
0.347897 0.629068 0.015750
0.378836 0.629270 0.015952
0.409775 0.629472 0.016154
0.440714 0.629674 0.016357
0.471653 0.629877 0.016559
0.502592 0.630079 0.016761
0.533531 0.630281 0.016963
0.564470 0.630483 0.017165
0.595409 0.630685 0.017367
0.626348 0.630887 0.017569
0.657286 0.631089 0.017771
0.688225 0.631291 0.017973
0.719164 0.631493 0.018176
0.750103 0.631696 0.018378
0.781042 0.631898 0.018580
0.811981 0.632100 0.018782
0.842920 0.632302 0.018984
0.873859 0.632504 0.019186
0.904798 0.632706 0.019388
0.935737 0.632908 0.019590
0.966676 0.633110 0.019792
0.997615 0.633312 0.019994
0.014260 0.658945 0.014260
0.039201 0.659108 0.014423
0.070140 0.659310 0.014625
0.101079 0.659513 0.014827
0.132018 0.659715 0.015029
0.162957 0.659917 0.015232
0.193896 0.660119 0.015434
0.224835 0.660321 0.015636
0.255774 0.660523 0.015838
0.286713 0.660725 0.016040
0.317652 0.660927 0.016242
0.348591 0.661129 0.016444
0.379530 0.661331 0.016646
0.410468 0.661534 0.016848
0.441407 0.661736 0.017050
0.472346 0.661938 0.017253
0.503285 0.662140 0.017455
0.534224 0.662342 0.017657
0.565163 0.662544 0.017859
0.596102 0.662746 0.018061
0.627041 0.662948 0.018263
0.657980 0.663150 0.018465
0.688919 0.663353 0.018667
0.719858 0.663555 0.018869
0.750797 0.663757 0.019071
0.781736 0.663959 0.019274
0.812675 0.664161 0.019476
0.843614 0.664363 0.019678
0.874553 0.664565 0.019880
0.905492 0.664767 0.020082
0.936431 0.664969 0.020284
0.967370 0.665171 0.020486
0.998309 0.665374 0.020688
0.014954 0.691007 0.014954
0.039895 0.691170 0.015117
0.070834 0.691372 0.015319
0.101773 0.691574 0.015521
0.132712 0.691776 0.015723
0.163651 0.691978 0.015925
0.194589 0.692180 0.016127
0.225528 0.692382 0.016330
0.256467 0.692584 0.016532
0.287406 0.692786 0.016734
0.318345 0.692988 0.016936
0.349284 0.693191 0.017138
0.380223 0.693393 0.017340
0.411162 0.693595 0.017542
0.442101 0.693797 0.017744
0.473040 0.693999 0.017946
0.503979 0.694201 0.018148
0.534918 0.694403 0.018351
0.565857 0.694605 0.018553
0.596796 0.694807 0.018755
0.627735 0.695010 0.018957
0.658674 0.695212 0.019159
0.689613 0.695414 0.019361
0.720552 0.695616 0.019563
0.751491 0.695818 0.019765
0.782430 0.696020 0.019967
0.813369 0.696222 0.020169
0.844308 0.696424 0.020372
0.875247 0.696626 0.020574
0.906186 0.696828 0.020776
0.937125 0.697031 0.020978
0.968064 0.697233 0.021180
0.999003 0.697435 0.021382
0.015648 0.723068 0.015648
0.040588 0.723231 0.015811
0.071527 0.723433 0.016013
0.102466 0.723635 0.016215
0.133405 0.723837 0.016417
0.164344 0.724039 0.016619
0.195283 0.724241 0.016821
0.226222 0.724443 0.017023
0.257161 0.724645 0.017225
0.288100 0.724848 0.017428
0.319039 0.725050 0.017630
0.349978 0.725252 0.017832
0.380917 0.725454 0.018034
0.411856 0.725656 0.018236
0.442795 0.725858 0.018438
0.473734 0.726060 0.018640
0.504673 0.726262 0.018842
0.535612 0.726464 0.019044
0.566551 0.726667 0.019247
0.597490 0.726869 0.019449
0.628429 0.727071 0.019651
0.659368 0.727273 0.019853
0.690307 0.727475 0.020055
0.721246 0.727677 0.020257
0.752185 0.727879 0.020459
0.783124 0.728081 0.020661
0.814063 0.728283 0.020863
0.845002 0.728485 0.021065
0.875941 0.728688 0.021268
0.906880 0.728890 0.021470
0.937819 0.729092 0.021672
0.968758 0.729294 0.021874
0.999697 0.729496 0.022076
0.016342 0.755129 0.016342
0.041282 0.755292 0.016505
0.072221 0.755494 0.016707
0.103160 0.755696 0.016909
0.134099 0.755898 0.017111
0.165038 0.756100 0.017313
