engine/Code/CryPlugins/CinematicCamera/Assets/cinecam/luts/look_film_contrast_33.cube
# Generated by tools/ocio-bake/bake.py -- do not edit by hand.
#
# ReC-LUT-Space: ACEScct
#
# preset            : look_film_contrast
# config URI        : (none -- ACEScct arithmetic only, no OCIO)
# config name       : (none)
# ACES version      : (n/a -- a look is not an ACES transform)
# input space       : ACEScct   (LUT domain is this encoding, [0,1], red fastest)
# display           : (none -- a look, not an output transform)
# view              : (none)
# output encoding   : ACEScct (a look: same encoding in and out)
# grid size         : 33^3
# OCIO library      : 2.5.2
# baked (UTC)       : 2026-09-10T02:50:52Z
# tool git hash     : fa0f045d905e8df94b7136ca6cd9e37ebbed98ac-dirty
# tool sha256[:16]  : 48c8b086d843e6ac
#
# A SHIPPED LOOK, and deliberately a simple one. There is no hue rotation, no highlight
# desaturation and no per-hue saturation in here -- the things an LMT is normally for. This
# file exists to be readable, reproducible on the component's own controls, and to prove the
# LMT slot works. Interesting looks are authored in Resolve and come back as their own cube.
# 
# THE RECIPE, so that nothing here is a mystery. Everything below is a control the CineCam
# Grade component itself has: type these numbers in and you get this file's picture, live.
# Applied in ACEScct, in the chain's own order: ASC CDL -> saturation -> master curve.
# 
#   Grade group
#     Lift (RGB)          +0.000000 +0.000000 +0.000000
#     Gamma (RGB)          1.000000  1.000000  1.000000
#     Gain (RGB)           1.000000  1.000000  1.000000
#     Contrast             1.050000
#     Contrast Pivot       0.4135878   (= ACEScct(0.18), the default)
#     Saturation           1.030000
#     CDL base (slope/offset/power) left neutral
# 
#   Curves group -- master curve, in STOPS (black / shadow / mid / highlight / white;
#   knots at ACEScct 0, mid grey -4 stops, mid grey, mid grey +4 stops, 1.0):
#     +0.000  -0.450  +0.000  +0.300  +0.000
# 
#   and the ONE ASC CDL the whole Grade group folds into -- what the camera publishes and
#   what a .cdl sidecar carries. The master curve above is NOT in it: a CDL cannot hold a
#   curve, which is exactly why the two are separate groups on the component.
#     slope      1.050000 1.050000 1.050000
#     offset     -0.020679 -0.020679 -0.020679
#     power      1.000000 1.000000 1.000000
#     saturation 1.030000
#
TITLE "Film contrast -- soft S-curve about mid grey"
LUT_3D_SIZE 33
DOMAIN_MIN 0.0 0.0 0.0
DOMAIN_MAX 1.0 1.0 1.0
0.000000 0.000000 0.000000
0.010616 -0.000077 -0.000077
0.038725 -0.000287 -0.000287
0.066506 -0.000496 -0.000496
0.094658 -0.000705 -0.000705
0.123878 -0.000914 -0.000914
0.154864 -0.001124 -0.001124
0.188349 -0.001333 -0.001333
0.224285 -0.001542 -0.001542
0.261959 -0.001752 -0.001752
0.300650 -0.001961 -0.001961
0.339641 -0.002170 -0.002170
0.378212 -0.002379 -0.002379
0.415647 -0.002589 -0.002589
0.452467 -0.002798 -0.002798
0.489328 -0.003007 -0.003007
0.526044 -0.003217 -0.003217
0.562434 -0.003426 -0.003426
0.598312 -0.003635 -0.003635
0.633494 -0.003844 -0.003844
0.667807 -0.004054 -0.004054
0.701320 -0.004263 -0.004263
0.734187 -0.004472 -0.004472
0.766520 -0.004682 -0.004682
0.798428 -0.004891 -0.004891
0.830022 -0.005100 -0.005100
0.861412 -0.005309 -0.005309
0.892708 -0.005519 -0.005519
0.924021 -0.005728 -0.005728
0.955461 -0.005937 -0.005937
0.987138 -0.006146 -0.006146
1.020048 -0.006356 -0.006356
1.053635 -0.006565 -0.006565
-0.000260 0.010461 -0.000260
0.010395 0.010395 -0.000338
0.038509 0.010218 -0.000547
0.066291 0.010040 -0.000756
0.094437 0.009862 -0.000966
0.123646 0.009684 -0.001175
0.154615 0.009506 -0.001384
0.188080 0.009329 -0.001593
0.223999 0.009151 -0.001803
0.261662 0.008973 -0.002012
0.300348 0.008795 -0.002221
0.339340 0.008617 -0.002430
0.377917 0.008439 -0.002640
0.415362 0.008260 -0.002849
0.452181 0.008082 -0.003058
0.489042 0.007904 -0.003268
0.525761 0.007726 -0.003477
0.562153 0.007547 -0.003686
0.598036 0.007369 -0.003895
0.633225 0.007191 -0.004105
0.667544 0.007012 -0.004314
0.701062 0.006834 -0.004523
0.733935 0.006655 -0.004733
0.766271 0.006477 -0.004942
0.798182 0.006298 -0.005151
0.829778 0.006120 -0.005360
0.861169 0.005941 -0.005570
0.892466 0.005762 -0.005779
0.923778 0.005583 -0.005988
0.955217 0.005404 -0.006198
0.986891 0.005226 -0.006407
1.019787 0.005047 -0.006616
1.053375 0.004868 -0.006825
-0.000964 0.038163 -0.000964
0.009797 0.038099 -0.001042
0.037926 0.037926 -0.001251
0.065707 0.037752 -0.001460
0.093839 0.037579 -0.001670
0.123018 0.037405 -0.001879
0.153943 0.037232 -0.002088
0.187350 0.037058 -0.002297
0.223226 0.036885 -0.002507
0.260859 0.036711 -0.002716
0.299532 0.036538 -0.002925
0.338524 0.036364 -0.003135
0.377117 0.036190 -0.003344
0.414592 0.036017 -0.003553
0.451409 0.035843 -0.003762
0.488270 0.035670 -0.003972
0.524994 0.035496 -0.004181
0.561395 0.035322 -0.004390
0.597290 0.035149 -0.004599
0.632496 0.034975 -0.004809
0.666834 0.034801 -0.005018
0.700367 0.034627 -0.005227
0.733252 0.034454 -0.005437
0.765598 0.034280 -0.005646
0.797517 0.034106 -0.005855
0.829118 0.033932 -0.006064
0.860513 0.033758 -0.006274
0.891810 0.033585 -0.006483
0.923121 0.033411 -0.006692
0.954556 0.033237 -0.006902
0.986224 0.033063 -0.007111
1.019083 0.032889 -0.007320
1.052671 0.032715 -0.007529
-0.001668 0.065534 -0.001668
0.009199 0.065470 -0.001746
0.037342 0.065297 -0.001955
0.065123 0.065123 -0.002164
0.093241 0.064950 -0.002374
0.122391 0.064777 -0.002583
0.153272 0.064603 -0.002792
0.186622 0.064430 -0.003001
0.222453 0.064257 -0.003211
0.260057 0.064083 -0.003420
0.298716 0.063910 -0.003629
0.337708 0.063736 -0.003839
0.376317 0.063563 -0.004048
0.413823 0.063390 -0.004257
0.450636 0.063217 -0.004466
0.487498 0.063043 -0.004676
0.524227 0.062870 -0.004885
0.560637 0.062697 -0.005094
0.596544 0.062524 -0.005303
0.631766 0.062350 -0.005513
0.666123 0.062177 -0.005722
0.699671 0.062004 -0.005931
0.732568 0.061831 -0.006141
0.764925 0.061657 -0.006350
0.796852 0.061484 -0.006559
0.828459 0.061311 -0.006768
0.859856 0.061138 -0.006978
0.891154 0.060965 -0.007187
0.922464 0.060792 -0.007396
0.953895 0.060618 -0.007606
0.985557 0.060445 -0.007815
1.018379 0.060272 -0.008024
1.051967 0.060099 -0.008233
-0.002372 0.093242 -0.002372
0.008600 0.093176 -0.002450
0.036758 0.092998 -0.002659
0.064540 0.092821 -0.002868
0.092643 0.092643 -0.003078
0.121765 0.092466 -0.003287
0.152602 0.092288 -0.003496
0.185896 0.092111 -0.003705
0.221682 0.091933 -0.003915
0.259256 0.091756 -0.004124
0.297899 0.091578 -0.004333
0.336893 0.091401 -0.004543
0.375517 0.091224 -0.004752
0.413053 0.091047 -0.004961
0.449863 0.090869 -0.005170
0.486727 0.090692 -0.005380
0.523459 0.090515 -0.005589
0.559878 0.090338 -0.005798
0.595798 0.090161 -0.006008
0.631036 0.089984 -0.006217
0.665412 0.089807 -0.006426
0.698975 0.089630 -0.006635
0.731885 0.089453 -0.006845
0.764252 0.089276 -0.007054
0.796186 0.089100 -0.007263
0.827799 0.088923 -0.007472
0.859199 0.088746 -0.007682
0.890499 0.088569 -0.007891
0.921807 0.088393 -0.008100
0.953234 0.088216 -0.008310
0.984891 0.088040 -0.008519
1.017675 0.087863 -0.008728
1.051263 0.087686 -0.008937
-0.003076 0.121952 -0.003076
0.008001 0.121883 -0.003154
0.036174 0.121697 -0.003363
0.063957 0.121511 -0.003572
0.092046 0.121325 -0.003782
0.121139 0.121139 -0.003991
0.151934 0.120953 -0.004200
0.185170 0.120768 -0.004409
0.220911 0.120582 -0.004619
0.258455 0.120396 -0.004828
0.297083 0.120211 -0.005037
0.336076 0.120025 -0.005247
0.374716 0.119840 -0.005456
0.412282 0.119654 -0.005665
0.449090 0.119469 -0.005874
0.485955 0.119284 -0.006084
0.522692 0.119099 -0.006293
0.559119 0.118914 -0.006502
0.595052 0.118729 -0.006712
0.630306 0.118544 -0.006921
0.664701 0.118359 -0.007130
0.698278 0.118174 -0.007339
0.731201 0.117989 -0.007549
0.763578 0.117804 -0.007758
0.795520 0.117620 -0.007967
0.827139 0.117435 -0.008176
0.858543 0.117251 -0.008386
0.889843 0.117066 -0.008595
0.921150 0.116882 -0.008804
0.952573 0.116697 -0.009014
0.984224 0.116513 -0.009223
1.016971 0.116329 -0.009432
1.050559 0.116145 -0.009641
-0.003780 0.152332 -0.003780
0.007401 0.152259 -0.003858
0.035590 0.152060 -0.004067
0.063374 0.151861 -0.004276
0.091449 0.151663 -0.004486
0.120514 0.151464 -0.004695
0.151266 0.151266 -0.004904
0.184445 0.151068 -0.005114
0.220141 0.150870 -0.005323
0.257654 0.150672 -0.005532
0.296267 0.150474 -0.005741
0.335260 0.150276 -0.005951
0.373914 0.150078 -0.006160
0.411510 0.149880 -0.006369
0.448317 0.149683 -0.006578
0.485182 0.149485 -0.006788
0.521925 0.149288 -0.006997
0.558360 0.149090 -0.007206
0.594305 0.148893 -0.007416
0.629575 0.148696 -0.007625
0.663989 0.148499 -0.007834
0.697582 0.148302 -0.008043
0.730517 0.148105 -0.008253
0.762904 0.147908 -0.008462
0.794855 0.147711 -0.008671
0.826478 0.147515 -0.008881
0.857886 0.147318 -0.009090
0.889187 0.147122 -0.009299
0.920493 0.146925 -0.009508
0.951913 0.146729 -0.009718
0.983557 0.146533 -0.009927
1.016267 0.146337 -0.010136
1.049855 0.146141 -0.010345
-0.004484 0.185093 -0.004484
0.006801 0.185013 -0.004562
0.035006 0.184797 -0.004771
0.062791 0.184582 -0.004980
0.090853 0.184367 -0.005190
0.119890 0.184152 -0.005399
0.150599 0.183937 -0.005608
0.183722 0.183722 -0.005818
0.219371 0.183507 -0.006027
0.256854 0.183292 -0.006236
0.295451 0.183077 -0.006445
0.334444 0.182863 -0.006655
0.373112 0.182648 -0.006864
0.410738 0.182434 -0.007073
0.447545 0.182220 -0.007282
0.484410 0.182005 -0.007492
0.521157 0.181791 -0.007701
0.557601 0.181577 -0.007910
0.593558 0.181363 -0.008120
0.628844 0.181150 -0.008329
0.663277 0.180936 -0.008538
0.696885 0.180722 -0.008747
0.729832 0.180509 -0.008957
0.762230 0.180296 -0.009166
0.794189 0.180082 -0.009375
0.825818 0.179869 -0.009585
0.857229 0.179656 -0.009794
0.888531 0.179443 -0.010003
0.919836 0.179230 -0.010212
0.951252 0.179018 -0.010422
0.982891 0.178805 -0.010631
1.015563 0.178592 -0.010840
1.049151 0.178380 -0.011049
-0.005189 0.220287 -0.005189
0.006200 0.220203 -0.005266
0.034422 0.219974 -0.005475
0.062208 0.219745 -0.005684
0.090257 0.219517 -0.005894
0.119267 0.219288 -0.006103
0.149934 0.219059 -0.006312
0.182999 0.218831 -0.006522
0.218603 0.218603 -0.006731
0.256055 0.218374 -0.006940
0.294636 0.218146 -0.007149
0.333627 0.217918 -0.007359
0.372310 0.217690 -0.007568
0.409965 0.217462 -0.007777
0.446772 0.217234 -0.007987
0.483638 0.217006 -0.008196
0.520389 0.216778 -0.008405
0.556841 0.216550 -0.008614
0.592810 0.216323 -0.008824
0.628112 0.216095 -0.009033
0.662565 0.215868 -0.009242
0.696187 0.215640 -0.009451
0.729148 0.215413 -0.009661
0.761556 0.215186 -0.009870
0.793523 0.214958 -0.010079
0.825158 0.214731 -0.010289
0.856572 0.214504 -0.010498
0.887876 0.214277 -0.010707
0.919179 0.214050 -0.010916
0.950592 0.213823 -0.011126
0.982225 0.213597 -0.011335
1.014859 0.213370 -0.011544
1.048447 0.213143 -0.011754
-0.005893 0.257245 -0.005893
0.005599 0.257157 -0.005970
0.033837 0.256919 -0.006179
0.061625 0.256681 -0.006388
0.089662 0.256443 -0.006598
0.118644 0.256206 -0.006807
0.149269 0.255968 -0.007016
0.182278 0.255730 -0.007226
0.217835 0.255493 -0.007435
0.255255 0.255255 -0.007644
0.293820 0.255018 -0.007853
0.332811 0.254781 -0.008063
0.371507 0.254543 -0.008272
0.409191 0.254306 -0.008481
0.445999 0.254069 -0.008691
0.482866 0.253831 -0.008900
0.519621 0.253594 -0.009109
0.556081 0.253357 -0.009318
0.592062 0.253120 -0.009528
0.627380 0.252883 -0.009737
0.661852 0.252646 -0.009946
0.695490 0.252409 -0.010155
0.728463 0.252172 -0.010365
0.760882 0.251935 -0.010574
0.792856 0.251698 -0.010783
0.824497 0.251462 -0.010993
0.855915 0.251225 -0.011202
0.887220 0.250988 -0.011411
0.918522 0.250752 -0.011620
0.949931 0.250515 -0.011830
0.981559 0.250279 -0.012039
1.014155 0.250042 -0.012248
1.047743 0.249806 -0.012458
-0.006597 0.295276 -0.006597
0.004997 0.295187 -0.006674
0.033252 0.294944 -0.006883
0.061043 0.294702 -0.007092
0.089067 0.294459 -0.007302
0.118022 0.294217 -0.007511
0.148606 0.293975 -0.007720
0.181558 0.293732 -0.007930
0.217068 0.293490 -0.008139
0.254457 0.293248 -0.008348
0.293005 0.293005 -0.008557
0.331994 0.292763 -0.008767
0.370704 0.292521 -0.008976
0.408416 0.292278 -0.009185
0.445227 0.292036 -0.009395
0.482094 0.291794 -0.009604
0.518853 0.291552 -0.009813
0.555321 0.291309 -0.010022
0.591314 0.291067 -0.010232
0.626648 0.290825 -0.010441
0.661139 0.290583 -0.010650
0.694792 0.290341 -0.010860
0.727778 0.290099 -0.011069
0.760207 0.289857 -0.011278
0.792190 0.289615 -0.011487
0.823837 0.289373 -0.011697
0.855258 0.289131 -0.011906
0.886564 0.288889 -0.012115
0.917865 0.288647 -0.012324
0.949271 0.288405 -0.012534
0.980893 0.288163 -0.012743
1.013451 0.287921 -0.012952
1.047039 0.287679 -0.013162
-0.007301 0.333695 -0.007301
0.004395 0.333605 -0.007378
0.032667 0.333362 -0.007587
0.060460 0.333120 -0.007797
0.088473 0.332877 -0.008006
0.117401 0.332634 -0.008215
0.147943 0.332391 -0.008424
0.180839 0.332148 -0.008634
0.216302 0.331906 -0.008843
0.253659 0.331663 -0.009052
0.292190 0.331420 -0.009261
0.331177 0.331177 -0.009471
0.369900 0.330934 -0.009680
0.407641 0.330691 -0.009889
0.444454 0.330449 -0.010099
0.481321 0.330206 -0.010308
0.518085 0.329963 -0.010517
0.554561 0.329720 -0.010726
0.590566 0.329477 -0.010936
0.625916 0.329234 -0.011145
0.660426 0.328991 -0.011354
0.694094 0.328748 -0.011564
0.727092 0.328505 -0.011773
0.759532 0.328262 -0.011982
0.791523 0.328019 -0.012191
0.823176 0.327776 -0.012401
0.854601 0.327533 -0.012610
0.885908 0.327290 -0.012819
0.917208 0.327047 -0.013028
0.948611 0.326804 -0.013238
0.980227 0.326561 -0.013447
1.012747 0.326318 -0.013656
1.046335 0.326075 -0.013866
-0.008005 0.371812 -0.008005
0.003792 0.371724 -0.008082
0.032082 0.371485 -0.008291
0.059878 0.371247 -0.008501
0.087878 0.371008 -0.008710
0.116781 0.370769 -0.008919
0.147282 0.370530 -0.009128
0.180121 0.370291 -0.009338
0.215536 0.370052 -0.009547
0.252861 0.369813 -0.009756
0.291375 0.369574 -0.009965
0.330360 0.369335 -0.010175
0.369096 0.369096 -0.010384
0.406865 0.368857 -0.010593
0.443682 0.368618 -0.010803
0.480549 0.368379 -0.011012
0.517317 0.368140 -0.011221
0.553801 0.367900 -0.011430
0.589817 0.367661 -0.011640
0.625183 0.367422 -0.011849
0.659712 0.367182 -0.012058
0.693395 0.366943 -0.012268
0.726407 0.366704 -0.012477
0.758857 0.366464 -0.012686
0.790857 0.366225 -0.012895
0.822515 0.365985 -0.013105
0.853944 0.365745 -0.013314
0.885252 0.365506 -0.013523
0.916551 0.365266 -0.013732
0.947951 0.365027 -0.013942
0.979561 0.364787 -0.014151
1.012043 0.364547 -0.014360
1.045631 0.364307 -0.014570
-0.008709 0.408941 -0.008709
0.003189 0.408856 -0.008786
0.031496 0.408625 -0.008995
0.059296 0.408395 -0.009205
0.087285 0.408165 -0.009414
0.116161 0.407934 -0.009623
0.146621 0.407704 -0.009832
0.179404 0.407473 -0.010042
0.214772 0.407242 -0.010251
0.252064 0.407012 -0.010460
0.290561 0.406781 -0.010670
0.329543 0.406550 -0.010879
0.368292 0.406319 -0.011088
0.406088 0.406088 -0.011297
0.442909 0.405857 -0.011507
0.479777 0.405626 -0.011716
0.516548 0.405395 -0.011925
0.553040 0.405163 -0.012134
0.589069 0.404932 -0.012344
0.624449 0.404701 -0.012553
0.658998 0.404469 -0.012762
0.692697 0.404238 -0.012972
0.725721 0.404006 -0.013181
0.758182 0.403774 -0.013390
0.790190 0.403543 -0.013599
0.821855 0.403311 -0.013809
0.853287 0.403079 -0.014018
0.884597 0.402847 -0.014227
0.915895 0.402615 -0.014437
0.947291 0.402383 -0.014646
0.978896 0.402151 -0.014855
1.011339 0.401919 -0.015064
1.044927 0.401687 -0.015274
-0.009413 0.445207 -0.009413
0.002585 0.445122 -0.009490
0.030911 0.444892 -0.009699
0.058714 0.444663 -0.009909
0.086691 0.444433 -0.010118
0.115542 0.444203 -0.010327
0.145962 0.443974 -0.010536
0.178688 0.443744 -0.010746
0.214008 0.443514 -0.010955
0.251267 0.443285 -0.011164
0.289746 0.443055 -0.011374
0.328726 0.442826 -0.011583
0.367487 0.442596 -0.011792
0.405310 0.442366 -0.012001
0.442137 0.442137 -0.012211
0.479004 0.441907 -0.012420
0.515780 0.441677 -0.012629
0.552280 0.441448 -0.012838
0.588319 0.441218 -0.013048
0.623715 0.440989 -0.013257
0.658284 0.440759 -0.013466
0.691998 0.440529 -0.013676
0.725035 0.440300 -0.013885
0.757507 0.440070 -0.014094
0.789523 0.439841 -0.014303
0.821194 0.439611 -0.014513
0.852630 0.439382 -0.014722
0.883941 0.439152 -0.014931
0.915238 0.438922 -0.015141
0.946631 0.438693 -0.015350
0.978231 0.438463 -0.015559
1.010635 0.438234 -0.015768
1.044223 0.438004 -0.015978
-0.010117 0.481531 -0.010117
0.001981 0.481446 -0.010194
0.030325 0.481217 -0.010403
0.058131 0.480987 -0.010613
0.086098 0.480758 -0.010822
0.114923 0.480528 -0.011031
0.145304 0.480298 -0.011240
0.177974 0.480069 -0.011450
0.213246 0.479839 -0.011659
0.250471 0.479610 -0.011868
0.288932 0.479380 -0.012078
0.327908 0.479150 -0.012287
0.366682 0.478921 -0.012496
0.404532 0.478691 -0.012705
0.441364 0.478461 -0.012915
0.478232 0.478232 -0.013124
0.515011 0.478002 -0.013333
0.551519 0.477773 -0.013543
0.587570 0.477543 -0.013752
0.622981 0.477313 -0.013961
0.657569 0.477084 -0.014170
0.691298 0.476854 -0.014380
0.724349 0.476624 -0.014589
0.756831 0.476395 -0.014798
0.788856 0.476165 -0.015007
0.820533 0.475935 -0.015217
0.851972 0.475706 -0.015426
0.883285 0.475476 -0.015635
0.914581 0.475246 -0.015845
0.945971 0.475017 -0.016054
0.977565 0.474787 -0.016263
1.009931 0.474557 -0.016472
1.043519 0.474328 -0.016682
-0.010821 0.517754 -0.010821
0.001376 0.517669 -0.010898
0.029739 0.517441 -0.011107
0.057549 0.517213 -0.011317
0.085506 0.516984 -0.011526
0.114306 0.516756 -0.011735
0.144646 0.516527 -0.011944
0.177261 0.516299 -0.012154
0.212484 0.516070 -0.012363
0.249676 0.515842 -0.012572
0.288118 0.515613 -0.012782
0.327091 0.515385 -0.012991
0.365876 0.515156 -0.013200
0.403753 0.514928 -0.013409
0.440592 0.514699 -0.013619
0.477459 0.514471 -0.013828
0.514242 0.514242 -0.014037
0.550757 0.514014 -0.014247
0.586820 0.513785 -0.014456
0.622247 0.513557 -0.014665
0.656854 0.513328 -0.014874
0.690599 0.513100 -0.015084
0.723662 0.512871 -0.015293
0.756155 0.512642 -0.015502
0.788188 0.512414 -0.015711
0.819871 0.512185 -0.015921
0.851315 0.511956 -0.016130
0.882629 0.511728 -0.016339
0.913925 0.511499 -0.016549
0.945312 0.511270 -0.016758
0.976900 0.511042 -0.016967
1.009227 0.510813 -0.017176
1.042815 0.510584 -0.017386
-0.011525 0.553699 -0.011525
0.000770 0.553615 -0.011602
0.029152 0.553389 -0.011811
0.056967 0.553163 -0.012021
0.084914 0.552937 -0.012230
0.113688 0.552711 -0.012439
0.143990 0.552485 -0.012649
0.176549 0.552259 -0.012858
0.211723 0.552032 -0.013067
0.248881 0.551806 -0.013276
0.287304 0.551580 -0.013486
0.326274 0.551354 -0.013695
0.365070 0.551128 -0.013904
0.402973 0.550901 -0.014113
0.439819 0.550675 -0.014323
0.476687 0.550449 -0.014532
0.513474 0.550222 -0.014741
0.549996 0.549996 -0.014951
0.586070 0.549770 -0.015160
0.621512 0.549543 -0.015369
0.656138 0.549317 -0.015578
0.689899 0.549090 -0.015788
0.722975 0.548864 -0.015997
0.755479 0.548637 -0.016206
0.787521 0.548411 -0.016416
0.819210 0.548185 -0.016625
0.850658 0.547958 -0.016834
0.881974 0.547731 -0.017043
0.913268 0.547505 -0.017253
0.944652 0.547278 -0.017462
0.976235 0.547052 -0.017671
1.008523 0.546825 -0.017880
1.042110 0.546599 -0.018090
-0.012229 0.589191 -0.012229
0.000164 0.589109 -0.012306
0.028565 0.588886 -0.012515
0.056385 0.588663 -0.012725
0.084322 0.588440 -0.012934
0.113072 0.588218 -0.013143
0.143334 0.587995 -0.013353
0.175838 0.587772 -0.013562
0.210963 0.587549 -0.013771
0.248087 0.587327 -0.013980
0.286491 0.587104 -0.014190
0.325456 0.586881 -0.014399
0.364263 0.586658 -0.014608
0.402193 0.586435 -0.014817
0.439047 0.586212 -0.015027
0.475914 0.585989 -0.015236
0.512704 0.585766 -0.015445
0.549234 0.585543 -0.015655
0.585320 0.585320 -0.015864
0.620777 0.585097 -0.016073
0.655422 0.584874 -0.016282
0.689198 0.584650 -0.016492
0.722288 0.584427 -0.016701
0.754803 0.584204 -0.016910
0.786853 0.583981 -0.017120
0.818549 0.583758 -0.017329
0.850000 0.583534 -0.017538
0.881318 0.583311 -0.017747
0.912612 0.583088 -0.017957
0.943993 0.582865 -0.018166
0.975571 0.582641 -0.018375
1.007819 0.582418 -0.018584
1.041406 0.582194 -0.018794
-0.012933 0.624053 -0.012933
-0.000513 0.623973 -0.013010
0.027979 0.623755 -0.013219
0.055804 0.623537 -0.013429
0.083730 0.623318 -0.013638
0.112456 0.623100 -0.013847
0.142679 0.622882 -0.014057
0.175128 0.622664 -0.014266
0.210203 0.622445 -0.014475
0.247293 0.622227 -0.014684
0.285678 0.622008 -0.014894
0.324638 0.621790 -0.015103
0.363456 0.621572 -0.015312
0.401412 0.621353 -0.015522
0.438275 0.621135 -0.015731
0.475142 0.620916 -0.015940
0.511935 0.620697 -0.016149
0.548473 0.620479 -0.016359
0.584569 0.620260 -0.016568
0.620041 0.620041 -0.016777
0.654705 0.619823 -0.016986
0.688498 0.619604 -0.017196
0.721601 0.619385 -0.017405
0.754127 0.619166 -0.017614
0.786185 0.618948 -0.017824
0.817887 0.618729 -0.018033
0.849343 0.618510 -0.018242
0.880662 0.618291 -0.018451
0.911955 0.618072 -0.018661
0.943333 0.617853 -0.018870
0.974906 0.617634 -0.019079
1.007115 0.617415 -0.019289
1.040702 0.617196 -0.019498
-0.013637 0.658111 -0.013637
-0.001217 0.658032 -0.013714
0.027391 0.657820 -0.013923
0.055222 0.657607 -0.014133
0.083139 0.657395 -0.014342
0.111841 0.657182 -0.014551
0.142026 0.656969 -0.014761
0.174420 0.656757 -0.014970
0.209445 0.656544 -0.015179
0.246500 0.656331 -0.015388
0.284865 0.656118 -0.015598
0.323821 0.655906 -0.015807
0.362649 0.655693 -0.016016
0.400630 0.655480 -0.016226
0.437503 0.655267 -0.016435
0.474369 0.655054 -0.016644
0.511166 0.654841 -0.016853
0.547711 0.654628 -0.017063
0.583818 0.654415 -0.017272
0.619306 0.654201 -0.017481
0.653988 0.653988 -0.017690
0.687797 0.653775 -0.017900
0.720913 0.653562 -0.018109
0.753450 0.653348 -0.018318
0.785517 0.653135 -0.018528
0.817226 0.652922 -0.018737
0.848685 0.652708 -0.018946
0.880006 0.652495 -0.019155
0.911299 0.652281 -0.019365
0.942674 0.652068 -0.019574
0.974241 0.651854 -0.019783
1.006411 0.651641 -0.019993
1.039998 0.651427 -0.020202
-0.014341 0.691337 -0.014341
-0.001921 0.691260 -0.014418
0.026804 0.691052 -0.014627
0.054640 0.690844 -0.014837
0.082548 0.690636 -0.015046
0.111227 0.690428 -0.015255
0.141373 0.690220 -0.015465
0.173712 0.690012 -0.015674
0.208687 0.689804 -0.015883
0.245707 0.689596 -0.016092
0.284052 0.689387 -0.016302
0.323003 0.689179 -0.016511
0.361841 0.688971 -0.016720
0.399847 0.688763 -0.016930
0.436731 0.688555 -0.017139
0.473596 0.688346 -0.017348
0.510397 0.688138 -0.017557
0.546948 0.687930 -0.017767
0.583067 0.687721 -0.017976
0.618569 0.687513 -0.018185
0.653271 0.687304 -0.018394
0.687096 0.687096 -0.018604
0.720226 0.686887 -0.018813
0.752773 0.686679 -0.019022
0.784849 0.686470 -0.019232
0.816564 0.686262 -0.019441
0.848028 0.686053 -0.019650
0.879350 0.685845 -0.019859
0.910643 0.685636 -0.020069
0.942015 0.685427 -0.020278
0.973577 0.685219 -0.020487
1.005707 0.685010 -0.020697
1.039294 0.684801 -0.020906
-0.015045 0.723904 -0.015045
-0.002625 0.723829 -0.015122
0.026216 0.723625 -0.015332
0.054058 0.723420 -0.015541
0.081958 0.723216 -0.015750
0.110613 0.723012 -0.015959
0.140722 0.722808 -0.016169
0.173006 0.722604 -0.016378
0.207931 0.722399 -0.016587
0.244915 0.722195 -0.016796
0.283239 0.721991 -0.017006
0.322185 0.721787 -0.017215
0.361033 0.721582 -0.017424
0.399064 0.721378 -0.017634
0.435958 0.721173 -0.017843
0.472823 0.720969 -0.018052
0.509627 0.720765 -0.018261
0.546186 0.720560 -0.018471
0.582316 0.720356 -0.018680
0.617833 0.720151 -0.018889
0.652553 0.719947 -0.019099
0.686394 0.719742 -0.019308
0.719538 0.719538 -0.019517
0.752096 0.719333 -0.019726
0.784181 0.719128 -0.019936
0.815902 0.718924 -0.020145
0.847370 0.718719 -0.020354
0.878694 0.718514 -0.020563
0.909986 0.718310 -0.020773
0.941355 0.718105 -0.020982
0.972913 0.717900 -0.021191
1.005003 0.717696 -0.021401
1.038590 0.717491 -0.021610
-0.015749 0.755918 -0.015749
-0.003329 0.755844 -0.015826
0.025628 0.755643 -0.016036
0.053476 0.755442 -0.016245
0.081368 0.755241 -0.016454
0.110000 0.755040 -0.016663
