engine/Code/CryPlugins/CinematicCamera/Assets/cinecam/luts/look_film_contrast_33.cube
# Generated by tools/ocio-bake/bake.py -- do not edit by hand.
#
# ReC-LUT-Space: ACEScct
#
# preset            : look_film_contrast
# config URI        : (none -- ACEScct arithmetic only, no OCIO)
# config name       : (none)
# ACES version      : (n/a -- a look is not an ACES transform)
# input space       : ACEScct   (LUT domain is this encoding, [0,1], red fastest)
# display           : (none -- a look, not an output transform)
# view              : (none)
# output encoding   : ACEScct (a look: same encoding in and out)
# grid size         : 33^3
# OCIO library      : 2.5.2
# baked (UTC)       : 2026-09-10T02:50:52Z
# tool git hash     : fa0f045d905e8df94b7136ca6cd9e37ebbed98ac-dirty
# tool sha256[:16]  : 48c8b086d843e6ac
#
# A SHIPPED LOOK, and deliberately a simple one. There is no hue rotation, no highlight
# desaturation and no per-hue saturation in here -- the things an LMT is normally for. This
# file exists to be readable, reproducible on the component's own controls, and to prove the
# LMT slot works. Interesting looks are authored in Resolve and come back as their own cube.
# 
# THE RECIPE, so that nothing here is a mystery. Everything below is a control the CineCam
# Grade component itself has: type these numbers in and you get this file's picture, live.
# Applied in ACEScct, in the chain's own order: ASC CDL -> saturation -> master curve.
# 
#   Grade group
#     Lift (RGB)          +0.000000 +0.000000 +0.000000
#     Gamma (RGB)          1.000000  1.000000  1.000000
#     Gain (RGB)           1.000000  1.000000  1.000000
#     Contrast             1.050000
#     Contrast Pivot       0.4135878   (= ACEScct(0.18), the default)
#     Saturation           1.030000
#     CDL base (slope/offset/power) left neutral
# 
#   Curves group -- master curve, in STOPS (black / shadow / mid / highlight / white;
#   knots at ACEScct 0, mid grey -4 stops, mid grey, mid grey +4 stops, 1.0):
#     +0.000  -0.450  +0.000  +0.300  +0.000
# 
#   and the ONE ASC CDL the whole Grade group folds into -- what the camera publishes and
#   what a .cdl sidecar carries. The master curve above is NOT in it: a CDL cannot hold a
#   curve, which is exactly why the two are separate groups on the component.
#     slope      1.050000 1.050000 1.050000
#     offset     -0.020679 -0.020679 -0.020679
#     power      1.000000 1.000000 1.000000
#     saturation 1.030000
#
TITLE "Film contrast -- soft S-curve about mid grey"
LUT_3D_SIZE 9
DOMAIN_MIN 0.0 0.0 0.0
DOMAIN_MAX 1.0 1.0 1.0
0.000000 0.000000 0.000000
0.094658 -0.000705 -0.000705
0.224285 -0.001542 -0.001542
0.378212 -0.002379 -0.002379
0.526044 -0.003217 -0.003217
0.667807 -0.004054 -0.004054
0.798428 -0.004891 -0.004891
0.924021 -0.005728 -0.005728
1.053635 -0.006565 -0.006565
-0.002372 0.093242 -0.002372
0.092643 0.092643 -0.003078
0.221682 0.091933 -0.003915
0.375517 0.091224 -0.004752
0.523459 0.090515 -0.005589
0.665412 0.089807 -0.006426
0.796186 0.089100 -0.007263
0.921807 0.088393 -0.008100
1.051263 0.087686 -0.008937
-0.005189 0.220287 -0.005189
0.090257 0.219517 -0.005894
0.218603 0.218603 -0.006731
0.372310 0.217690 -0.007568
0.520389 0.216778 -0.008405
0.662565 0.215868 -0.009242
0.793523 0.214958 -0.010079
0.919179 0.214050 -0.010916
1.048447 0.213143 -0.011754
-0.008005 0.371812 -0.008005
0.087878 0.371008 -0.008710
0.215536 0.370052 -0.009547
0.369096 0.369096 -0.010384
0.517317 0.368140 -0.011221
0.659712 0.367182 -0.012058
0.790857 0.366225 -0.012895
0.916551 0.365266 -0.013732
1.045631 0.364307 -0.014570
-0.010821 0.517754 -0.010821
0.085506 0.516984 -0.011526
0.212484 0.516070 -0.012363
0.365876 0.515156 -0.013200
0.514242 0.514242 -0.014037
0.656854 0.513328 -0.014874
0.788188 0.512414 -0.015711
0.913925 0.511499 -0.016549
1.042815 0.510584 -0.017386
-0.013637 0.658111 -0.013637
0.083139 0.657395 -0.014342
0.209445 0.656544 -0.015179
0.362649 0.655693 -0.016016
0.511166 0.654841 -0.016853
0.653988 0.653988 -0.017690
0.785517 0.653135 -0.018528
0.911299 0.652281 -0.019365
1.039998 0.651427 -0.020202
-0.016453 0.787485 -0.016453
0.080778 0.786817 -0.017158
0.206420 0.786023 -0.017995
0.359416 0.785228 -0.018832
0.508088 0.784434 -0.019669
0.651116 0.783639 -0.020507
0.782844 0.782844 -0.021344
0.908674 0.782049 -0.022181
1.037182 0.781254 -0.023018
-0.019269 0.911388 -0.019269
0.078422 0.910731 -0.019974
0.203411 0.909950 -0.020811
0.356177 0.909170 -0.021648
0.505008 0.908390 -0.022486
0.648236 0.907609 -0.023323
0.780168 0.906829 -0.024160
0.906049 0.906049 -0.024997
1.034366 0.905269 -0.025834
-0.022085 1.038115 -0.022085
0.076071 1.037410 -0.022790
0.200416 1.036573 -0.023627
0.352934 1.035736 -0.024465
0.501927 1.034899 -0.025302
0.645350 1.034061 -0.026139
0.777490 1.033224 -0.026976
0.903424 1.032387 -0.027813
1.031550 1.031550 -0.028650
-0.000239 -0.000239 0.095055
0.094455 -0.000945 0.094455
0.224022 -0.001782 0.093743
0.377940 -0.002619 0.093032
0.525783 -0.003456 0.092322
0.667565 -0.004293 0.091612
0.798202 -0.005130 0.090903
0.923798 -0.005967 0.090195
1.053396 -0.006805 0.089487
-0.002612 0.093038 0.093038
0.092440 0.092440 0.092440
0.221419 0.091730 0.091730
0.375244 0.091021 0.091021
0.523198 0.090313 0.090313
0.665170 0.089605 0.089605
0.795960 0.088897 0.088897
0.921583 0.088191 0.088191
1.051023 0.087484 0.087484
-0.005428 0.220025 0.090651
0.090055 0.219255 0.090055
0.218341 0.218341 0.089347
0.372037 0.217429 0.088640
0.520128 0.216518 0.087933
0.662323 0.215607 0.087228
0.793296 0.214698 0.086522
0.918955 0.213791 0.085817
1.048207 0.212884 0.085113
-0.008244 0.371539 0.088271
0.087676 0.370735 0.087676
0.215276 0.369779 0.086971
0.368823 0.368823 0.086265
0.517055 0.367866 0.085561
0.659470 0.366908 0.084857
0.790630 0.365950 0.084153
0.916328 0.364992 0.083450
1.045391 0.364033 0.082747
-0.011060 0.517492 0.085898
0.085304 0.516723 0.085304
0.212225 0.515809 0.084600
0.365602 0.514895 0.083897
0.513981 0.513981 0.083194
0.656610 0.513067 0.082491
0.787961 0.512152 0.081789
0.913701 0.511237 0.081088
1.042575 0.510323 0.080387
-0.013876 0.657868 0.083530
0.082938 0.657151 0.082938
0.209187 0.656301 0.082236
0.362374 0.655449 0.081534
0.510904 0.654597 0.080833
0.653744 0.653744 0.080132
0.785290 0.652891 0.079431
0.911076 0.652037 0.078731
1.039759 0.651182 0.078032
-0.016692 0.787258 0.081168
0.080577 0.786589 0.080577
0.206164 0.785795 0.079877
0.359141 0.785001 0.079176
0.507826 0.784206 0.078476
0.650871 0.783412 0.077777
0.782617 0.782617 0.077078
0.908450 0.781821 0.076379
1.036943 0.781026 0.075681
-0.019508 0.911165 0.078811
0.078222 0.910507 0.078222
0.203155 0.909727 0.077522
0.355902 0.908947 0.076824
0.504746 0.908166 0.076125
0.647991 0.907386 0.075427
0.779941 0.906606 0.074729
0.905826 0.905826 0.074032
1.034127 0.905045 0.073335
-0.022325 1.037876 0.076459
0.075871 1.037170 0.075871
0.200162 1.036333 0.075173
0.352658 1.035496 0.074475
0.501665 1.034659 0.073778
0.645105 1.033822 0.073081
0.777262 1.032985 0.072384
0.903201 1.032148 0.071688
1.031311 1.031311 0.070992
-0.000524 -0.000524 0.225406
0.094213 -0.001229 0.224630
0.223710 -0.002066 0.223710
0.377617 -0.002903 0.222791
0.525474 -0.003740 0.221873
0.667278 -0.004577 0.220956
0.797933 -0.005415 0.220040
0.923532 -0.006252 0.219126
1.053111 -0.007089 0.218212
-0.002896 0.092797 0.222798
0.092199 0.092199 0.222025
0.221108 0.091489 0.221108
0.374921 0.090780 0.220192
0.522889 0.090072 0.219277
0.664883 0.089364 0.218364
0.795691 0.088657 0.217451
0.921318 0.087951 0.216540
1.050739 0.087245 0.215630
-0.005712 0.219715 0.219715
0.089814 0.218945 0.218945
0.218031 0.218031 0.218031
0.371713 0.217119 0.217119
0.519818 0.216208 0.216208
0.662035 0.215299 0.215299
0.793027 0.214390 0.214390
0.918690 0.213483 0.213483
1.047923 0.212577 0.212577
-0.008528 0.371215 0.216644
0.087437 0.370410 0.215877
0.214968 0.369454 0.214968
0.368498 0.368498 0.214060
0.516745 0.367541 0.213153
0.659181 0.366583 0.212247
0.790360 0.365625 0.211343
0.916063 0.364666 0.210439
1.045107 0.363707 0.209537
-0.011344 0.517182 0.213586
0.085065 0.516412 0.212823
0.211918 0.515499 0.211918
0.365276 0.514585 0.211014
0.513670 0.513670 0.210111
0.656321 0.512756 0.209209
0.787692 0.511841 0.208309
0.913436 0.510927 0.207410
1.042291 0.510012 0.206512
-0.014161 0.657579 0.210542
0.082700 0.656863 0.209782
0.208881 0.656011 0.208881
0.362048 0.655160 0.207982
0.510594 0.654307 0.207083
0.653455 0.653455 0.206186
0.785020 0.652601 0.205290
0.910811 0.651747 0.204395
1.039475 0.650892 0.203502
-0.016977 0.786989 0.207513
0.080339 0.786320 0.206756
0.205859 0.785526 0.205859
0.358814 0.784731 0.204964
0.507515 0.783937 0.204070
0.650581 0.783142 0.203177
0.782347 0.782347 0.202286
0.908185 0.781551 0.201395
1.036659 0.780756 0.200507
-0.019793 0.910900 0.204497
0.077984 0.910242 0.203745
0.202852 0.909462 0.202852
0.355574 0.908682 0.201961
0.504435 0.907901 0.201072
0.647700 0.907121 0.200184
0.779670 0.906341 0.199297
0.905561 0.905561 0.198411
1.033842 0.904780 0.197527
-0.022609 1.037591 0.201497
0.075634 1.036886 0.200748
0.199860 1.036049 0.199860
0.352330 1.035212 0.198974
0.501354 1.034375 0.198089
0.644813 1.033538 0.197206
0.776991 1.032701 0.196323
0.902936 1.031863 0.195443
1.031026 1.031026 0.194563
-0.000808 -0.000808 0.379994
0.093971 -0.001513 0.379195
0.223398 -0.002350 0.378245
0.377295 -0.003188 0.377295
0.525164 -0.004025 0.376344
0.666991 -0.004862 0.375392
0.797665 -0.005699 0.374439
0.923267 -0.006536 0.373486
1.052827 -0.007373 0.372532
-0.003180 0.092556 0.377303
0.091958 0.091958 0.376501
0.220797 0.091248 0.375550
0.374597 0.090540 0.374597
0.522579 0.089832 0.373644
0.664596 0.089124 0.372691
0.795422 0.088417 0.371736
0.921052 0.087711 0.370781
1.050455 0.087005 0.369826
-0.005997 0.219404 0.374100
0.089574 0.218634 0.373297
0.217721 0.217721 0.372343
0.371389 0.216810 0.371389
0.519508 0.215899 0.370433
0.661747 0.214990 0.369478
0.792758 0.214082 0.368521
0.918425 0.213175 0.367564
1.047639 0.212269 0.366607
-0.008813 0.370890 0.370890
0.087197 0.370086 0.370086
0.214659 0.369130 0.369130
0.368173 0.368173 0.368173
0.516435 0.367216 0.367216
0.658893 0.366258 0.366258
0.790091 0.365299 0.365299
0.915798 0.364341 0.364341
1.044823 0.363381 0.363381
-0.011629 0.516872 0.367674
0.084826 0.516102 0.366867
0.211610 0.515188 0.365909
0.364950 0.514274 0.364950
0.513360 0.513360 0.363991
0.656032 0.512445 0.363032
0.787422 0.511531 0.362071
0.913171 0.510616 0.361111
1.042006 0.509701 0.360149
-0.014445 0.657290 0.364450
0.082461 0.656574 0.363642
0.208576 0.655722 0.362682
0.361722 0.654870 0.361722
0.510283 0.654018 0.360761
0.653165 0.653165 0.359799
0.784751 0.652311 0.358837
0.910546 0.651457 0.357875
1.039190 0.650602 0.356912
-0.017261 0.786719 0.361221
0.080101 0.786050 0.360411
0.205555 0.785256 0.359449
0.358487 0.784461 0.358487
0.507205 0.783667 0.357525
0.650290 0.782872 0.356562
0.782077 0.782077 0.355598
0.907920 0.781281 0.354634
1.036374 0.780486 0.353670
-0.020077 0.910635 0.357985
0.077747 0.909977 0.357174
0.202550 0.909197 0.356211
0.355247 0.908417 0.355247
0.504124 0.907636 0.354283
0.647409 0.906856 0.353319
0.779400 0.906076 0.352354
0.905296 0.905296 0.351388
1.033558 0.904516 0.350423
-0.022893 1.037307 0.354744
0.075397 1.036602 0.353932
0.199559 1.035765 0.352967
0.352002 1.034928 0.352002
0.501043 1.034090 0.351037
0.644521 1.033253 0.350071
0.776721 1.032416 0.349105
0.902671 1.031579 0.348138
1.030742 1.030742 0.347171
-0.001092 -0.001092 0.528357
0.093730 -0.001798 0.527590
0.223085 -0.002635 0.526678
0.376972 -0.003472 0.525766
0.524854 -0.004309 0.524854
0.666705 -0.005146 0.523942
0.797396 -0.005983 0.523030
0.923001 -0.006820 0.522117
1.052543 -0.007657 0.521205
-0.003465 0.092315 0.525774
0.091717 0.091717 0.525006
0.220486 0.091008 0.524094
0.374274 0.090299 0.523181
0.522269 0.089591 0.522269
0.664308 0.088884 0.521356
0.795153 0.088177 0.520443
0.920787 0.087471 0.519530
1.050170 0.086766 0.518617
-0.006281 0.219094 0.522705
0.089334 0.218324 0.521937
0.217412 0.217412 0.521024
0.371064 0.216500 0.520111
0.519198 0.215590 0.519198
0.661459 0.214681 0.518284
0.792489 0.213774 0.517371
0.918159 0.212867 0.516457
1.047354 0.211962 0.515543
-0.009097 0.370566 0.519635
0.086957 0.369761 0.518865
0.214351 0.368805 0.517952
0.367848 0.367848 0.517038
0.516124 0.366890 0.516124
0.658604 0.365932 0.515211
0.789822 0.364974 0.514296
0.915532 0.364015 0.513382
1.044538 0.363055 0.512468
-0.011913 0.516562 0.516562
0.084587 0.515792 0.515792
0.211303 0.514878 0.514878
0.364625 0.513964 0.513964
0.513049 0.513049 0.513049
0.655743 0.512135 0.512135
0.787153 0.511220 0.511220
0.912906 0.510305 0.510305
1.041722 0.509391 0.509391
-0.014729 0.657001 0.513487
0.082223 0.656285 0.512716
0.208270 0.655433 0.511802
0.361395 0.654581 0.510887
0.509972 0.653728 0.509972
0.652875 0.652875 0.509057
0.784481 0.652021 0.508142
0.910280 0.651166 0.507227
1.038906 0.650311 0.506311
-0.017545 0.786449 0.510410
0.079864 0.785780 0.509639
0.205251 0.784986 0.508724
0.358160 0.784192 0.507809
0.506894 0.783397 0.506894
0.650000 0.782602 0.505978
0.781807 0.781807 0.505063
0.907655 0.781011 0.504147
1.036090 0.780215 0.503231
-0.020361 0.910370 0.507332
0.077509 0.909712 0.506560
0.202247 0.908932 0.505645
0.354920 0.908152 0.504729
0.503813 0.907371 0.503813
0.647118 0.906591 0.502897
0.779130 0.905811 0.501981
0.905031 0.905031 0.501065
1.033274 0.904251 0.500149
-0.023177 1.037023 0.504251
0.075160 1.036318 0.503480
0.199258 1.035480 0.502564
0.351674 1.034643 0.501648
0.500731 1.033806 0.500731
0.644229 1.032969 0.499815
0.776450 1.032132 0.498899
0.902407 1.031295 0.497982
1.030458 1.030458 0.497065
-0.001377 -0.001377 0.670504
0.093488 -0.002082 0.669794
0.222773 -0.002919 0.668950
0.376649 -0.003756 0.668107
0.524545 -0.004593 0.667262
0.666418 -0.005430 0.666418
0.797127 -0.006267 0.665572
0.922736 -0.007105 0.664727
1.052259 -0.007942 0.663881
-0.003749 0.092074 0.668114
0.091476 0.091476 0.667403
0.220175 0.090767 0.666558
0.373950 0.090059 0.665713
0.521959 0.089351 0.664867
0.664021 0.088644 0.664021
0.794884 0.087937 0.663174
0.920522 0.087232 0.662327
1.049886 0.086526 0.661480
-0.006565 0.218783 0.665272
0.089094 0.218014 0.664559
0.217102 0.217102 0.663713
0.370740 0.216191 0.662866
0.518888 0.215281 0.662019
0.661171 0.214373 0.661171
0.792220 0.213466 0.660323
0.917894 0.212560 0.659474
1.047070 0.211655 0.658625
-0.009381 0.370242 0.662424
0.086718 0.369436 0.661710
0.214042 0.368480 0.660862
0.367523 0.367523 0.660014
0.515814 0.366565 0.659165
0.658316 0.365607 0.658316
0.789552 0.364648 0.657466
0.915267 0.363689 0.656615
1.044254 0.362729 0.655764
-0.012197 0.516251 0.659571
0.084348 0.515481 0.658856
0.210997 0.514567 0.658006
0.364299 0.513653 0.657156
0.512739 0.512739 0.656305
0.655454 0.511824 0.655454
0.786883 0.510910 0.654602
0.912641 0.509995 0.653749
1.041438 0.509080 0.652896
-0.015013 0.656712 0.656712
0.081984 0.655995 0.655995
0.207965 0.655144 0.655144
0.361069 0.654291 0.654291
0.509662 0.653438 0.653438
0.652585 0.652585 0.652585
0.784211 0.651731 0.651731
0.910015 0.650876 0.650876
1.038622 0.650021 0.650021
-0.017830 0.786180 0.653847
0.079626 0.785511 0.653128
0.204947 0.784716 0.652274
0.357833 0.783922 0.651420
0.506583 0.783127 0.650565
0.649709 0.782332 0.649709
0.781536 0.781536 0.648853
0.907390 0.780741 0.647996
1.035806 0.779945 0.647139
-0.020646 0.910105 0.650974
0.077272 0.909447 0.650253
0.201945 0.908667 0.649397
0.354592 0.907887 0.648541
0.503502 0.907106 0.647684
0.646826 0.906326 0.646826
0.778859 0.905546 0.645968
0.904766 0.904766 0.645109
1.032990 0.903986 0.644250
-0.023462 1.036738 0.648094
0.074923 1.036033 0.647372
0.198957 1.035196 0.646514
0.351346 1.034359 0.645656
0.500420 1.033522 0.644797
0.643937 1.032685 0.643937
0.776179 1.031848 0.643077
0.902142 1.031011 0.642216
1.030173 1.030173 0.641355
-0.001661 -0.001661 0.801478
0.093247 -0.002366 0.800813
0.222462 -0.003203 0.800022
0.376326 -0.004040 0.799232
0.524235 -0.004877 0.798441
0.666131 -0.005715 0.797650
0.796859 -0.006552 0.796859
0.922471 -0.007389 0.796067
1.051974 -0.008226 0.795276
-0.004033 0.091833 0.799238
0.091235 0.091235 0.798572
0.219864 0.090526 0.797781
0.373626 0.089818 0.796990
0.521649 0.089111 0.796199
0.663734 0.088404 0.795407
0.794615 0.087698 0.794615
0.920257 0.086992 0.793823
1.049602 0.086287 0.793031
-0.006849 0.218473 0.796577
0.088853 0.217704 0.795911
0.216793 0.216793 0.795119
0.370415 0.215882 0.794327
0.518577 0.214973 0.793535
0.660883 0.214065 0.792743
0.791950 0.213158 0.791950
0.917629 0.212252 0.791158
1.046786 0.211348 0.790365
-0.009666 0.369917 0.793914
0.086478 0.369112 0.793247
0.213734 0.368155 0.792454
0.367198 0.367198 0.791662
0.515504 0.366240 0.790869
0.658027 0.365281 0.790076
0.789283 0.364322 0.789283
0.915002 0.363363 0.788490
1.043970 0.362403 0.787696
-0.012482 0.515941 0.791248
0.084109 0.515171 0.790581
0.210690 0.514257 0.789788
0.363973 0.513343 0.788994
0.512428 0.512428 0.788201
0.655165 0.511514 0.787407
0.786613 0.510599 0.786613
0.912376 0.509684 0.785819
1.041154 0.508769 0.785025
-0.015298 0.656423 0.788580
0.081746 0.655706 0.787912
0.207659 0.654854 0.787118
0.360743 0.654002 0.786324
0.509351 0.653149 0.785530
0.652295 0.652295 0.784736
0.783941 0.651441 0.783941
0.909750 0.650586 0.783146
1.038337 0.649730 0.782351
-0.018114 0.785910 0.785910
0.079388 0.785241 0.785241
0.204643 0.784446 0.784446
0.357506 0.783652 0.783652
0.506272 0.782857 0.782857
0.649418 0.782062 0.782062
0.781266 0.781266 0.781266
0.907125 0.780471 0.780471
1.035521 0.779675 0.779675
-0.020930 0.909840 0.783237
0.077035 0.909182 0.782567
0.201642 0.908402 0.781772
0.354265 0.907622 0.780977
0.503191 0.906841 0.780181
0.646535 0.906061 0.779385
0.778589 0.905281 0.778589
0.904501 0.904501 0.777792
1.032705 0.903721 0.776996
-0.023746 1.036454 0.780562
0.074686 1.035749 0.779891
0.198657 1.034912 0.779095
0.351019 1.034075 0.778299
0.500109 1.033238 0.777502
0.643645 1.032401 0.776706
0.775909 1.031563 0.775909
0.901877 1.030726 0.775111
1.029889 1.029889 0.774314
-0.001945 -0.001945 0.927554
0.093006 -0.002650 0.926895
0.222150 -0.003488 0.926113
0.376002 -0.004325 0.925331
0.523925 -0.005162 0.924550
0.665844 -0.005999 0.923768
0.796590 -0.006836 0.922987
0.922205 -0.007673 0.922205
1.051690 -0.008510 0.921424
-0.004318 0.091592 0.925338
0.090994 0.090994 0.924680
0.219553 0.090286 0.923898
0.373303 0.089578 0.923116
0.521339 0.088871 0.922335
0.663446 0.088164 0.921554
0.794346 0.087458 0.920772
0.919991 0.086752 0.919991
1.049318 0.086047 0.919210
-0.007134 0.218163 0.922709
0.088613 0.217395 0.922051
0.216483 0.216483 0.921269
0.370091 0.215573 0.920488
0.518267 0.214664 0.919707
0.660595 0.213757 0.918926
0.791681 0.212850 0.918145
0.917364 0.211945 0.917364
1.046501 0.211041 0.916583
-0.009950 0.369592 0.920081
0.086239 0.368787 0.919422
0.213426 0.367830 0.918641
0.366872 0.366872 0.917860
0.515193 0.365914 0.917079
0.657739 0.364956 0.916299
0.789014 0.363997 0.915518
0.914737 0.363037 0.914737
1.043685 0.362077 0.913956
-0.012766 0.515631 0.917453
0.083870 0.514861 0.916795
0.210383 0.513946 0.916014
0.363647 0.513032 0.915234
0.512118 0.512118 0.914453
0.654875 0.511203 0.913672
0.786344 0.510288 0.912891
0.912111 0.509373 0.912111
1.040869 0.508458 0.911330
-0.015582 0.656134 0.914826
0.081508 0.655417 0.914169
0.207354 0.654565 0.913388
0.360416 0.653712 0.912607
0.509040 0.652859 0.911827
0.652005 0.652005 0.911046
0.783671 0.651150 0.910266
0.909485 0.650295 0.909485
1.038053 0.649439 0.908705
-0.018398 0.785640 0.912200
0.079150 0.784971 0.911543
0.204340 0.784177 0.910762
0.357179 0.783382 0.909982
0.505961 0.782587 0.909201
0.649128 0.781792 0.908421
0.780996 0.780996 0.907641
0.906860 0.780200 0.906860
1.035237 0.779404 0.906080
-0.021214 0.909575 0.909575
0.076797 0.908917 0.908917
0.201340 0.908137 0.908137
0.353937 0.907357 0.907357
0.502880 0.906576 0.906576
0.646244 0.905796 0.905796
0.778318 0.905016 0.905016
0.904236 0.904236 0.904236
1.032421 0.903456 0.903456
-0.024030 1.036170 0.906950
0.074449 1.035465 0.906292
0.198356 1.034628 0.905512
0.350691 1.033790 0.904732
0.499798 1.032953 0.903952
0.643353 1.032116 0.903172
0.775638 1.031279 0.902392
0.901612 1.030442 0.901612
1.029605 1.029605 0.900832
-0.002230 -0.002230 1.057971
0.092764 -0.002935 1.057266
0.221838 -0.003772 1.056428
0.375679 -0.004609 1.055591
0.523615 -0.005446 1.054754
0.665556 -0.006283 1.053917
0.796321 -0.007120 1.053080
0.921940 -0.007957 1.052243
1.051406 -0.008795 1.051406
-0.004602 0.091351 1.055598
0.090754 0.090754 1.054893
0.219243 0.090045 1.054056
0.372979 0.089338 1.053219
0.521029 0.088631 1.052382
0.663159 0.087924 1.051545
0.794078 0.087218 1.050708
0.919726 0.086513 1.049870
1.049033 0.085808 1.049033
-0.007418 0.217853 1.052782
0.088373 0.217085 1.052077
0.216174 0.216174 1.051240
0.369766 0.215264 1.050403
0.517957 0.214356 1.049566
0.660307 0.213449 1.048729
0.791412 0.212542 1.047891
0.917099 0.211638 1.047054
1.046217 0.210734 1.046217
-0.010234 0.369268 1.049966
0.086000 0.368462 1.049261
0.213119 0.367505 1.048424
0.366547 0.366547 1.047587
0.514883 0.365589 1.046750
0.657450 0.364630 1.045912
0.788744 0.363671 1.045075
0.914472 0.362711 1.044238
1.043401 0.361751 1.043401
-0.013050 0.515320 1.047150
0.083632 0.514550 1.046445
0.210077 0.513636 1.045608
0.363321 0.512722 1.044771
0.511807 0.511807 1.043933
0.654586 0.510892 1.043096
0.786074 0.509978 1.042259
0.911846 0.509063 1.041422
1.040585 0.508147 1.040585
-0.015866 0.655845 1.044334
0.081269 0.655128 1.043629
0.207049 0.654275 1.042792
0.360090 0.653422 1.041954
0.508729 0.652569 1.041117
0.651715 0.651715 1.040280
0.783401 0.650860 1.039443
0.909220 0.650005 1.038606
1.037769 0.649149 1.037769
-0.018682 0.785371 1.041518
0.078912 0.784701 1.040813
0.204036 0.783907 1.039975
0.356852 0.783112 1.039138
0.505650 0.782317 1.038301
0.648837 0.781521 1.037464
0.780726 0.780726 1.036627
0.906595 0.779930 1.035790
1.034953 0.779134 1.034953
-0.021499 0.909310 1.038702
0.076560 0.908652 1.037996
0.201038 0.907872 1.037159
0.353610 0.907092 1.036322
0.502569 0.906311 1.035485
0.645952 0.905531 1.034648
0.778048 0.904751 1.033811
0.903971 0.903971 1.032974
1.032137 0.903191 1.032137
-0.024315 1.035886 1.035886
0.074212 1.035180 1.035180
0.198056 1.034343 1.034343
0.350363 1.033506 1.033506
0.499487 1.032669 1.032669
0.643061 1.031832 1.031832
0.775367 1.030995 1.030995
0.901347 1.030158 1.030158
1.029321 1.029321 1.029321
