engine/Code/CryPlugins/CinematicCamera/Assets/cinecam/luts/odt_rec1886_100nit_aces2_33.cube
# Generated by tools/ocio-bake/bake.py -- do not edit by hand.
#
# ReC-LUT-Space: ACEScct
#
# preset            : odt_rec1886_100nit
# config URI        : ocio://studio-config-latest
# config name       : studio-config-v4.0.0_aces-v2.0_ocio-v2.5
# ACES version      : 2.0
# input space       : ACEScct   (LUT domain is this encoding, [0,1], red fastest)
# display           : Rec.1886 Rec.709 - Display
# view              : ACES 2.0 - SDR 100 nits (Rec.709)
# output encoding   : Rec.1886 Rec.709 - Display (encoded display code values)
# grid size         : 33^3
# OCIO library      : 2.5.2
# baked (UTC)       : 2026-09-10T02:50:51Z
# tool git hash     : fa0f045d905e8df94b7136ca6cd9e37ebbed98ac-dirty
# tool sha256[:16]  : 48c8b086d843e6ac
#
# Same output transform as odt_srgb_100nit, differing only in the final inverse EOTF
# (pure 2.4 gamma instead of the piecewise sRGB curve). This is the reference for the
# Resolve round-trip comparison (D12), whose default viewer path is Rec.1886.
# Output values are clamped to [0,1]; the shaper (linear -> ACEScct) is applied
# analytically in the shader before the fetch, so this file carries no 1D LUT.
#
TITLE "ACES 2.0 SDR 100nit Rec.1886 Rec.709 display, ACEScct in"
LUT_3D_SIZE 9
DOMAIN_MIN 0.0 0.0 0.0
DOMAIN_MAX 1.0 1.0 1.0
0.000000 0.000000 0.000000
0.015333 0.000000 0.001724
0.069487 0.000000 0.007915
0.256276 0.000000 0.030187
0.667073 0.000000 0.077289
1.000000 0.287634 0.242405
1.000000 0.545868 0.478161
1.000000 0.824703 0.790241
1.000000 0.992367 0.990994
0.000000 0.016995 0.007431
0.023700 0.023531 0.000000
0.080325 0.036289 0.000000
0.265909 0.048735 0.000000
0.673033 0.000000 0.054126
1.000000 0.291049 0.241683
1.000000 0.546466 0.478371
1.000000 0.824860 0.790394
1.000000 0.992368 0.990996
0.000000 0.075625 0.033038
0.000000 0.084251 0.000000
0.099885 0.099184 0.000000
0.279957 0.132792 0.000000
0.678483 0.136877 0.000000
1.000000 0.304098 0.238641
1.000000 0.548835 0.479198
1.000000 0.825483 0.791000
1.000000 0.992374 0.991001
0.000000 0.258809 0.112897
0.000000 0.263000 0.103618
0.049620 0.276323 0.000000
0.300352 0.298300 0.000000
0.670587 0.318642 0.000000
1.000000 0.368981 0.240670
1.000000 0.559171 0.482840
1.000000 0.828434 0.793937
1.000000 0.992400 0.991028
0.000000 0.586302 0.254095
0.000000 0.587591 0.249713
0.000000 0.592206 0.228702
0.115479 0.610836 0.000000
0.616321 0.612271 0.000000
1.000000 0.555612 0.252412
1.000000 0.613073 0.513508
1.000000 0.841514 0.807193
1.000000 0.992515 0.991145
0.000000 0.893776 0.376817
0.000000 0.894239 0.375310
0.000000 0.896218 0.368994
0.000000 0.905262 0.336638
0.172805 0.941808 0.000000
0.896017 0.890670 0.000000
1.000000 0.785502 0.642970
1.000000 0.889017 0.857289
1.000000 0.993014 0.991653
0.620047 1.000000 0.657844
0.620331 1.000000 0.657844
0.621464 1.000000 0.657845
0.626450 1.000000 0.657826
0.647995 1.000000 0.657363
0.735523 1.000000 0.656058
1.000000 1.000000 0.560132
1.000000 0.962045 0.937494
0.999909 0.994738 0.993416
0.941205 1.000000 0.939186
0.941216 1.000000 0.939190
0.941257 1.000000 0.939202
0.941452 1.000000 0.939268
0.942330 1.000000 0.939562
0.946101 1.000000 0.940763
0.960468 1.000000 0.945030
0.999086 1.000000 0.939521
0.999877 0.998155 0.997104
0.998882 0.999962 0.998784
0.998882 0.999962 0.998784
0.998883 0.999962 0.998785
0.998887 0.999962 0.998788
0.998900 0.999962 0.998800
0.998961 0.999962 0.998857
0.999226 0.999963 0.999111
1.000000 1.000000 1.000000
1.000000 1.000000 1.000000
0.000000 0.003025 0.008174
0.019763 0.000000 0.016918
0.073428 0.000000 0.036167
0.258093 0.000000 0.080168
0.666255 0.000000 0.133605
1.000000 0.286351 0.257449
1.000000 0.547994 0.482657
1.000000 0.825506 0.791393
1.000000 0.992370 0.991000
0.000000 0.020226 0.019671
0.025734 0.025734 0.025734
0.094492 0.019830 0.033676
0.273603 0.018062 0.070928
0.672017 0.000000 0.124033
1.000000 0.290159 0.256998
1.000000 0.548597 0.482872
1.000000 0.825662 0.791544
1.000000 0.992372 0.991002
0.000000 0.077616 0.051764
0.008419 0.086186 0.048475
0.103594 0.101000 0.024563
0.301254 0.109471 0.029815
0.693362 0.057065 0.066567
1.000000 0.306850 0.256868
1.000000 0.550983 0.483720
1.000000 0.826286 0.792152
1.000000 0.992378 0.991008
0.000000 0.258387 0.133967
0.000000 0.263373 0.128363
0.021426 0.278702 0.080324
0.301412 0.297437 0.000000
0.682287 0.306084 0.000000
1.000000 0.367588 0.254230
1.000000 0.561232 0.487274
1.000000 0.829134 0.794958
1.000000 0.992404 0.991034
0.000000 0.585843 0.267314
0.000000 0.587150 0.263337
0.000000 0.591777 0.245209
0.000000 0.612363 0.000000
0.616204 0.611206 0.000000
1.000000 0.555762 0.265292
1.000000 0.614403 0.516908
1.000000 0.842147 0.808128
1.000000 0.992519 0.991152
0.000000 0.893716 0.381820
0.000000 0.894164 0.380384
0.000000 0.896288 0.374827
0.000000 0.905323 0.343465
0.154024 0.943146 0.000000
0.896360 0.890739 0.000000
1.000000 0.786323 0.645366
1.000000 0.889439 0.857950
1.000000 0.993018 0.991658
0.621170 1.000000 0.659302
0.621454 1.000000 0.659303
0.622583 1.000000 0.659305
0.627555 1.000000 0.659293
0.649050 1.000000 0.658864
0.736072 1.000000 0.657351
1.000000 1.000000 0.561274
1.000000 0.962098 0.937625
0.999909 0.994740 0.993419
0.941243 1.000000 0.939248
0.941252 1.000000 0.939251
0.941297 1.000000 0.939265
0.941487 1.000000 0.939327
0.942366 1.000000 0.939622
0.946133 1.000000 0.940820
0.960485 1.000000 0.945074
0.999087 1.000000 0.939536
0.999876 0.998156 0.997105
0.998883 0.999962 0.998784
0.998883 0.999962 0.998784
0.998884 0.999962 0.998785
0.998887 0.999962 0.998788
0.998900 0.999962 0.998800
0.998963 0.999962 0.998858
0.999226 0.999963 0.999111
1.000000 1.000000 1.000000
1.000000 1.000000 1.000000
0.000000 0.014017 0.037490
0.029537 0.000000 0.051855
0.087311 0.000000 0.074737
0.266556 0.000000 0.135408
0.665582 0.000000 0.212074
1.000000 0.282748 0.299158
1.000000 0.549372 0.492134
1.000000 0.828708 0.795953
1.000000 0.992386 0.991025
0.000000 0.032202 0.048409
0.021428 0.026660 0.073736
0.101514 0.021229 0.088803
0.280445 0.019143 0.135593
0.671244 0.000000 0.207055
1.000000 0.286678 0.298773
1.000000 0.550400 0.492788
1.000000 0.828853 0.796092
1.000000 0.992387 0.991027
0.000000 0.087326 0.084929
0.007734 0.093807 0.091417
0.105190 0.105190 0.105190
0.325161 0.072746 0.118541
0.692057 0.062829 0.184279
1.000000 0.303771 0.298667
1.000000 0.554495 0.495415
1.000000 0.829433 0.796646
1.000000 0.992393 0.991033
0.000000 0.260094 0.176669
0.000000 0.264515 0.175002
0.035200 0.280993 0.159791
0.304220 0.296776 0.087844
0.716250 0.265977 0.103007
1.000000 0.367594 0.297933
1.000000 0.569317 0.503869
1.000000 0.832118 0.799250
1.000000 0.992420 0.991060
0.000000 0.584494 0.305357
0.000000 0.585774 0.302321
0.000000 0.590343 0.289085
0.082315 0.609896 0.187937
0.615782 0.607998 0.086617
1.000000 0.556624 0.305824
1.000000 0.619671 0.529787
1.000000 0.844794 0.811984
1.000000 0.992535 0.991176
0.000000 0.893545 0.400170
0.000000 0.894090 0.398961
0.000000 0.896236 0.393940
0.000000 0.905536 0.367871
0.000000 0.948093 0.000000
0.897563 0.890963 0.000000
1.000000 0.789519 0.654517
1.000000 0.891076 0.860502
1.000000 0.993030 0.991679
0.625528 1.000000 0.664961
0.625809 1.000000 0.664964
0.626927 1.000000 0.664971
0.631845 1.000000 0.664984
0.653102 1.000000 0.664658
0.738237 1.000000 0.662410
1.000000 1.000000 0.565726
1.000000 0.962306 0.938130
0.999909 0.994746 0.993431
0.941391 1.000000 0.939489
0.941401 1.000000 0.939492
0.941445 1.000000 0.939507
0.941635 1.000000 0.939568
0.942509 1.000000 0.939858
0.946261 1.000000 0.941046
0.960550 1.000000 0.945244
0.999096 1.000000 0.939595
0.999876 0.998157 0.997108
0.998883 0.999962 0.998785
0.998883 0.999962 0.998785
0.998884 0.999962 0.998786
0.998887 0.999962 0.998789
0.998900 0.999962 0.998801
0.998962 0.999962 0.998858
0.999225 0.999964 0.999112
1.000000 1.000000 1.000000
1.000000 1.000000 1.000000
0.000000 0.055769 0.147874
0.013387 0.000000 0.178905
0.118156 0.000000 0.197623
0.296001 0.000000 0.253366
0.669930 0.000000 0.340096
1.000000 0.276191 0.391958
1.000000 0.548836 0.518023
1.000000 0.841759 0.814246
1.000000 0.992454 0.991133
0.000000 0.073611 0.155385
0.000000 0.061233 0.181851
0.118434 0.018906 0.217593
0.303972 0.019774 0.261580
0.674780 0.000000 0.339183
1.000000 0.280310 0.391793
1.000000 0.549893 0.518660
1.000000 0.841904 0.814384
1.000000 0.992455 0.991135
0.000000 0.125430 0.183853
0.000000 0.126505 0.198405
0.078545 0.096081 0.274725
0.328923 0.075916 0.288287
0.692863 0.064104 0.334193
1.000000 0.298072 0.392230
1.000000 0.554108 0.521217
1.000000 0.842474 0.814929
1.000000 0.992461 0.991140
0.000000 0.277304 0.269678
0.000000 0.280208 0.272626
0.033108 0.290426 0.283086
0.298792 0.298793 0.298793
0.736166 0.234614 0.302282
1.000000 0.366636 0.395925
1.000000 0.572693 0.532883
1.000000 0.844972 0.817320
1.000000 0.992487 0.991166
0.000000 0.583511 0.395725
0.000000 0.584650 0.394348
0.000000 0.588718 0.388163
0.115079 0.605503 0.348214
0.612276 0.601916 0.273018
1.000000 0.562748 0.410943
1.000000 0.641483 0.577250
1.000000 0.855581 0.827508
1.000000 0.992601 0.991281
0.000000 0.893075 0.459544
0.000000 0.893597 0.458640
0.000000 0.895682 0.455009
0.000000 0.904990 0.437749
0.184304 0.944825 0.300968
0.899988 0.890841 0.211309
1.000000 0.802246 0.689010
1.000000 0.897860 0.870940
1.000000 0.993087 0.991772
0.631929 1.000000 0.679528
0.632438 1.000000 0.679700
0.634460 1.000000 0.680385
0.643306 1.000000 0.683417
0.669056 1.000000 0.687519
0.747045 1.000000 0.682766
1.000000 1.000000 0.583742
1.000000 0.963173 0.940235
0.999904 0.994778 0.993490
0.942031 1.000000 0.940531
0.942043 1.000000 0.940535
0.942085 1.000000 0.940548
0.942274 1.000000 0.940609
0.943118 1.000000 0.940875
0.946813 1.000000 0.942023
0.960839 1.000000 0.945988
0.999126 1.000000 0.939892
0.999875 0.998161 0.997122
0.998884 0.999962 0.998789
0.998884 0.999962 0.998789
0.998886 0.999962 0.998790
0.998888 0.999962 0.998792
0.998901 0.999962 0.998805
0.998965 0.999962 0.998862
0.999227 0.999963 0.999114
1.000000 1.000000 1.000000
1.000000 1.000000 1.000000
0.000000 0.174632 0.460096
0.000000 0.161492 0.476701
0.074767 0.000000 0.542990
0.334433 0.000000 0.559617
0.689938 0.000000 0.590368
1.000000 0.279649 0.563458
1.000000 0.550709 0.582875
1.000000 0.848175 0.830600
1.000000 0.992732 0.991571
0.000000 0.186848 0.461838
0.000000 0.176479 0.477456
0.000000 0.000000 0.554470
0.333427 0.000000 0.568768
0.692278 0.000000 0.593102
1.000000 0.283849 0.563656
1.000000 0.551815 0.583475
1.000000 0.848450 0.830878
1.000000 0.992733 0.991572
0.000000 0.226173 0.468713
0.000000 0.221125 0.481510
0.036991 0.182223 0.539778
0.325746 0.065029 0.603067
0.700565 0.060212 0.603092
1.000000 0.301569 0.565003
1.000000 0.556226 0.585889
1.000000 0.849542 0.831980
1.000000 0.992738 0.991577
0.000000 0.340720 0.499154
0.000000 0.340425 0.505380
0.000000 0.337261 0.531715
0.248079 0.287040 0.646904
0.715935 0.233245 0.628778
1.000000 0.369948 0.571968
1.000000 0.575673 0.596886
1.000000 0.854323 0.836817
1.000000 0.992762 0.991600
0.000000 0.595727 0.579266
0.000000 0.596361 0.579944
0.000000 0.598451 0.582234
0.113235 0.606229 0.591049
0.593822 0.593822 0.593822
1.000000 0.580621 0.608344
1.000000 0.659851 0.651056
1.000000 0.874191 0.857140
0.999995 0.992867 0.991703
0.000000 0.892087 0.601714
0.000000 0.892530 0.601349
0.000000 0.894294 0.599869
0.000000 0.902094 0.592805
0.295656 0.929809 0.557365
0.875037 0.870272 0.595859
1.000000 0.840405 0.780672
1.000000 0.919193 0.902766
0.999964 0.993319 0.992149
0.643599 1.000000 0.721781
0.644140 1.000000 0.721962
0.646288 1.000000 0.722686
0.655645 1.000000 0.725871
0.694221 1.000000 0.739622
0.780117 1.000000 0.751993
0.999806 1.000000 0.643106
1.000000 0.966355 0.947780
0.999882 0.994907 0.993729
0.944388 1.000000 0.944505
0.944406 1.000000 0.944514
0.944471 1.000000 0.944552
0.944764 1.000000 0.944718
0.945565 1.000000 0.944960
0.949013 1.000000 0.945940
0.962000 1.000000 0.949015
0.999182 1.000000 0.941570
0.999872 0.998179 0.997182
0.998893 0.999962 0.998805
0.998893 0.999963 0.998806
0.998893 0.999962 0.998806
0.998896 0.999962 0.998809
0.998911 0.999962 0.998821
0.998972 0.999962 0.998877
0.999235 0.999964 0.999129
1.000000 1.000000 1.000000
1.000000 1.000000 1.000000
0.000000 0.353453 0.946425
0.000000 0.348092 0.954124
0.000000 0.323391 0.986532
0.273697 0.281351 1.000000
0.634061 0.246367 1.000000
1.000000 0.340202 0.880797
1.000000 0.576167 0.711831
1.000000 0.859804 0.862892
0.999938 0.993314 0.992573
0.000000 0.358602 0.944713
0.000000 0.353450 0.952331
0.000000 0.330021 0.984036
0.271139 0.287640 1.000000
0.632851 0.253847 1.000000
1.000000 0.343667 0.881068
1.000000 0.577273 0.712325
1.000000 0.860070 0.863128
0.999938 0.993315 0.992574
0.000000 0.377283 0.939781
0.000000 0.373111 0.946282
0.000000 0.354167 0.974932
0.262464 0.312596 1.000000
0.628323 0.283173 1.000000
1.000000 0.357098 0.882159
1.000000 0.581687 0.714309
1.000000 0.861131 0.864067
0.999938 0.993321 0.992581
0.000000 0.443020 0.925264
0.000000 0.440753 0.930291
0.000000 0.431402 0.951315
0.232571 0.402156 1.000000
0.610657 0.378122 1.000000
1.000000 0.410551 0.886986
1.000000 0.601215 0.723319
1.000000 0.865747 0.868166
0.999935 0.993350 0.992608
0.000000 0.613949 0.901213
0.000000 0.613716 0.903436
0.000000 0.613092 0.912719
0.011047 0.609118 0.957785
0.556629 0.604510 0.966841
1.000000 0.581936 0.902260
1.000000 0.685814 0.766557
1.000000 0.884698 0.885163
0.999923 0.993478 0.992735
0.000000 0.889319 0.864471
0.000000 0.889532 0.864704
0.000000 0.890376 0.865624
0.000000 0.893941 0.869555
0.292058 0.902827 0.881092
0.850430 0.850430 0.850430
1.000000 0.872930 0.877076
1.000000 0.935492 0.931897
0.999875 0.994009 0.993261
0.665683 1.000000 0.819135
0.666137 1.000000 0.819232
0.667944 1.000000 0.819622
0.675827 1.000000 0.821333
0.708469 1.000000 0.828614
0.807724 1.000000 0.849845
0.976816 0.976790 0.855411
1.000000 0.973727 0.964423
0.999807 0.995359 0.994532
0.946209 1.000000 0.951817
0.946225 1.000000 0.951826
0.946291 1.000000 0.951861
0.946587 1.000000 0.952017
0.947908 1.000000 0.952714
0.953329 1.000000 0.955548
0.965688 1.000000 0.958648
0.999384 1.000000 0.947141
0.999860 0.998251 0.997410
0.998928 0.999964 0.998875
0.998928 0.999964 0.998875
0.998929 0.999965 0.998876
0.998932 0.999965 0.998879
0.998947 0.999964 0.998891
0.999007 0.999964 0.998945
0.999266 0.999966 0.999186
1.000000 1.000000 1.000000
1.000000 1.000000 1.000000
0.504887 0.628924 1.000000
0.505844 0.628897 1.000000
0.509611 0.628782 1.000000
0.524724 0.627457 1.000000
0.586070 0.622085 1.000000
0.793608 0.640962 1.000000
1.000000 0.702508 0.932064
1.000000 0.895658 0.922997
0.999903 0.993794 0.993806
0.505321 0.629721 1.000000
0.506276 0.629694 1.000000
0.510043 0.629585 1.000000
0.525194 0.628319 1.000000
0.586325 0.622883 1.000000
0.793697 0.641806 1.000000
1.000000 0.703226 0.932208
1.000000 0.895841 0.923119
0.999903 0.993795 0.993807
0.506382 0.632424 1.000000
0.507596 0.632580 1.000000
0.511777 0.632774 1.000000
0.527110 0.631754 1.000000
0.587358 0.626058 1.000000
0.794060 0.645157 1.000000
1.000000 0.706080 0.932780
1.000000 0.896571 0.923606
0.999902 0.993801 0.993813
0.510937 0.644005 1.000000
0.512139 0.644164 1.000000
0.516922 0.644822 1.000000
0.535454 0.646443 1.000000
0.593482 0.641087 1.000000
0.795826 0.659772 1.000000
1.000000 0.718525 0.935289
1.000000 0.899734 0.925719
0.999899 0.993827 0.993836
0.532578 0.691366 1.000000
0.533715 0.691530 1.000000
0.538235 0.692201 1.000000
0.557736 0.695316 1.000000
0.628166 0.705523 1.000000
0.806067 0.719727 1.000000
1.000000 0.769111 0.945752
1.000000 0.912503 0.934313
0.999890 0.993944 0.993940
0.617845 0.828773 1.000000
0.618686 0.828884 1.000000
0.622036 0.829336 1.000000
0.636539 0.831366 1.000000
0.695314 0.840881 1.000000
0.846275 0.867635 1.000000
1.000000 0.881686 0.970425
1.000000 0.946876 0.957902
0.999851 0.994431 0.994372
0.665121 1.000000 0.984737
0.665397 1.000000 0.984745
0.666492 1.000000 0.984778
0.671298 1.000000 0.984920
0.691711 1.000000 0.985503
0.764786 0.999032 0.985995
0.963224 0.963224 0.963224
1.000000 0.977454 0.977909
0.999756 0.995993 0.995771
0.948864 1.000000 0.968146
0.948876 1.000000 0.968150
0.948930 1.000000 0.968168
0.949170 1.000000 0.968247
0.950236 1.000000 0.968596
0.954673 1.000000 0.970020
0.968119 1.000000 0.973368
0.996607 0.996896 0.973694
0.999823 0.998494 0.998043
0.999056 0.999971 0.999110
0.999056 0.999971 0.999110
0.999058 0.999971 0.999111
0.999061 0.999971 0.999113
0.999074 0.999971 0.999124
0.999135 0.999971 0.999174
0.999392 0.999974 0.999393
1.000000 1.000000 1.000000
1.000000 1.000000 1.000000
0.812590 0.861078 1.000000
0.812800 0.861183 1.000000
0.813637 0.861602 1.000000
0.817292 0.863437 1.000000
0.828255 0.867827 1.000000
0.858584 0.875817 1.000000
0.943954 0.906845 1.000000
1.000000 0.955895 0.986256
0.999833 0.995294 0.996229
0.812697 0.861191 1.000000
0.812907 0.861296 1.000000
0.813743 0.861715 1.000000
0.817397 0.863549 1.000000
0.828420 0.867988 1.000000
0.858708 0.875960 1.000000
0.943990 0.906942 1.000000
1.000000 0.955925 0.986264
0.999833 0.995294 0.996230
0.813125 0.861641 1.000000
0.813334 0.861746 1.000000
0.814168 0.862164 1.000000
0.817817 0.863995 1.000000
0.829082 0.868628 1.000000
0.859201 0.876531 1.000000
0.944131 0.907329 1.000000
1.000000 0.956044 0.986299
0.999833 0.995298 0.996233
0.815034 0.863639 1.000000
0.815237 0.863739 1.000000
0.816051 0.864143 1.000000
0.819667 0.865952 1.000000
0.831871 0.871336 1.000000
0.861458 0.879110 1.000000
0.944751 0.909018 1.000000
1.000000 0.956567 0.986454
0.999832 0.995316 0.996245
0.823386 0.872278 1.000000
0.823578 0.872371 1.000000
0.824344 0.872744 1.000000
0.827741 0.874409 1.000000
0.842292 0.881669 1.000000
0.871232 0.890098 1.000000
0.947379 0.916105 1.000000
1.000000 0.958809 0.987118
0.999827 0.995393 0.996300
0.854569 0.903281 1.000000
0.854715 0.903346 1.000000
0.855291 0.903601 1.000000
0.857853 0.904742 1.000000
0.868770 0.909653 1.000000
0.903493 0.925019 1.000000
0.956097 0.938921 1.000000
1.000000 0.966642 0.989474
0.999812 0.995719 0.996534
0.915708 0.960679 1.000000
0.915759 0.960692 1.000000
0.915964 0.960746 1.000000
0.916869 0.960980 1.000000
0.920828 0.962011 1.000000
0.935844 0.965980 1.000000
0.968068 0.972843 1.000000
1.000000 0.980555 0.993799
0.999772 0.996837 0.997343
0.950591 1.000000 0.996963
0.950598 1.000000 0.996964
0.950626 1.000000 0.996966
0.950753 1.000000 0.996974
0.951320 1.000000 0.997012
0.953748 1.000000 0.997172
0.962451 1.000000 0.997550
0.994301 0.994301 0.994301
0.999789 0.998870 0.998882
0.999578 0.999987 0.999720
0.999579 0.999987 0.999720
0.999579 0.999987 0.999721
0.999581 0.999987 0.999723
0.999593 0.999988 0.999730
0.999649 0.999988 0.999764
0.999883 0.999994 0.999918
1.000000 1.000000 1.000000
1.000000 1.000000 1.000000
0.979044 0.984731 1.000000
0.979048 0.984733 1.000000
0.979066 0.984741 1.000000
0.979143 0.984777 1.000000
0.979493 0.984936 1.000000
0.980988 0.985626 1.000000
0.984821 0.986928 1.000000
0.994343 0.990787 1.000000
0.999866 0.998619 0.999368
0.979048 0.984734 1.000000
0.979051 0.984736 1.000000
0.979068 0.984744 1.000000
0.979145 0.984779 1.000000
0.979496 0.984939 1.000000
0.980989 0.985628 1.000000
0.984824 0.986931 1.000000
0.994344 0.990788 1.000000
0.999866 0.998619 0.999368
0.979057 0.984745 1.000000
0.979061 0.984747 1.000000
0.979079 0.984755 1.000000
0.979156 0.984790 1.000000
0.979506 0.984951 1.000000
0.980998 0.985638 1.000000
0.984833 0.986941 1.000000
0.994346 0.990794 1.000000
0.999866 0.998620 0.999369
0.979103 0.984792 1.000000
0.979107 0.984795 1.000000
0.979126 0.984802 1.000000
0.979203 0.984838 1.000000
0.979550 0.984997 1.000000
0.981037 0.985681 1.000000
0.984872 0.986988 1.000000
0.994353 0.990821 1.000000
0.999867 0.998624 0.999371
0.979315 0.985007 1.000000
0.979319 0.985009 1.000000
0.979337 0.985016 1.000000
0.979413 0.985051 1.000000
0.979755 0.985206 1.000000
0.981216 0.985874 1.000000
0.985048 0.987198 1.000000
0.994390 0.990943 1.000000
0.999866 0.998643 0.999379
0.980227 0.985927 1.000000
0.980232 0.985929 1.000000
0.980249 0.985936 1.000000
0.980319 0.985967 1.000000
0.980634 0.986106 1.000000
0.981985 0.986705 1.000000
0.985798 0.988089 1.000000
0.994543 0.991469 1.000000
0.999870 0.998729 0.999416
0.983552 0.989199 1.000000
0.983555 0.989200 1.000000
0.983566 0.989204 1.000000
0.983618 0.989224 1.000000
0.983845 0.989311 1.000000
0.984830 0.989693 1.000000
0.988378 0.991092 1.000000
0.995145 0.993359 0.999989
0.999888 0.999071 0.999568
0.991017 0.995836 1.000000
0.991018 0.995836 1.000000
0.991022 0.995837 1.000000
0.991040 0.995841 1.000000
0.991122 0.995860 1.000000
0.991489 0.995942 1.000000
0.992950 0.996287 1.000000
0.996718 0.997216 0.999848
1.000000 1.000000 1.000000
1.000000 1.000000 1.000000
1.000000 1.000000 1.000000
1.000000 1.000000 1.000000
1.000000 1.000000 1.000000
1.000000 1.000000 1.000000
1.000000 1.000000 1.000000
1.000000 1.000000 1.000000
1.000000 1.000000 1.000000
1.000000 1.000000 1.000000
