engine/Code/CryPlugins/CinematicCamera/Assets/cinecam/luts/odt_srgb_100nit_aces2_65.cube
# Generated by tools/ocio-bake/bake.py -- do not edit by hand.
#
# ReC-LUT-Space: ACEScct
#
# preset            : odt_srgb_100nit
# config URI        : ocio://studio-config-latest
# config name       : studio-config-v4.0.0_aces-v2.0_ocio-v2.5
# ACES version      : 2.0
# input space       : ACEScct   (LUT domain is this encoding, [0,1], red fastest)
# display           : sRGB - Display
# view              : ACES 2.0 - SDR 100 nits (Rec.709)
# output encoding   : sRGB - Display (encoded display code values)
# grid size         : 65^3
# OCIO library      : 2.5.2
# baked (UTC)       : 2026-09-10T02:50:50Z
# tool git hash     : fa0f045d905e8df94b7136ca6cd9e37ebbed98ac-dirty
# tool sha256[:16]  : 48c8b086d843e6ac
#
# Default ODT. Ends in the piecewise sRGB encode, which is what an 8-bit non-sRGB-typed
# swapchain on a desktop monitor wants (decisions/s4-display-transform.md section 3A).
# The 65^3 of this file is also the FORWARD half of the Rec.709 LUT wrap: see
# odt_srgb_100nit_inv below.
# Output values are clamped to [0,1]; the shaper (linear -> ACEScct) is applied
# analytically in the shader before the fetch, so this file carries no 1D LUT.
#
TITLE "ACES 2.0 SDR 100nit sRGB display, ACEScct in"
LUT_3D_SIZE 9
DOMAIN_MIN 0.0 0.0 0.0
DOMAIN_MAX 1.0 1.0 1.0
0.000000 0.000000 0.000000
0.000571 0.000000 0.000003
0.021475 0.000000 0.000117
0.215371 0.000000 0.002904
0.648762 0.000000 0.027724
1.000000 0.248454 0.200737
1.000000 0.520890 0.449460
1.000000 0.815062 0.778704
1.000000 0.991947 0.990499
0.000000 0.000731 0.000100
0.001625 0.001597 0.000000
0.030410 0.004517 0.000000
0.225534 0.009166 0.000000
0.655049 0.000000 0.011791
1.000000 0.252057 0.199975
1.000000 0.521522 0.449681
1.000000 0.815228 0.778865
1.000000 0.991948 0.990501
0.000000 0.026313 0.003606
0.000000 0.034100 0.000000
0.050378 0.049639 0.000000
0.240355 0.085095 0.000000
0.660800 0.089405 0.000000
1.000000 0.265824 0.196766
1.000000 0.524021 0.450554
1.000000 0.815885 0.779504
1.000000 0.991954 0.990506
0.000000 0.218044 0.064106
0.000000 0.222465 0.054317
0.009571 0.236521 0.000000
0.261872 0.259707 0.000000
0.652469 0.281168 0.000000
1.000000 0.334275 0.198907
1.000000 0.534925 0.454397
1.000000 0.818997 0.782603
1.000000 0.991981 0.990535
0.000000 0.563549 0.213071
0.000000 0.564908 0.208447
0.000000 0.569777 0.186281
0.066830 0.589432 0.000000
0.595218 0.590946 0.000000
1.000000 0.531170 0.211294
1.000000 0.591792 0.486751
1.000000 0.832797 0.796588
1.000000 0.992104 0.990658
0.000000 0.887933 0.342542
0.000000 0.888422 0.340952
0.000000 0.890510 0.334289
0.000000 0.900052 0.300153
0.127309 0.938608 0.000000
0.890298 0.884657 0.000000
1.000000 0.773704 0.623334
1.000000 0.882912 0.849440
1.000000 0.992630 0.991193
0.599149 1.000000 0.639025
0.599450 1.000000 0.639025
0.600645 1.000000 0.639026
0.605905 1.000000 0.639006
0.628635 1.000000 0.638518
0.720977 1.000000 0.637141
1.000000 1.000000 0.535939
1.000000 0.959957 0.934056
0.999904 0.994449 0.993053
0.937971 1.000000 0.935842
0.937983 1.000000 0.935845
0.938026 1.000000 0.935858
0.938232 1.000000 0.935927
0.939159 1.000000 0.936238
0.943137 1.000000 0.937505
0.958294 1.000000 0.942007
0.999036 1.000000 0.936195
0.999870 0.998054 0.996945
0.998821 0.999960 0.998717
0.998821 0.999960 0.998717
0.998821 0.999960 0.998718
0.998825 0.999960 0.998721
0.998839 0.999960 0.998734
0.998904 0.999960 0.998794
0.999183 0.999961 0.999062
1.000000 1.000000 1.000000
1.000000 1.000000 1.000000
0.000000 0.000012 0.000126
0.001051 0.000000 0.000723
0.024516 0.000000 0.004480
0.217288 0.000000 0.030267
0.647899 0.000000 0.085954
1.000000 0.247100 0.216608
1.000000 0.523133 0.454203
1.000000 0.815909 0.779919
1.000000 0.991951 0.990505
0.000000 0.001111 0.001039
0.001980 0.001980 0.001980
0.044689 0.001059 0.003775
0.233651 0.000846 0.022560
0.653977 0.000000 0.075854
1.000000 0.251118 0.216133
1.000000 0.523769 0.454430
1.000000 0.816073 0.780079
1.000000 0.991952 0.990507
0.000000 0.028006 0.010593
0.000135 0.036009 0.009049
0.054292 0.051555 0.001770
0.262823 0.060492 0.002819
0.676497 0.013386 0.019373
1.000000 0.268726 0.215996
1.000000 0.526288 0.455325
1.000000 0.816732 0.780720
1.000000 0.991958 0.990513
0.000000 0.217598 0.086335
0.000000 0.222858 0.080423
0.001275 0.239030 0.030409
0.262989 0.258796 0.000000
0.664813 0.267918 0.000000
1.000000 0.332805 0.213213
1.000000 0.537100 0.459074
1.000000 0.819736 0.783680
1.000000 0.991986 0.990541
0.000000 0.563064 0.227016
0.000000 0.564443 0.222820
0.000000 0.569325 0.203695
0.000000 0.591043 0.000000
0.595095 0.589822 0.000000
1.000000 0.531329 0.224883
1.000000 0.593195 0.490337
1.000000 0.833465 0.797575
1.000000 0.992108 0.990665
0.000000 0.887870 0.347820
0.000000 0.888343 0.346305
0.000000 0.890583 0.340443
0.000000 0.900116 0.307355
0.107495 0.940019 0.000000
0.890660 0.884730 0.000000
1.000000 0.774570 0.625861
1.000000 0.883358 0.850137
1.000000 0.992634 0.991199
0.600334 1.000000 0.640563
0.600634 1.000000 0.640565
0.601825 1.000000 0.640566
0.607071 1.000000 0.640554
0.629747 1.000000 0.640102
0.721556 1.000000 0.638505
1.000000 1.000000 0.537144
1.000000 0.960014 0.934194
0.999904 0.994450 0.993057
0.938012 1.000000 0.935907
0.938021 1.000000 0.935909
0.938068 1.000000 0.935925
0.938269 1.000000 0.935990
0.939196 1.000000 0.936301
0.943171 1.000000 0.937565
0.958311 1.000000 0.942053
0.999037 1.000000 0.936210
0.999869 0.998054 0.996946
0.998821 0.999960 0.998717
0.998821 0.999960 0.998718
0.998823 0.999959 0.998718
0.998825 0.999960 0.998721
0.998839 0.999960 0.998734
0.998905 0.999960 0.998795
0.999183 0.999961 0.999062
1.000000 1.000000 1.000000
1.000000 1.000000 1.000000
0.000000 0.000461 0.004884
0.002756 0.000000 0.010638
0.037148 0.000000 0.025578
0.226217 0.000000 0.087856
0.647189 0.000000 0.168738
1.000000 0.243299 0.260612
1.000000 0.524587 0.464201
1.000000 0.819287 0.784731
1.000000 0.991967 0.990532
0.000000 0.003391 0.009020
0.001276 0.002155 0.024763
0.052097 0.001247 0.038689
0.240869 0.000973 0.088051
0.653162 0.000000 0.163443
1.000000 0.247445 0.260205
1.000000 0.525671 0.464891
1.000000 0.819440 0.784877
1.000000 0.991969 0.990533
0.000000 0.037163 0.034762
0.000111 0.043966 0.041444
0.055976 0.055976 0.055976
0.288045 0.023973 0.070060
0.675120 0.016863 0.139414
1.000000 0.265478 0.260094
1.000000 0.529992 0.467663
1.000000 0.820052 0.785462
1.000000 0.991975 0.990540
0.000000 0.219399 0.131386
0.000000 0.224064 0.129627
0.004198 0.241447 0.113580
0.265952 0.258098 0.037695
0.700644 0.225606 0.053673
1.000000 0.332812 0.259319
1.000000 0.545629 0.476581
1.000000 0.822885 0.788209
1.000000 0.992003 0.990568
0.000000 0.561641 0.267151
0.000000 0.562991 0.263948
0.000000 0.567812 0.249984
0.032249 0.588441 0.143274
0.594650 0.586438 0.036443
1.000000 0.532238 0.267644
1.000000 0.598753 0.503926
1.000000 0.836257 0.801643
1.000000 0.992124 0.990691
0.000000 0.887690 0.367179
0.000000 0.888265 0.365904
0.000000 0.890529 0.360607
0.000000 0.900341 0.333104
0.000000 0.945238 0.000000
0.891929 0.884966 0.000000
1.000000 0.777942 0.635516
1.000000 0.885085 0.852829
1.000000 0.992647 0.991221
0.604932 1.000000 0.646534
0.605229 1.000000 0.646537
0.606408 1.000000 0.646545
0.611596 1.000000 0.646558
0.634023 1.000000 0.646214
0.723840 1.000000 0.643843
1.000000 1.000000 0.541841
1.000000 0.960232 0.934727
0.999904 0.994457 0.993070
0.938167 1.000000 0.936161
0.938178 1.000000 0.936164
0.938225 1.000000 0.936180
0.938425 1.000000 0.936244
0.939347 1.000000 0.936550
0.943306 1.000000 0.937804
0.958380 1.000000 0.942233
0.999046 1.000000 0.936272
0.999869 0.998055 0.996949
0.998821 0.999960 0.998718
0.998821 0.999960 0.998718
0.998822 0.999960 0.998719
0.998826 0.999960 0.998722
0.998839 0.999960 0.998735
0.998905 0.999960 0.998795
0.999183 0.999961 0.999063
1.000000 1.000000 1.000000
1.000000 1.000000 1.000000
0.000000 0.012668 0.101007
0.000412 0.000000 0.133745
0.069655 0.000000 0.153492
0.257281 0.000000 0.212301
0.651776 0.000000 0.303802
1.000000 0.236382 0.358515
1.000000 0.524022 0.491515
1.000000 0.833056 0.804029
1.000000 0.992039 0.990646
0.000000 0.024662 0.108931
0.000000 0.015854 0.136853
0.069948 0.000945 0.174561
0.265691 0.001052 0.220967
0.656893 0.000000 0.302838
1.000000 0.240727 0.358342
1.000000 0.525138 0.492187
1.000000 0.833209 0.804175
1.000000 0.992040 0.990647
0.000000 0.077329 0.138965
0.000000 0.078463 0.154318
0.028818 0.046365 0.234835
0.292014 0.026556 0.249143
0.675970 0.017697 0.297573
1.000000 0.259466 0.358803
1.000000 0.529584 0.494884
1.000000 0.833810 0.804750
1.000000 0.992046 0.990653
0.000000 0.237556 0.229510
0.000000 0.240619 0.232620
0.003624 0.251400 0.243656
0.260226 0.260226 0.260226
0.721655 0.192517 0.263907
1.000000 0.331800 0.362700
1.000000 0.549192 0.507192
1.000000 0.836446 0.807272
1.000000 0.992073 0.990680
0.000000 0.560604 0.362490
0.000000 0.561805 0.361037
0.000000 0.566098 0.354512
0.066409 0.583805 0.312366
0.590952 0.580022 0.233034
1.000000 0.538699 0.378545
1.000000 0.621765 0.553999
1.000000 0.847638 0.818021
1.000000 0.992194 0.990801
0.000000 0.887194 0.429819
0.000000 0.887745 0.428865
0.000000 0.889944 0.425034
0.000000 0.899765 0.406825
0.139441 0.941790 0.262521
0.894487 0.884837 0.167931
1.000000 0.791369 0.671905
1.000000 0.892242 0.863841
1.000000 0.992706 0.991319
0.611685 1.000000 0.661902
0.612222 1.000000 0.662084
0.614356 1.000000 0.662806
0.623688 1.000000 0.666005
0.650854 1.000000 0.670333
0.733133 1.000000 0.665318
1.000000 1.000000 0.560848
1.000000 0.961147 0.936948
0.999898 0.994491 0.993132
0.938843 1.000000 0.937261
0.938855 1.000000 0.937264
0.938899 1.000000 0.937279
0.939099 1.000000 0.937342
0.939990 1.000000 0.937623
0.943887 1.000000 0.938834
0.958685 1.000000 0.943017
0.999077 1.000000 0.936586
0.999868 0.998060 0.996964
0.998823 0.999960 0.998722
0.998823 0.999960 0.998722
0.998825 0.999960 0.998723
0.998827 0.999960 0.998725
0.998841 0.999960 0.998739
0.998908 0.999960 0.998799
0.999185 0.999961 0.999066
1.000000 1.000000 1.000000
1.000000 1.000000 1.000000
0.000000 0.129236 0.430402
0.000000 0.115374 0.447920
0.025602 0.000000 0.517855
0.297827 0.000000 0.535396
0.672884 0.000000 0.567838
1.000000 0.240029 0.539448
1.000000 0.525997 0.559933
1.000000 0.839824 0.821283
1.000000 0.992332 0.991107
0.000000 0.142125 0.432239
0.000000 0.131185 0.448716
0.000000 0.000000 0.529966
0.296766 0.000000 0.545050
0.675353 0.000000 0.570722
1.000000 0.244461 0.539658
1.000000 0.527165 0.560567
1.000000 0.840115 0.821576
1.000000 0.992333 0.991108
0.000000 0.183613 0.439492
0.000000 0.178287 0.452993
0.004729 0.137246 0.514466
0.288662 0.018316 0.581235
0.684096 0.015227 0.581262
1.000000 0.263156 0.541078
1.000000 0.531818 0.563113
1.000000 0.841267 0.822739
1.000000 0.992339 0.991113
0.000000 0.304459 0.471607
0.000000 0.304148 0.478175
0.000000 0.300810 0.505959
0.206724 0.247827 0.627484
0.700312 0.191073 0.608361
1.000000 0.335295 0.548426
1.000000 0.552335 0.574715
1.000000 0.846310 0.827842
1.000000 0.992363 0.991138
0.000000 0.573492 0.556126
0.000000 0.574161 0.556841
0.000000 0.576366 0.559257
0.064463 0.584572 0.568556
0.571482 0.571482 0.571482
1.000000 0.557555 0.586803
1.000000 0.641143 0.631864
1.000000 0.867272 0.849283
0.999995 0.992474 0.991247
0.000000 0.886152 0.579809
0.000000 0.886619 0.579423
0.000000 0.888480 0.577862
0.000000 0.896709 0.570409
0.256917 0.925949 0.533020
0.868164 0.863137 0.573632
1.000000 0.831627 0.768609
1.000000 0.914748 0.897418
0.999961 0.992951 0.991717
0.623997 1.000000 0.706479
0.624567 1.000000 0.706670
0.626834 1.000000 0.707433
0.636706 1.000000 0.710794
0.677404 1.000000 0.725301
0.768024 1.000000 0.738352
0.999796 1.000000 0.623477
1.000000 0.964505 0.944907
0.999876 0.994627 0.993384
0.941329 1.000000 0.941452
0.941348 1.000000 0.941462
0.941417 1.000000 0.941502
0.941726 1.000000 0.941677
0.942571 1.000000 0.941932
0.946209 1.000000 0.942967
0.959910 1.000000 0.946211
0.999137 1.000000 0.938357
0.999865 0.998079 0.997027
0.998832 0.999960 0.998740
0.998832 0.999960 0.998740
0.998832 0.999960 0.998740
0.998836 0.999960 0.998743
0.998851 0.999960 0.998756
0.998915 0.999960 0.998815
0.999192 0.999962 0.999081
1.000000 1.000000 1.000000
1.000000 1.000000 1.000000
0.000000 0.317892 0.943479
0.000000 0.312238 0.951600
0.000000 0.286177 0.985791
0.233750 0.241826 1.000000
0.613934 0.204917 1.000000
1.000000 0.303913 0.874240
1.000000 0.552856 0.695982
1.000000 0.852093 0.855351
0.999935 0.992946 0.992164
0.000000 0.323325 0.941673
0.000000 0.317890 0.949709
0.000000 0.293172 0.983158
0.231051 0.248460 1.000000
0.612658 0.212809 1.000000
1.000000 0.307569 0.874527
1.000000 0.554023 0.696503
1.000000 0.852374 0.855599
0.999934 0.992947 0.992165
0.000000 0.343034 0.936468
0.000000 0.338633 0.943327
0.000000 0.318647 0.973553
0.221899 0.274788 1.000000
0.607881 0.243748 1.000000
1.000000 0.321739 0.875678
1.000000 0.558680 0.698596
1.000000 0.853493 0.856591
0.999934 0.992954 0.992172
0.000000 0.412386 0.921153
0.000000 0.409995 0.926457
0.000000 0.400129 0.948637
0.190363 0.369274 1.000000
0.589243 0.343919 1.000000
1.000000 0.378132 0.880771
1.000000 0.579281 0.708102
1.000000 0.858364 0.860915
0.999932 0.992984 0.992202
0.000000 0.592716 0.895780
0.000000 0.592470 0.898125
0.000000 0.591812 0.907919
0.000260 0.587619 0.955463
0.532244 0.582758 0.965017
1.000000 0.558942 0.896884
1.000000 0.668534 0.753718
1.000000 0.878356 0.878847
0.999919 0.993119 0.992335
0.000000 0.883231 0.857017
0.000000 0.883456 0.857262
0.000000 0.884346 0.858233
0.000000 0.888108 0.862380
0.253121 0.897482 0.874552
0.842204 0.842204 0.842204
1.000000 0.865941 0.870315
1.000000 0.931944 0.928152
0.999868 0.993679 0.992890
0.647295 1.000000 0.809187
0.647775 1.000000 0.809290
0.649681 1.000000 0.809701
0.657997 1.000000 0.811506
0.692434 1.000000 0.819188
0.797148 1.000000 0.841587
0.975541 0.975514 0.847459
1.000000 0.972282 0.962467
0.999797 0.995104 0.994231
0.943250 1.000000 0.949167
0.943267 1.000000 0.949176
0.943337 1.000000 0.949213
0.943649 1.000000 0.949377
0.945043 1.000000 0.950113
0.950762 1.000000 0.953103
0.963801 1.000000 0.956374
0.999350 1.000000 0.944234
0.999852 0.998155 0.997268
0.998869 0.999962 0.998814
0.998869 0.999962 0.998813
0.998870 0.999963 0.998815
0.998873 0.999963 0.998817
0.998889 0.999962 0.998830
0.998952 0.999963 0.998887
0.999226 0.999964 0.999142
1.000000 1.000000 1.000000
1.000000 1.000000 1.000000
0.477656 0.608515 1.000000
0.478665 0.608487 1.000000
0.482639 0.608365 1.000000
0.498584 0.606967 1.000000
0.563304 0.601300 1.000000
0.782257 0.621215 1.000000
1.000000 0.686146 0.928328
1.000000 0.889919 0.918761
0.999898 0.993452 0.993466
0.478114 0.609355 1.000000
0.479121 0.609328 1.000000
0.483095 0.609212 1.000000
0.499080 0.607876 1.000000
0.563573 0.602142 1.000000
0.782350 0.622105 1.000000
1.000000 0.686904 0.928479
1.000000 0.890112 0.918890
0.999898 0.993453 0.993466
0.479233 0.612207 1.000000
0.480514 0.612372 1.000000
0.484925 0.612576 1.000000
0.501101 0.611501 1.000000
0.564663 0.605492 1.000000
0.782733 0.625641 1.000000
1.000000 0.689914 0.929083
1.000000 0.890883 0.919404
0.999897 0.993460 0.993472
0.484039 0.624426 1.000000
0.485306 0.624593 1.000000
0.490353 0.625287 1.000000
0.509904 0.626997 1.000000
0.571123 0.621347 1.000000
0.784597 0.641059 1.000000
1.000000 0.703044 0.931730
1.000000 0.894219 0.921634
0.999894 0.993488 0.993496
0.506870 0.674391 1.000000
0.508070 0.674564 1.000000
0.512838 0.675273 1.000000
0.533412 0.678558 1.000000
0.607715 0.689326 1.000000
0.795401 0.704312 1.000000
1.000000 0.756412 0.942768
1.000000 0.907691 0.930700
0.999884 0.993611 0.993606
0.596826 0.819355 1.000000
0.597714 0.819473 1.000000
0.601248 0.819949 1.000000
0.616548 0.822091 1.000000
0.678556 0.832129 1.000000
0.837820 0.860355 1.000000
1.000000 0.875179 0.968798
1.000000 0.943954 0.955586
0.999843 0.994125 0.994062
0.646703 1.000000 0.983898
0.646994 1.000000 0.983906
0.648149 1.000000 0.983941
0.653219 1.000000 0.984090
0.674755 1.000000 0.984705
0.751849 0.998979 0.985225
0.961201 0.961201 0.961201
1.000000 0.976214 0.976694
0.999742 0.995772 0.995538
0.946052 1.000000 0.966394
0.946064 1.000000 0.966398
0.946121 1.000000 0.966417
0.946374 1.000000 0.966500
0.947499 1.000000 0.966868
0.952179 1.000000 0.968371
0.966366 1.000000 0.971903
0.996420 0.996725 0.972247
0.999813 0.998411 0.997935
0.999004 0.999970 0.999061
0.999004 0.999970 0.999061
0.999006 0.999969 0.999062
0.999009 0.999969 0.999064
0.999023 0.999969 0.999076
0.999087 0.999970 0.999128
0.999359 0.999972 0.999359
1.000000 1.000000 1.000000
1.000000 1.000000 1.000000
0.802283 0.853437 1.000000
0.802504 0.853548 1.000000
0.803387 0.853990 1.000000
0.807243 0.855926 1.000000
0.818808 0.860557 1.000000
0.850806 0.868987 1.000000
0.940872 0.901721 1.000000
1.000000 0.953469 0.985500
0.999824 0.995035 0.996022
0.802395 0.853556 1.000000
0.802617 0.853667 1.000000
0.803499 0.854109 1.000000
0.807354 0.856045 1.000000
0.818983 0.860727 1.000000
0.850937 0.869138 1.000000
0.940909 0.901824 1.000000
1.000000 0.953500 0.985509
0.999824 0.995035 0.996023
0.802847 0.854032 1.000000
0.803067 0.854142 1.000000
0.803948 0.854583 1.000000
0.807797 0.856514 1.000000
0.819682 0.861402 1.000000
0.851457 0.869740 1.000000
0.941058 0.902232 1.000000
1.000000 0.953626 0.985546
0.999824 0.995040 0.996026
0.804861 0.856139 1.000000
0.805075 0.856245 1.000000
0.805934 0.856671 1.000000
0.809749 0.858579 1.000000
0.822623 0.864260 1.000000
0.853838 0.872461 1.000000
0.941713 0.904014 1.000000
1.000000 0.954179 0.985709
0.999823 0.995058 0.996039
0.813672 0.865253 1.000000
0.813875 0.865352 1.000000
0.814683 0.865745 1.000000
0.818266 0.867502 1.000000
0.833618 0.875161 1.000000
0.864150 0.884053 1.000000
0.944485 0.911491 1.000000
1.000000 0.956543 0.986410
0.999818 0.995139 0.996096
0.846570 0.897962 1.000000
0.846725 0.898030 1.000000
0.847332 0.898299 1.000000
0.850034 0.899503 1.000000
0.861552 0.904684 1.000000
0.898185 0.920895 1.000000
0.953682 0.935562 1.000000
1.000000 0.964807 0.988895
0.999802 0.995483 0.996343
0.911072 0.958516 1.000000
0.911126 0.958530 1.000000
0.911342 0.958587 1.000000
0.912297 0.958833 1.000000
0.916474 0.959921 1.000000
0.932315 0.964109 1.000000
0.966312 0.971349 1.000000
1.000000 0.979485 0.993458
0.999760 0.996663 0.997197
0.947873 1.000000 0.996796
0.947881 1.000000 0.996797
0.947910 1.000000 0.996799
0.948044 1.000000 0.996808
0.948642 1.000000 0.996847
0.951204 1.000000 0.997016
0.960385 1.000000 0.997415
0.993988 0.993988 0.993988
0.999777 0.998808 0.998821
0.999555 0.999987 0.999705
0.999555 0.999987 0.999705
0.999556 0.999987 0.999705
0.999558 0.999987 0.999707
0.999570 0.999987 0.999715
0.999630 0.999988 0.999751
0.999876 0.999994 0.999913
1.000000 1.000000 1.000000
1.000000 1.000000 1.000000
0.977892 0.983891 1.000000
0.977896 0.983894 1.000000
0.977915 0.983902 1.000000
0.977996 0.983939 1.000000
0.978365 0.984108 1.000000
0.979942 0.984835 1.000000
0.983986 0.986209 1.000000
0.994032 0.990280 1.000000
0.999859 0.998543 0.999333
0.977895 0.983894 1.000000
0.977898 0.983897 1.000000
0.977917 0.983905 1.000000
0.977998 0.983942 1.000000
0.978368 0.984111 1.000000
0.979943 0.984838 1.000000
0.983989 0.986212 1.000000
0.994032 0.990281 1.000000
0.999859 0.998543 0.999334
0.977905 0.983906 1.000000
0.977910 0.983908 1.000000
0.977928 0.983916 1.000000
0.978010 0.983954 1.000000
0.978378 0.984123 1.000000
0.979953 0.984848 1.000000
0.983999 0.986223 1.000000
0.994034 0.990288 1.000000
0.999859 0.998544 0.999334
0.977954 0.983956 1.000000
0.977958 0.983959 1.000000
0.977978 0.983966 1.000000
0.978059 0.984003 1.000000
0.978425 0.984171 1.000000
0.979994 0.984894 1.000000
0.984040 0.986273 1.000000
0.994042 0.990316 1.000000
0.999859 0.998548 0.999336
0.978177 0.984182 1.000000
0.978182 0.984184 1.000000
0.978200 0.984192 1.000000
0.978281 0.984229 1.000000
0.978642 0.984392 1.000000
0.980183 0.985097 1.000000
0.984226 0.986494 1.000000
0.994081 0.990445 1.000000
0.999859 0.998569 0.999345
0.979140 0.985153 1.000000
0.979145 0.985155 1.000000
0.979163 0.985162 1.000000
0.979237 0.985195 1.000000
0.979568 0.985342 1.000000
0.980994 0.985973 1.000000
0.985017 0.987433 1.000000
0.994243 0.991000 1.000000
0.999863 0.998659 0.999384
0.982647 0.988604 1.000000
0.982650 0.988606 1.000000
0.982663 0.988610 1.000000
0.982717 0.988631 1.000000
0.982956 0.988723 1.000000
0.983996 0.989126 1.000000
0.987738 0.990602 1.000000
0.994878 0.992994 0.999988
0.999882 0.999020 0.999544
0.990523 0.995607 1.000000
0.990524 0.995607 1.000000
0.990528 0.995608 1.000000
0.990547 0.995612 1.000000
0.990634 0.995632 1.000000
0.991021 0.995719 1.000000
0.992562 0.996083 1.000000
0.996537 0.997063 0.999840
1.000000 1.000000 1.000000
1.000000 1.000000 1.000000
1.000000 1.000000 1.000000
1.000000 1.000000 1.000000
1.000000 1.000000 1.000000
1.000000 1.000000 1.000000
1.000000 1.000000 1.000000
1.000000 1.000000 1.000000
1.000000 1.000000 1.000000
1.000000 1.000000 1.000000
