engine/Code/CryPlugins/CinematicCamera/Assets/cinecam/luts/odt_srgb_100nit_aces2_65.cube
# Generated by tools/ocio-bake/bake.py -- do not edit by hand.
#
# ReC-LUT-Space: ACEScct
#
# preset            : odt_srgb_100nit
# config URI        : ocio://studio-config-latest
# config name       : studio-config-v4.0.0_aces-v2.0_ocio-v2.5
# ACES version      : 2.0
# input space       : ACEScct   (LUT domain is this encoding, [0,1], red fastest)
# display           : sRGB - Display
# view              : ACES 2.0 - SDR 100 nits (Rec.709)
# output encoding   : sRGB - Display (encoded display code values)
# grid size         : 65^3
# OCIO library      : 2.5.2
# baked (UTC)       : 2026-09-10T02:50:50Z
# tool git hash     : fa0f045d905e8df94b7136ca6cd9e37ebbed98ac-dirty
# tool sha256[:16]  : 48c8b086d843e6ac
#
# Default ODT. Ends in the piecewise sRGB encode, which is what an 8-bit non-sRGB-typed
# swapchain on a desktop monitor wants (decisions/s4-display-transform.md section 3A).
# The 65^3 of this file is also the FORWARD half of the Rec.709 LUT wrap: see
# odt_srgb_100nit_inv below.
# Output values are clamped to [0,1]; the shaper (linear -> ACEScct) is applied
# analytically in the shader before the fetch, so this file carries no 1D LUT.
#
TITLE "ACES 2.0 SDR 100nit sRGB display, ACEScct in"
LUT_3D_SIZE 65
DOMAIN_MIN 0.0 0.0 0.0
DOMAIN_MAX 1.0 1.0 1.0
0.000000 0.000000 0.000000
0.000000 0.000000 0.000000
0.000000 0.000000 0.000000
0.000000 0.000000 0.000000
0.000000 0.000000 0.000000
0.000003 0.000000 0.000000
0.000070 0.000000 0.000000
0.000253 0.000000 0.000001
0.000571 0.000000 0.000003
0.001039 0.000000 0.000006
0.001667 0.000000 0.000009
0.002565 0.000000 0.000014
0.003940 0.000000 0.000021
0.006042 0.000000 0.000033
0.009246 0.000000 0.000050
0.014114 0.000000 0.000077
0.021475 0.000000 0.000117
0.032550 0.000000 0.000178
0.048472 0.000000 0.000269
0.067520 0.000000 0.000407
0.089665 0.000000 0.000611
0.115245 0.000000 0.000912
0.144567 0.000000 0.001354
0.177885 0.000000 0.001993
0.215371 0.000000 0.002904
0.257092 0.000000 0.004175
0.302986 0.000000 0.005904
0.352862 0.000000 0.008178
0.406413 0.000000 0.011057
0.463241 0.000000 0.014549
0.522894 0.000000 0.018593
0.584894 0.000000 0.023054
0.648762 0.000000 0.027724
0.714018 0.000000 0.032338
0.779642 0.000000 0.036393
0.844198 0.000000 0.039154
0.909304 0.000000 0.041083
0.973831 0.000000 0.043659
1.000000 0.048645 0.088160
1.000000 0.178365 0.151389
1.000000 0.248454 0.200737
1.000000 0.299966 0.241778
1.000000 0.341695 0.277452
1.000000 0.377420 0.309488
1.000000 0.409164 0.338979
1.000000 0.438362 0.366885
1.000000 0.466121 0.394067
1.000000 0.493366 0.421336
1.000000 0.520890 0.449460
1.000000 0.549397 0.479177
1.000000 0.579516 0.511196
1.000000 0.611804 0.546185
1.000000 0.646737 0.584752
1.000000 0.684665 0.627380
1.000000 0.725703 0.674284
1.000000 0.769535 0.725155
1.000000 0.815062 0.778704
1.000000 0.859664 0.831734
1.000000 0.899583 0.879555
1.000000 0.931311 0.917705
1.000000 0.954141 0.945178
1.000000 0.969676 0.963850
1.000000 0.980108 0.976360
1.000000 0.987138 0.984767
1.000000 0.991947 0.990499
0.000000 0.000000 0.000000
0.000000 0.000000 0.000000
0.000000 0.000000 0.000000
0.000000 0.000000 0.000000
0.000000 0.000000 0.000000
0.000003 0.000000 0.000000
0.000070 0.000000 0.000000
0.000253 0.000000 0.000001
0.000571 0.000000 0.000003
0.001039 0.000000 0.000006
0.001667 0.000000 0.000009
0.002565 0.000000 0.000014
0.003940 0.000000 0.000021
0.006042 0.000000 0.000033
0.009246 0.000000 0.000050
0.014114 0.000000 0.000077
0.021475 0.000000 0.000117
0.032550 0.000000 0.000178
0.048472 0.000000 0.000269
0.067520 0.000000 0.000407
0.089665 0.000000 0.000611
0.115245 0.000000 0.000912
0.144567 0.000000 0.001354
0.177885 0.000000 0.001993
0.215371 0.000000 0.002904
0.257092 0.000000 0.004175
0.302986 0.000000 0.005904
0.352862 0.000000 0.008178
0.406413 0.000000 0.011057
0.463241 0.000000 0.014549
0.522894 0.000000 0.018593
0.584894 0.000000 0.023054
0.648762 0.000000 0.027724
0.714018 0.000000 0.032338
0.779642 0.000000 0.036393
0.844198 0.000000 0.039154
0.909304 0.000000 0.041083
0.973831 0.000000 0.043659
1.000000 0.048645 0.088160
1.000000 0.178365 0.151389
1.000000 0.248454 0.200737
1.000000 0.299966 0.241778
1.000000 0.341695 0.277452
1.000000 0.377420 0.309488
1.000000 0.409164 0.338979
1.000000 0.438362 0.366885
1.000000 0.466121 0.394067
1.000000 0.493366 0.421336
1.000000 0.520890 0.449460
1.000000 0.549397 0.479177
1.000000 0.579516 0.511196
1.000000 0.611804 0.546185
1.000000 0.646737 0.584752
1.000000 0.684665 0.627380
1.000000 0.725703 0.674284
1.000000 0.769535 0.725155
1.000000 0.815062 0.778704
1.000000 0.859664 0.831734
1.000000 0.899583 0.879555
1.000000 0.931311 0.917705
1.000000 0.954141 0.945178
1.000000 0.969676 0.963850
1.000000 0.980108 0.976360
1.000000 0.987138 0.984767
1.000000 0.991947 0.990499
0.000000 0.000000 0.000000
0.000000 0.000000 0.000000
0.000000 0.000000 0.000000
0.000000 0.000000 0.000000
0.000000 0.000000 0.000000
0.000003 0.000000 0.000000
0.000070 0.000000 0.000000
0.000253 0.000000 0.000001
0.000571 0.000000 0.000003
0.001039 0.000000 0.000006
0.001667 0.000000 0.000009
0.002565 0.000000 0.000014
0.003940 0.000000 0.000021
0.006042 0.000000 0.000033
0.009246 0.000000 0.000050
0.014114 0.000000 0.000077
0.021475 0.000000 0.000117
0.032550 0.000000 0.000178
0.048472 0.000000 0.000269
0.067520 0.000000 0.000407
0.089665 0.000000 0.000611
0.115245 0.000000 0.000912
0.144567 0.000000 0.001354
0.177885 0.000000 0.001993
0.215371 0.000000 0.002904
0.257092 0.000000 0.004175
0.302986 0.000000 0.005904
0.352862 0.000000 0.008178
0.406413 0.000000 0.011057
0.463241 0.000000 0.014549
0.522894 0.000000 0.018593
0.584894 0.000000 0.023054
0.648762 0.000000 0.027724
0.714018 0.000000 0.032338
0.779642 0.000000 0.036393
0.844198 0.000000 0.039154
0.909304 0.000000 0.041083
0.973831 0.000000 0.043659
1.000000 0.048645 0.088160
1.000000 0.178365 0.151389
1.000000 0.248454 0.200737
1.000000 0.299966 0.241778
1.000000 0.341695 0.277452
1.000000 0.377420 0.309488
1.000000 0.409164 0.338979
1.000000 0.438362 0.366885
1.000000 0.466121 0.394067
1.000000 0.493366 0.421336
1.000000 0.520890 0.449460
1.000000 0.549397 0.479177
1.000000 0.579516 0.511196
1.000000 0.611804 0.546185
1.000000 0.646737 0.584752
1.000000 0.684665 0.627380
1.000000 0.725703 0.674284
1.000000 0.769535 0.725155
1.000000 0.815062 0.778704
1.000000 0.859664 0.831734
1.000000 0.899583 0.879555
1.000000 0.931311 0.917705
1.000000 0.954141 0.945178
1.000000 0.969676 0.963850
1.000000 0.980108 0.976360
1.000000 0.987138 0.984767
1.000000 0.991947 0.990499
0.000000 0.000000 0.000000
0.000000 0.000000 0.000000
0.000000 0.000000 0.000000
0.000000 0.000000 0.000000
0.000000 0.000000 0.000000
0.000003 0.000000 0.000000
0.000070 0.000000 0.000000
0.000253 0.000000 0.000001
0.000571 0.000000 0.000003
0.001039 0.000000 0.000006
0.001667 0.000000 0.000009
0.002565 0.000000 0.000014
0.003940 0.000000 0.000021
0.006042 0.000000 0.000033
0.009246 0.000000 0.000050
0.014114 0.000000 0.000077
0.021475 0.000000 0.000117
0.032550 0.000000 0.000178
0.048472 0.000000 0.000269
0.067520 0.000000 0.000407
0.089665 0.000000 0.000611
0.115245 0.000000 0.000912
0.144567 0.000000 0.001354
0.177885 0.000000 0.001993
0.215371 0.000000 0.002904
0.257092 0.000000 0.004175
0.302986 0.000000 0.005904
0.352862 0.000000 0.008178
0.406413 0.000000 0.011057
0.463241 0.000000 0.014549
0.522894 0.000000 0.018593
0.584894 0.000000 0.023054
0.648762 0.000000 0.027724
0.714018 0.000000 0.032338
0.779642 0.000000 0.036393
0.844198 0.000000 0.039154
0.909304 0.000000 0.041083
0.973831 0.000000 0.043659
1.000000 0.048645 0.088160
1.000000 0.178365 0.151389
1.000000 0.248454 0.200737
1.000000 0.299966 0.241778
1.000000 0.341695 0.277452
1.000000 0.377420 0.309488
1.000000 0.409164 0.338979
1.000000 0.438362 0.366885
1.000000 0.466121 0.394067
1.000000 0.493366 0.421336
1.000000 0.520890 0.449460
1.000000 0.549397 0.479177
1.000000 0.579516 0.511196
1.000000 0.611804 0.546185
1.000000 0.646737 0.584752
1.000000 0.684665 0.627380
1.000000 0.725703 0.674284
1.000000 0.769535 0.725155
1.000000 0.815062 0.778704
1.000000 0.859664 0.831734
1.000000 0.899583 0.879555
1.000000 0.931311 0.917705
1.000000 0.954141 0.945178
1.000000 0.969676 0.963850
1.000000 0.980108 0.976360
1.000000 0.987138 0.984767
1.000000 0.991947 0.990499
0.000000 0.000000 0.000000
0.000000 0.000000 0.000000
0.000000 0.000000 0.000000
0.000000 0.000000 0.000000
0.000000 0.000000 0.000000
0.000003 0.000000 0.000000
0.000070 0.000000 0.000000
0.000253 0.000000 0.000001
0.000571 0.000000 0.000003
0.001039 0.000000 0.000006
0.001667 0.000000 0.000009
0.002565 0.000000 0.000014
0.003940 0.000000 0.000021
0.006042 0.000000 0.000033
0.009246 0.000000 0.000050
0.014114 0.000000 0.000077
0.021475 0.000000 0.000117
0.032550 0.000000 0.000178
0.048472 0.000000 0.000269
0.067520 0.000000 0.000407
0.089665 0.000000 0.000611
0.115245 0.000000 0.000912
0.144567 0.000000 0.001354
0.177885 0.000000 0.001993
0.215371 0.000000 0.002904
0.257092 0.000000 0.004175
0.302986 0.000000 0.005904
0.352862 0.000000 0.008178
0.406413 0.000000 0.011057
0.463241 0.000000 0.014549
0.522894 0.000000 0.018593
0.584894 0.000000 0.023054
0.648762 0.000000 0.027724
0.714018 0.000000 0.032338
0.779642 0.000000 0.036393
0.844198 0.000000 0.039154
0.909304 0.000000 0.041083
0.973831 0.000000 0.043659
1.000000 0.048645 0.088160
1.000000 0.178365 0.151389
1.000000 0.248454 0.200737
1.000000 0.299966 0.241778
1.000000 0.341695 0.277452
1.000000 0.377420 0.309488
1.000000 0.409164 0.338979
1.000000 0.438362 0.366885
1.000000 0.466121 0.394067
1.000000 0.493366 0.421336
1.000000 0.520890 0.449460
1.000000 0.549397 0.479177
1.000000 0.579516 0.511196
1.000000 0.611804 0.546185
1.000000 0.646737 0.584752
1.000000 0.684665 0.627380
1.000000 0.725703 0.674284
1.000000 0.769535 0.725155
1.000000 0.815062 0.778704
1.000000 0.859664 0.831734
1.000000 0.899583 0.879555
1.000000 0.931311 0.917705
1.000000 0.954141 0.945178
1.000000 0.969676 0.963850
1.000000 0.980108 0.976360
1.000000 0.987138 0.984767
1.000000 0.991947 0.990499
0.000000 0.000004 0.000001
0.000000 0.000004 0.000001
0.000000 0.000004 0.000001
0.000000 0.000004 0.000001
0.000000 0.000004 0.000001
0.000009 0.000008 0.000000
0.000112 0.000021 0.000000
0.000346 0.000034 0.000000
0.000729 0.000045 0.000000
0.001273 0.000054 0.000000
0.001990 0.000060 0.000000
0.002999 0.000064 0.000000
0.004527 0.000063 0.000000
0.006840 0.000054 0.000000
0.010338 0.000029 0.000000
0.015610 0.000000 0.000000
0.023400 0.000000 0.000000
0.034904 0.000000 0.000000
0.050942 0.000000 0.000045
0.069883 0.000000 0.000131
0.091917 0.000000 0.000274
0.117383 0.000000 0.000505
0.146589 0.000000 0.000867
0.179771 0.000000 0.001412
0.217102 0.000000 0.002216
0.258661 0.000000 0.003371
0.304391 0.000000 0.004978
0.354106 0.000000 0.007129
0.407504 0.000000 0.009889
0.464191 0.000000 0.013272
0.523718 0.000000 0.017222
0.585609 0.000000 0.021608
0.649383 0.000000 0.026225
0.714562 0.000000 0.030813
0.780106 0.000000 0.034861
0.844622 0.000000 0.037653
0.909694 0.000000 0.039653
0.974158 0.000000 0.042419
1.000000 0.050398 0.087815
1.000000 0.178953 0.151255
1.000000 0.248820 0.200663
1.000000 0.300231 0.241738
1.000000 0.341897 0.277434
1.000000 0.377584 0.309487
1.000000 0.409296 0.338987
1.000000 0.438470 0.366899
1.000000 0.466211 0.394086
1.000000 0.493441 0.421357
1.000000 0.520954 0.449482
1.000000 0.549451 0.479200
1.000000 0.579561 0.511219
1.000000 0.611842 0.546207
1.000000 0.646770 0.584773
1.000000 0.684693 0.627401
1.000000 0.725727 0.674304
1.000000 0.769557 0.725176
1.000000 0.815079 0.778720
1.000000 0.859676 0.831747
1.000000 0.899591 0.879563
1.000000 0.931315 0.917710
1.000000 0.954144 0.945181
1.000000 0.969678 0.963852
1.000000 0.980109 0.976361
1.000000 0.987139 0.984767
1.000000 0.991947 0.990499
0.000000 0.000090 0.000012
0.000000 0.000090 0.000012
0.000000 0.000090 0.000012
0.000000 0.000090 0.000012
0.000000 0.000090 0.000012
0.000006 0.000128 0.000000
0.000205 0.000201 0.000000
0.000555 0.000275 0.000000
0.001067 0.000351 0.000000
0.001751 0.000426 0.000000
0.002613 0.000501 0.000000
0.003791 0.000583 0.000000
0.005528 0.000679 0.000000
0.008100 0.000789 0.000000
0.011912 0.000914 0.000000
0.017567 0.001047 0.000000
0.025943 0.001183 0.000000
0.038328 0.001305 0.000000
0.054748 0.001390 0.000000
0.073929 0.001401 0.000000
0.096219 0.001275 0.000000
0.121942 0.000936 0.000000
0.151416 0.000277 0.000000
0.184808 0.000000 0.000000
0.221685 0.000000 0.000000
0.262813 0.000000 0.000739
0.308137 0.000000 0.001981
0.357478 0.000000 0.003774
0.410532 0.000000 0.006200
0.466902 0.000000 0.009291
0.526129 0.000000 0.013015
0.587731 0.000000 0.017254
0.651233 0.000000 0.021747
0.716181 0.000000 0.026254
0.781491 0.000000 0.030283
0.845891 0.000000 0.033166
0.910861 0.000000 0.035308
0.975133 0.000000 0.038592
1.000000 0.055450 0.086782
1.000000 0.180705 0.150855
1.000000 0.249914 0.200441
1.000000 0.301020 0.241618
1.000000 0.342517 0.277391
1.000000 0.378073 0.309483
1.000000 0.409693 0.339012
1.000000 0.438795 0.366942
1.000000 0.466482 0.394141
1.000000 0.493666 0.421418
1.000000 0.521143 0.449548
1.000000 0.549611 0.479269
1.000000 0.579698 0.511288
1.000000 0.611959 0.546276
1.000000 0.646868 0.584840
1.000000 0.684778 0.627465
1.000000 0.725797 0.674362
1.000000 0.769619 0.725232
1.000000 0.815128 0.778768
1.000000 0.859717 0.831789
1.000000 0.899618 0.879592
1.000000 0.931329 0.917724
1.000000 0.954152 0.945190
1.000000 0.969682 0.963856
1.000000 0.980110 0.976363
1.000000 0.987139 0.984768
1.000000 0.991947 0.990500
0.000000 0.000324 0.000045
0.000000 0.000324 0.000045
0.000000 0.000324 0.000045
0.000000 0.000324 0.000045
0.000000 0.000324 0.000045
0.000000 0.000405 0.000015
0.000263 0.000569 0.000000
0.000728 0.000716 0.000000
0.001367 0.000864 0.000000
0.002185 0.001013 0.000000
0.003188 0.001162 0.000000
0.004527 0.001328 0.000000
0.006466 0.001527 0.000000
0.009285 0.001763 0.000000
0.013400 0.002041 0.000000
0.019418 0.002363 0.000000
0.028230 0.002727 0.000000
0.041094 0.003129 0.000000
0.057428 0.003549 0.000000
0.076488 0.003959 0.000000
0.098619 0.004312 0.000000
0.124156 0.004535 0.000000
0.153408 0.004532 0.000000
0.186661 0.004142 0.000000
0.224082 0.003197 0.000000
0.265785 0.001472 0.000000
0.311680 0.000000 0.000000
0.360621 0.000000 0.000268
0.413334 0.000000 0.002306
0.469411 0.000000 0.005040
0.528397 0.000000 0.008449
0.589804 0.000000 0.012429
0.653138 0.000000 0.016801
0.717910 0.000000 0.021309
0.782995 0.000000 0.025419
0.847254 0.000000 0.028497
0.912079 0.000000 0.030873
0.976111 0.000000 0.034697
1.000000 0.060241 0.085750
1.000000 0.182429 0.150448
1.000000 0.250994 0.200213
1.000000 0.301801 0.241494
1.000000 0.343129 0.277344
1.000000 0.378561 0.309479
1.000000 0.410088 0.339036
1.000000 0.439120 0.366985
1.000000 0.466750 0.394195
1.000000 0.493891 0.421481
1.000000 0.521332 0.449615
1.000000 0.549772 0.479338
1.000000 0.579834 0.511357
1.000000 0.612075 0.546344
1.000000 0.646968 0.584906
1.000000 0.684862 0.627528
1.000000 0.725869 0.674422
1.000000 0.769682 0.725290
1.000000 0.815178 0.778817
1.000000 0.859756 0.831831
1.000000 0.899642 0.879617
1.000000 0.931343 0.917740
1.000000 0.954159 0.945196
1.000000 0.969685 0.963859
1.000000 0.980113 0.976365
1.000000 0.987140 0.984768
1.000000 0.991948 0.990500
0.000000 0.000731 0.000100
0.000000 0.000731 0.000100
0.000000 0.000731 0.000100
0.000000 0.000731 0.000100
0.000000 0.000731 0.000100
0.000000 0.000855 0.000058
0.000277 0.001144 0.000000
0.000860 0.001370 0.000000
0.001625 0.001597 0.000000
0.002575 0.001824 0.000000
0.003715 0.002052 0.000000
0.005211 0.002305 0.000000
0.007344 0.002610 0.000000
0.010403 0.002976 0.000000
0.014809 0.003411 0.000000
0.021180 0.003922 0.000000
0.030410 0.004517 0.000000
0.043648 0.005194 0.000000
0.059911 0.005949 0.000000
0.078872 0.006756 0.000000
0.100864 0.007584 0.000000
0.126245 0.008351 0.000000
0.155315 0.008972 0.000000
0.188347 0.009302 0.000000
0.225534 0.009166 0.000000
0.266995 0.008304 0.000000
0.312699 0.006405 0.000000
0.362527 0.003131 0.000000
0.416115 0.000000 0.000000
0.471903 0.000000 0.000785
0.530657 0.000000 0.003880
0.591872 0.000000 0.007606
0.655049 0.000000 0.011791
0.719690 0.000000 0.016190
0.784625 0.000000 0.020265
0.848830 0.000000 0.023422
0.913583 0.000000 0.025932
0.977396 0.000000 0.030283
1.000000 0.064293 0.084547
1.000000 0.184068 0.149998
1.000000 0.252057 0.199975
1.000000 0.302582 0.241370
1.000000 0.343740 0.277296
1.000000 0.379047 0.309474
1.000000 0.410483 0.339060
1.000000 0.439444 0.367027
1.000000 0.467019 0.394249
1.000000 0.494116 0.421542
1.000000 0.521522 0.449681
1.000000 0.549932 0.479406
1.000000 0.579970 0.511426
1.000000 0.612191 0.546413
1.000000 0.647067 0.584973
1.000000 0.684947 0.627591
1.000000 0.725940 0.674480
1.000000 0.769744 0.725346
1.000000 0.815228 0.778865
1.000000 0.859795 0.831871
1.000000 0.899668 0.879645
1.000000 0.931358 0.917755
1.000000 0.954167 0.945205
1.000000 0.969689 0.963864
1.000000 0.980114 0.976366
1.000000 0.987141 0.984770
1.000000 0.991948 0.990501
0.000000 0.001327 0.000182
0.000000 0.001327 0.000182
0.000000 0.001327 0.000182
0.000000 0.001327 0.000182
0.000000 0.001327 0.000182
0.000000 0.001495 0.000126
0.000243 0.001940 0.000000
0.000944 0.002249 0.000000
0.001835 0.002558 0.000000
0.002917 0.002867 0.000000
0.004192 0.003176 0.000000
0.005843 0.003519 0.000000
0.008166 0.003932 0.000000
0.011457 0.004429 0.000000
0.016146 0.005021 0.000000
0.022857 0.005723 0.000000
0.032492 0.006547 0.000000
0.046005 0.007501 0.000000
0.062225 0.008584 0.000000
0.081104 0.009784 0.000000
0.102992 0.011067 0.000000
0.128222 0.012376 0.000000
0.157115 0.013621 0.000000
0.189946 0.014657 0.000000
0.226923 0.015291 0.000000
0.268157 0.015265 0.000000
0.313645 0.014230 0.000000
0.363226 0.011899 0.000000
0.416730 0.007568 0.000000
0.473746 0.000923 0.000000
0.532908 0.000000 0.000000
0.593937 0.000000 0.002788
0.656961 0.000000 0.006784
0.721472 0.000000 0.011072
0.786261 0.000000 0.015111
0.850410 0.000000 0.018345
0.915092 0.000000 0.020987
0.978673 0.000000 0.025895
1.000000 0.068209 0.083343
1.000000 0.185692 0.149547
1.000000 0.253115 0.199737
1.000000 0.303360 0.241245
1.000000 0.344349 0.277246
1.000000 0.379533 0.309469
1.000000 0.410877 0.339083
1.000000 0.439768 0.367069
1.000000 0.467287 0.394303
1.000000 0.494340 0.421604
1.000000 0.521711 0.449748
1.000000 0.550092 0.479475
1.000000 0.580106 0.511495
1.000000 0.612307 0.546481
1.000000 0.647166 0.585040
1.000000 0.685031 0.627655
1.000000 0.726011 0.674539
1.000000 0.769808 0.725405
1.000000 0.815277 0.778913
1.000000 0.859835 0.831913
1.000000 0.899692 0.879671
1.000000 0.931373 0.917771
1.000000 0.954173 0.945212
1.000000 0.969693 0.963868
1.000000 0.980116 0.976368
1.000000 0.987142 0.984771
1.000000 0.991949 0.990501
0.000000 0.002123 0.000292
0.000000 0.002123 0.000292
0.000000 0.002123 0.000292
0.000000 0.002123 0.000292
0.000000 0.002123 0.000292
0.000000 0.002337 0.000221
0.000154 0.002967 0.000000
0.000977 0.003361 0.000000
0.001994 0.003755 0.000000
0.003207 0.004148 0.000000
0.004617 0.004539 0.000000
0.006421 0.004973 0.000000
0.008930 0.005496 0.000000
0.012448 0.006123 0.000000
0.017413 0.006874 0.000000
0.024455 0.007766 0.000000
0.034482 0.008818 0.000000
0.048195 0.010044 0.000000
0.064386 0.011452 0.000000
0.083202 0.013038 0.000000
0.104993 0.014774 0.000000
0.130099 0.016606 0.000000
0.158837 0.018451 0.000000
0.191493 0.020159 0.000000
0.228261 0.021558 0.000000
0.269275 0.022354 0.000000
0.314545 0.022187 0.000000
0.363938 0.020642 0.000000
0.417195 0.017341 0.000000
0.474076 0.011281 0.000000
0.534094 0.002185 0.000000
0.595997 0.000000 0.000000
0.658872 0.000000 0.001782
0.723257 0.000000 0.005953
0.787903 0.000000 0.009955
0.851996 0.000000 0.013263
0.916605 0.000000 0.016036
0.979940 0.000000 0.021532
1.000000 0.072008 0.082140
1.000000 0.187304 0.149094
1.000000 0.254170 0.199498
1.000000 0.304135 0.241120
1.000000 0.344956 0.277197
1.000000 0.380017 0.309464
1.000000 0.411270 0.339107
1.000000 0.440091 0.367111
1.000000 0.467556 0.394358
1.000000 0.494565 0.421666
1.000000 0.521898 0.449813
1.000000 0.550251 0.479543
1.000000 0.580242 0.511564
1.000000 0.612422 0.546549
1.000000 0.647265 0.585106
1.000000 0.685114 0.627717
1.000000 0.726083 0.674598
1.000000 0.769870 0.725462
1.000000 0.815325 0.778960
1.000000 0.859875 0.831954
1.000000 0.899718 0.879698
1.000000 0.931388 0.917787
1.000000 0.954180 0.945219
1.000000 0.969696 0.963870
1.000000 0.980117 0.976370
1.000000 0.987143 0.984772
1.000000 0.991949 0.990501
0.000000 0.003254 0.000447
0.000000 0.003254 0.000447
0.000000 0.003254 0.000447
0.000000 0.003254 0.000447
0.000000 0.003254 0.000447
0.000000 0.003521 0.000360
0.000000 0.004390 0.000000
0.000948 0.004881 0.000000
0.002108 0.005370 0.000000
0.003466 0.005857 0.000000
0.005024 0.006342 0.000000
0.006997 0.006878 0.000000
0.009712 0.007523 0.000000
0.013479 0.008296 0.000000
0.018744 0.009222 0.000000
0.026144 0.010324 0.000000
0.036596 0.011626 0.000000
0.050458 0.013152 0.000000
0.066635 0.014915 0.000000
0.085402 0.016919 0.000000
0.107101 0.019149 0.000000
0.132081 0.021554 0.000000
0.160664 0.024047 0.000000
0.193128 0.026498 0.000000
0.229699 0.028689 0.000000
0.270481 0.030379 0.000000
0.315508 0.031168 0.000000
0.364678 0.030573 0.000000
0.417752 0.028053 0.000000
0.474379 0.023138 0.000000
0.534273 0.014562 0.000000
0.596892 0.002080 0.000000
0.660995 0.000000 0.000000
0.725247 0.000000 0.000255
0.789740 0.000000 0.004211
0.853770 0.000000 0.007597
0.918296 0.000000 0.010515
0.981339 0.000000 0.016706
1.000000 0.076112 0.080798
1.000000 0.189084 0.148587
1.000000 0.255340 0.199232
1.000000 0.304998 0.240982
1.000000 0.345632 0.277142
1.000000 0.380557 0.309458
1.000000 0.411707 0.339132
1.000000 0.440450 0.367157
1.000000 0.467854 0.394417
1.000000 0.494814 0.421734
1.000000 0.522109 0.449887
1.000000 0.550429 0.479619
1.000000 0.580392 0.511641
1.000000 0.612552 0.546625
1.000000 0.647375 0.585179
1.000000 0.685209 0.627788
1.000000 0.726161 0.674663
1.000000 0.769941 0.725527
1.000000 0.815382 0.779015
1.000000 0.859920 0.832001
1.000000 0.899745 0.879727
1.000000 0.931403 0.917803
1.000000 0.954189 0.945228
1.000000 0.969700 0.963876
1.000000 0.980119 0.976371
1.000000 0.987144 0.984773
1.000000 0.991949 0.990502
0.000000 0.004977 0.000684
0.000000 0.004977 0.000684
0.000000 0.004977 0.000684
0.000000 0.004977 0.000684
0.000000 0.004977 0.000684
0.000000 0.005309 0.000576
0.000000 0.006379 0.000100
0.000817 0.007121 0.000000
0.002150 0.007725 0.000000
0.003684 0.008326 0.000000
0.005421 0.008923 0.000000
0.007594 0.009584 0.000000
0.010556 0.010377 0.000000
0.014619 0.011325 0.000000
0.020239 0.012459 0.000000
0.028062 0.013810 0.000000
0.039010 0.015410 0.000000
0.052974 0.017288 0.000000
0.069153 0.019470 0.000000
0.087879 0.021967 0.000000
0.109493 0.024772 0.000000
0.134340 0.027850 0.000000
0.162751 0.031110 0.000000
0.195011 0.034416 0.000000
0.231339 0.037571 0.000000
0.271882 0.040252 0.000000
0.316638 0.042089 0.000000
0.365533 0.042612 0.000000
0.418363 0.041238 0.000000
0.474799 0.037184 0.000000
0.534424 0.029876 0.000000
0.596923 0.017863 0.000000
0.661720 0.000954 0.000000
0.727641 0.000000 0.000000
0.791971 0.000000 0.000000
0.855925 0.000000 0.000745
0.920348 0.000000 0.003832
0.983013 0.000000 0.010922
1.000000 0.080909 0.079172
1.000000 0.191216 0.147971
1.000000 0.256748 0.198909
1.000000 0.306041 0.240816
1.000000 0.346445 0.277074
1.000000 0.381206 0.309449
1.000000 0.412235 0.339163
1.000000 0.440884 0.367213
1.000000 0.468213 0.394489
1.000000 0.495115 0.421817
1.000000 0.522362 0.449976
1.000000 0.550644 0.479711
1.000000 0.580575 0.511733
1.000000 0.612707 0.546716
1.000000 0.647508 0.585268
1.000000 0.685322 0.627873
1.000000 0.726257 0.674742
1.000000 0.770025 0.725604
1.000000 0.815448 0.779079
1.000000 0.859974 0.832057
1.000000 0.899781 0.879765
1.000000 0.931422 0.917823
1.000000 0.954199 0.945239
