engine/Code/CryPlugins/CinematicCamera/Assets/cinecam/luts/odt_rec1886_100nit_aces2_33.cube
# Generated by tools/ocio-bake/bake.py -- do not edit by hand.
#
# ReC-LUT-Space: ACEScct
#
# preset            : odt_rec1886_100nit
# config URI        : ocio://studio-config-latest
# config name       : studio-config-v4.0.0_aces-v2.0_ocio-v2.5
# ACES version      : 2.0
# input space       : ACEScct   (LUT domain is this encoding, [0,1], red fastest)
# display           : Rec.1886 Rec.709 - Display
# view              : ACES 2.0 - SDR 100 nits (Rec.709)
# output encoding   : Rec.1886 Rec.709 - Display (encoded display code values)
# grid size         : 33^3
# OCIO library      : 2.5.2
# baked (UTC)       : 2026-09-10T02:50:51Z
# tool git hash     : fa0f045d905e8df94b7136ca6cd9e37ebbed98ac-dirty
# tool sha256[:16]  : 48c8b086d843e6ac
#
# Same output transform as odt_srgb_100nit, differing only in the final inverse EOTF
# (pure 2.4 gamma instead of the piecewise sRGB curve). This is the reference for the
# Resolve round-trip comparison (D12), whose default viewer path is Rec.1886.
# Output values are clamped to [0,1]; the shaper (linear -> ACEScct) is applied
# analytically in the shader before the fetch, so this file carries no 1D LUT.
#
TITLE "ACES 2.0 SDR 100nit Rec.1886 Rec.709 display, ACEScct in"
LUT_3D_SIZE 33
DOMAIN_MIN 0.0 0.0 0.0
DOMAIN_MAX 1.0 1.0 1.0
0.000000 0.000000 0.000000
0.000000 0.000000 0.000000
0.000000 0.000000 0.000000
0.006400 0.000000 0.000711
0.015333 0.000000 0.001724
0.023957 0.000000 0.002707
0.034280 0.000000 0.003885
0.048912 0.000000 0.005558
0.069487 0.000000 0.007915
0.098077 0.000000 0.011209
0.137124 0.000000 0.015764
0.189163 0.000000 0.021964
0.256276 0.000000 0.030187
0.339323 0.000000 0.040572
0.437358 0.000000 0.052695
0.547767 0.000000 0.065437
0.667073 0.000000 0.077289
0.791130 0.000000 0.086567
0.914032 0.000000 0.091074
1.000000 0.098242 0.135697
1.000000 0.287634 0.242405
1.000000 0.376014 0.315121
1.000000 0.439966 0.373440
1.000000 0.493954 0.425656
1.000000 0.545868 0.478161
1.000000 0.601437 0.536678
1.000000 0.665153 0.606400
1.000000 0.740003 0.691264
1.000000 0.824703 0.790241
1.000000 0.904818 0.885834
1.000000 0.956532 0.948036
1.000000 0.981145 0.977593
1.000000 0.992367 0.990994
0.000000 0.000000 0.000000
0.000000 0.000000 0.000000
0.000000 0.000000 0.000000
0.006400 0.000000 0.000711
0.015333 0.000000 0.001724
0.023957 0.000000 0.002707
0.034280 0.000000 0.003885
0.048912 0.000000 0.005558
0.069487 0.000000 0.007915
0.098077 0.000000 0.011209
0.137124 0.000000 0.015764
0.189163 0.000000 0.021964
0.256276 0.000000 0.030187
0.339323 0.000000 0.040572
0.437358 0.000000 0.052695
0.547767 0.000000 0.065437
0.667073 0.000000 0.077289
0.791130 0.000000 0.086567
0.914032 0.000000 0.091074
1.000000 0.098242 0.135697
1.000000 0.287634 0.242405
1.000000 0.376014 0.315121
1.000000 0.439966 0.373440
1.000000 0.493954 0.425656
1.000000 0.545868 0.478161
1.000000 0.601437 0.536678
1.000000 0.665153 0.606400
1.000000 0.740003 0.691264
1.000000 0.824703 0.790241
1.000000 0.904818 0.885834
1.000000 0.956532 0.948036
1.000000 0.981145 0.977593
1.000000 0.992367 0.990994
0.000000 0.000000 0.000000
0.000000 0.000000 0.000000
0.000000 0.000000 0.000000
0.006400 0.000000 0.000711
0.015333 0.000000 0.001724
0.023957 0.000000 0.002707
0.034280 0.000000 0.003885
0.048912 0.000000 0.005558
0.069487 0.000000 0.007915
0.098077 0.000000 0.011209
0.137124 0.000000 0.015764
0.189163 0.000000 0.021964
0.256276 0.000000 0.030187
0.339323 0.000000 0.040572
0.437358 0.000000 0.052695
0.547767 0.000000 0.065437
0.667073 0.000000 0.077289
0.791130 0.000000 0.086567
0.914032 0.000000 0.091074
1.000000 0.098242 0.135697
1.000000 0.287634 0.242405
1.000000 0.376014 0.315121
1.000000 0.439966 0.373440
1.000000 0.493954 0.425656
1.000000 0.545868 0.478161
1.000000 0.601437 0.536678
1.000000 0.665153 0.606400
1.000000 0.740003 0.691264
1.000000 0.824703 0.790241
1.000000 0.904818 0.885834
1.000000 0.956532 0.948036
1.000000 0.981145 0.977593
1.000000 0.992367 0.990994
0.000000 0.007106 0.003103
0.000000 0.007106 0.003103
0.000000 0.007106 0.003103
0.009995 0.009922 0.000000
0.019892 0.012513 0.000000
0.028889 0.014515 0.000000
0.039476 0.016476 0.000000
0.054357 0.018647 0.000000
0.075181 0.020764 0.000000
0.104027 0.022206 0.000000
0.143336 0.021425 0.000000
0.195655 0.011338 0.000000
0.262260 0.000000 0.000000
0.344206 0.000000 0.025741
0.441263 0.000000 0.041408
0.550833 0.000000 0.056400
0.669415 0.000000 0.069853
0.792882 0.000000 0.080185
0.915508 0.000000 0.085482
1.000000 0.104692 0.134390
1.000000 0.289018 0.242124
1.000000 0.376793 0.315063
1.000000 0.440467 0.373471
1.000000 0.494295 0.425726
1.000000 0.546107 0.478245
1.000000 0.601609 0.536766
1.000000 0.665278 0.606483
1.000000 0.740092 0.691338
1.000000 0.824766 0.790302
1.000000 0.904851 0.885869
1.000000 0.956543 0.948047
1.000000 0.981147 0.977595
1.000000 0.992367 0.990995
0.000000 0.016995 0.007431
0.000000 0.016995 0.007431
0.000000 0.016995 0.007431
0.011346 0.020475 0.000000
0.023700 0.023531 0.000000
0.033450 0.026122 0.000000
0.044437 0.028878 0.000000
0.059518 0.032280 0.000000
0.080325 0.036289 0.000000
0.108920 0.040701 0.000000
0.147739 0.045035 0.000000
0.199350 0.048302 0.000000
0.265909 0.048735 0.000000
0.348530 0.041973 0.000000
0.446554 0.000000 0.000000
0.555125 0.000000 0.034062
0.673033 0.000000 0.054126
0.795853 0.000000 0.067828
0.918089 0.000000 0.075167
1.000000 0.113073 0.132272
1.000000 0.291049 0.241683
1.000000 0.377953 0.314972
1.000000 0.441216 0.373517
1.000000 0.494805 0.425829
1.000000 0.546466 0.478371
1.000000 0.601867 0.536897
1.000000 0.665466 0.606609
1.000000 0.740227 0.691450
1.000000 0.824860 0.790394
1.000000 0.904898 0.885919
1.000000 0.956556 0.948062
1.000000 0.981151 0.977599
1.000000 0.992368 0.990996
0.000000 0.026492 0.011586
0.000000 0.026492 0.011586
0.000000 0.026492 0.011586
0.008872 0.030459 0.000000
0.025812 0.033601 0.000000
0.036623 0.036363 0.000000
0.048208 0.039379 0.000000
0.063674 0.043228 0.000000
0.084643 0.047955 0.000000
0.113162 0.053472 0.000000
0.151653 0.059460 0.000000
0.202689 0.065229 0.000000
0.268494 0.069598 0.000000
0.350279 0.070438 0.000000
0.447578 0.063563 0.000000
0.558383 0.026813 0.000000
0.676656 0.000000 0.024629
0.798960 0.000000 0.050440
0.920953 0.000000 0.061525
1.000000 0.120386 0.129991
1.000000 0.293052 0.241231
1.000000 0.379105 0.314879
1.000000 0.441962 0.373561
1.000000 0.495314 0.425932
1.000000 0.546823 0.478496
1.000000 0.602125 0.537028
1.000000 0.665654 0.606735
1.000000 0.740363 0.691562
1.000000 0.824953 0.790484
1.000000 0.904946 0.885970
1.000000 0.956569 0.948075
1.000000 0.981154 0.977602
1.000000 0.992369 0.990997
0.000000 0.037787 0.016523
0.000000 0.037787 0.016523
0.000000 0.037787 0.016523
0.000000 0.041902 0.007421
0.026633 0.045383 0.000000
0.039154 0.048193 0.000000
0.051687 0.051321 0.000000
0.067791 0.055384 0.000000
0.089109 0.060512 0.000000
0.117681 0.066706 0.000000
0.155918 0.073748 0.000000
0.206399 0.081091 0.000000
0.271411 0.087724 0.000000
0.352263 0.092028 0.000000
0.448685 0.091220 0.000000
0.558696 0.079735 0.000000
0.679356 0.018981 0.000000
0.802817 0.000000 0.000000
0.924501 0.000000 0.033887
1.000000 0.128824 0.127177
1.000000 0.295496 0.240672
1.000000 0.380517 0.314762
1.000000 0.442877 0.373614
1.000000 0.495937 0.426056
1.000000 0.547263 0.478650
1.000000 0.602441 0.537188
1.000000 0.665884 0.606889
1.000000 0.740528 0.691698
1.000000 0.825069 0.790596
1.000000 0.905006 0.886033
1.000000 0.956587 0.948094
1.000000 0.981159 0.977607
1.000000 0.992369 0.990997
0.000000 0.053644 0.023449
0.000000 0.053644 0.023449
0.000000 0.053644 0.023449
0.000000 0.057483 0.017217
0.024281 0.061767 0.000000
0.040667 0.064526 0.000000
0.054968 0.067652 0.000000
0.072295 0.071785 0.000000
0.094347 0.077090 0.000000
0.123198 0.083687 0.000000
0.161269 0.091471 0.000000
0.211157 0.100003 0.000000
0.275214 0.108403 0.000000
0.354892 0.115222 0.000000
0.450121 0.118254 0.000000
0.559144 0.113885 0.000000
0.678989 0.094698 0.000000
0.805449 0.000000 0.000000
0.929738 0.000000 0.000000
1.000000 0.140256 0.123039
1.000000 0.299025 0.239851
1.000000 0.382563 0.314584
1.000000 0.444206 0.373688
1.000000 0.496846 0.426238
1.000000 0.547903 0.478874
1.000000 0.602903 0.537422
1.000000 0.666221 0.607115
1.000000 0.740770 0.691898
1.000000 0.825237 0.790760
1.000000 0.905092 0.886125
1.000000 0.956611 0.948120
1.000000 0.981165 0.977614
1.000000 0.992371 0.990999
0.000000 0.075625 0.033038
0.000000 0.075625 0.033038
0.000000 0.075625 0.033038
0.000000 0.079141 0.027887
0.000000 0.084251 0.000000
0.038522 0.086911 0.000000
0.056674 0.089903 0.000000
0.076319 0.093923 0.000000
0.099885 0.099184 0.000000
0.129488 0.105819 0.000000
0.167630 0.113911 0.000000
0.216969 0.123160 0.000000
0.279957 0.132792 0.000000
0.358229 0.141468 0.000000
0.451952 0.147208 0.000000
0.559634 0.147146 0.000000
0.678483 0.136877 0.000000
0.804116 0.105992 0.000000
0.932210 0.000000 0.000000
1.000000 0.155480 0.116880
1.000000 0.304098 0.238641
1.000000 0.385518 0.314313
1.000000 0.446132 0.373789
1.000000 0.498165 0.426498
1.000000 0.548835 0.479198
1.000000 0.603574 0.537763
1.000000 0.666711 0.607444
1.000000 0.741122 0.692190
1.000000 0.825483 0.791000
1.000000 0.905218 0.886257
1.000000 0.956648 0.948158
1.000000 0.981175 0.977623
1.000000 0.992374 0.991001
0.000000 0.105543 0.046077
0.000000 0.105543 0.046077
0.000000 0.105543 0.046077
0.000000 0.108686 0.041548
0.000000 0.113176 0.029716
0.019597 0.117123 0.000000
0.053170 0.119848 0.000000
0.077914 0.123558 0.000000
0.104419 0.128493 0.000000
0.135816 0.134867 0.000000
0.174592 0.142705 0.000000
0.223617 0.152025 0.000000
0.285530 0.162227 0.000000
0.362210 0.172073 0.000000
0.454151 0.179676 0.000000
0.560134 0.182535 0.000000
0.677631 0.177257 0.000000
0.802278 0.158295 0.000000
0.929885 0.111895 0.000000
1.000000 0.181077 0.112580
1.000000 0.311344 0.236853
1.000000 0.389762 0.313888
1.000000 0.448914 0.373921
1.000000 0.500076 0.426869
1.000000 0.550187 0.479666
1.000000 0.604551 0.538258
1.000000 0.667425 0.607922
1.000000 0.741636 0.692614
1.000000 0.825842 0.791348
1.000000 0.905401 0.886451
1.000000 0.956700 0.948213
1.000000 0.981189 0.977638
1.000000 0.992377 0.991005
0.000000 0.145241 0.063370
0.000000 0.145241 0.063370
0.000000 0.145241 0.063370
0.000000 0.147972 0.059302
0.000000 0.151749 0.050627
0.000000 0.155422 0.036464
0.027099 0.159289 0.000000
0.072199 0.162510 0.000000
0.105267 0.166855 0.000000
0.140253 0.172566 0.000000
0.181085 0.179827 0.000000
0.230460 0.188415 0.000000
0.291528 0.198299 0.000000
0.366573 0.208458 0.000000
0.456497 0.217100 0.000000
0.560507 0.221799 0.000000
0.676276 0.219720 0.000000
0.799598 0.206734 0.000000
0.926678 0.177199 0.000000
1.000000 0.214599 0.109767
1.000000 0.324623 0.237141
1.000000 0.395916 0.313308
1.000000 0.452906 0.374078
1.000000 0.502831 0.427391
1.000000 0.552144 0.480340
1.000000 0.605970 0.538974
1.000000 0.668464 0.608617
1.000000 0.742429 0.693286
1.000000 0.826364 0.791857
1.000000 0.905670 0.886736
1.000000 0.956778 0.948295
1.000000 0.981208 0.977657
1.000000 0.992383 0.991011
0.000000 0.196170 0.085567
0.000000 0.196170 0.085567
0.000000 0.196170 0.085567
0.000000 0.198485 0.081883
0.000000 0.201498 0.074815
0.000000 0.204444 0.065578
0.000000 0.207960 0.048808
0.037002 0.212293 0.000000
0.096100 0.215851 0.000000
0.139268 0.220600 0.000000
0.184329 0.226753 0.000000
0.236065 0.234437 0.000000
0.297060 0.242931 0.000000
0.370696 0.252280 0.000000
0.458554 0.260926 0.000000
0.560338 0.266523 0.000000
0.674135 0.266290 0.000000
0.795804 0.256822 0.000000
0.922115 0.234752 0.000000
1.000000 0.253060 0.105082
1.000000 0.343709 0.238617
1.000000 0.407457 0.315426
1.000000 0.459170 0.374864
1.000000 0.506825 0.428158
1.000000 0.554962 0.481298
1.000000 0.608020 0.540007
1.000000 0.669968 0.609624
1.000000 0.743594 0.694277
1.000000 0.827204 0.792700
1.000000 0.906057 0.887147
1.000000 0.956891 0.948415
1.000000 0.981236 0.977687
1.000000 0.992389 0.991017
0.000000 0.258809 0.112897
0.000000 0.258809 0.112897
0.000000 0.258809 0.112897
0.000000 0.260726 0.109628
0.000000 0.263000 0.103618
0.000000 0.265237 0.096589
0.000000 0.267930 0.086000
0.000000 0.271729 0.063895
0.049620 0.276323 0.000000
0.124982 0.279957 0.000000
0.179922 0.284745 0.000000
0.236492 0.290850 0.000000
0.300352 0.298300 0.000000
0.373444 0.305481 0.000000
0.459457 0.312805 0.000000
0.558998 0.318113 0.000000
0.670587 0.318642 0.000000
0.790495 0.311038 0.000000
0.915791 0.293057 0.000000
1.000000 0.297481 0.097124
1.000000 0.368981 0.240670
1.000000 0.423661 0.318740
1.000000 0.469921 0.378124
1.000000 0.513531 0.430385
1.000000 0.559171 0.482840
1.000000 0.611066 0.541593
1.000000 0.672255 0.611209
1.000000 0.745283 0.695716
1.000000 0.828434 0.793937
1.000000 0.906619 0.887742
1.000000 0.957056 0.948588
1.000000 0.981279 0.977731
1.000000 0.992400 0.991028
0.000000 0.332150 0.144897
0.000000 0.332150 0.144897
0.000000 0.332150 0.144897
0.000000 0.333632 0.142029
0.000000 0.335360 0.136949
0.000000 0.336985 0.131280
0.000000 0.338956 0.123472
0.000000 0.341782 0.109766
0.000000 0.345763 0.081421
0.064809 0.350472 0.000000
0.158434 0.353875 0.000000
0.226597 0.358284 0.000000
0.295866 0.363778 0.000000
0.372762 0.370241 0.000000
0.457822 0.374586 0.000000
0.555334 0.378120 0.000000
0.664775 0.378112 0.000000
0.782904 0.371192 0.000000
0.907143 0.355278 0.000000
1.000000 0.348846 0.082052
1.000000 0.401714 0.243471
1.000000 0.445679 0.323498
1.000000 0.485090 0.383032
1.000000 0.524008 0.434777
1.000000 0.566463 0.486609
1.000000 0.615946 0.544494
1.000000 0.675707 0.613690
1.000000 0.747894 0.698019
1.000000 0.830207 0.795724
1.000000 0.907431 0.888604
1.000000 0.957290 0.948836
1.000000 0.981339 0.977793
1.000000 0.992415 0.991043
0.000000 0.413627 0.180327
0.000000 0.413627 0.180327
0.000000 0.413627 0.180327
0.000000 0.414684 0.177845
0.000000 0.416048 0.173646
0.000000 0.417217 0.169077
0.000000 0.418651 0.162970
0.000000 0.420719 0.153119
0.000000 0.423701 0.135923
0.000000 0.427932 0.100540
0.081754 0.432808 0.000000
0.195498 0.435692 0.000000
0.278052 0.439321 0.000000
0.360905 0.443654 0.000000
0.451379 0.448358 0.000000
0.547677 0.448156 0.000000
0.655204 0.446030 0.000000
0.771908 0.438563 0.000000
0.895165 0.423376 0.000000
1.000000 0.408287 0.041850
1.000000 0.443119 0.247058
1.000000 0.475098 0.330420
1.000000 0.505956 0.390166
1.000000 0.538869 0.441345
1.000000 0.577075 0.492405
1.000000 0.623577 0.549523
1.000000 0.681290 0.618080
1.000000 0.751883 0.701647
1.000000 0.832753 0.798295
1.000000 0.908594 0.889836
1.000000 0.957632 0.949197
1.000000 0.981428 0.977885
1.000000 0.992437 0.991066
0.000000 0.499634 0.217376
0.000000 0.499634 0.217376
0.000000 0.499634 0.217376
0.000000 0.500368 0.215284
0.000000 0.501438 0.211925
0.000000 0.502314 0.208223
0.000000 0.503380 0.203498
0.000000 0.504948 0.196028
0.000000 0.507219 0.184003
0.000000 0.510528 0.163065
0.000000 0.515303 0.119950
0.099119 0.520645 0.000000
0.234781 0.522760 0.000000
0.332550 0.525251 0.000000
0.429486 0.527906 0.000000
0.533615 0.530077 0.000000
0.639872 0.523595 0.000000
0.755468 0.514058 0.000000
0.878345 0.498481 0.000000
0.999507 0.477205 0.000000
1.000000 0.494221 0.250895
1.000000 0.513408 0.340268
1.000000 0.534179 0.400577
1.000000 0.559534 0.451037
1.000000 0.592066 0.500902
1.000000 0.634588 0.557025
1.000000 0.689183 0.624338
1.000000 0.757556 0.706833
1.000000 0.836372 0.801958
1.000000 0.910244 0.891587
1.000000 0.958145 0.949741
1.000000 0.981555 0.978015
1.000000 0.992469 0.991098
0.000000 0.586302 0.254095
0.000000 0.586302 0.254095
0.000000 0.586302 0.254095
0.000000 0.586815 0.252384
0.000000 0.587591 0.249713
0.000000 0.588311 0.246842
0.000000 0.589157 0.243144
0.000000 0.590384 0.237554
0.000000 0.592206 0.228702
0.000000 0.594865 0.214458
0.000000 0.598789 0.189640
0.000000 0.604580 0.138169
0.115479 0.610836 0.000000
0.274675 0.611944 0.000000
0.388030 0.612948 0.000000
0.499040 0.613409 0.000000
0.616321 0.612271 0.000000
0.730802 0.597952 0.000000
0.854039 0.580928 0.000000
0.980995 0.556740 0.000000
1.000000 0.555612 0.252412
1.000000 0.561891 0.353749
1.000000 0.571491 0.415704
1.000000 0.587636 0.465144
1.000000 0.613073 0.513508
1.000000 0.650115 0.567946
1.000000 0.700756 0.633833
1.000000 0.765761 0.714460
1.000000 0.841514 0.807193
1.000000 0.912610 0.894108
1.000000 0.958872 0.950515
1.000000 0.981737 0.978203
1.000000 0.992515 0.991145
0.000000 0.670042 0.288751
0.000000 0.670042 0.288751
0.000000 0.670042 0.288751
0.000000 0.670415 0.287396
0.000000 0.670981 0.285302
0.000000 0.671551 0.283148
0.000000 0.672246 0.280304
0.000000 0.673259 0.276054
0.000000 0.674734 0.269628
0.000000 0.676947 0.259419
0.000000 0.680198 0.242975
0.000000 0.685055 0.214237
0.000000 0.692380 0.153842
0.129829 0.699984 0.000000
0.313574 0.699825 0.000000
0.442283 0.698970 0.000000
0.566744 0.696706 0.000000
0.696039 0.691513 0.000000
0.818808 0.669975 0.000000
0.948000 0.644842 0.000000
1.000000 0.627007 0.241710
1.000000 0.621103 0.370452
1.000000 0.619243 0.437052
1.000000 0.625023 0.485673
1.000000 0.641752 0.531879
1.000000 0.671800 0.583923
1.000000 0.716917 0.647434
1.000000 0.777341 0.725396
1.000000 0.848934 0.814849
1.000000 0.915984 0.897723
1.000000 0.959887 0.951590
1.000000 0.981997 0.978471
1.000000 0.992582 0.991213
0.000000 0.748062 0.320114
0.000000 0.748062 0.320114
0.000000 0.748062 0.320114
0.000000 0.748361 0.319079
0.000000 0.748820 0.317484
0.000000 0.749283 0.315854
0.000000 0.749869 0.313773
0.000000 0.750750 0.310603
0.000000 0.752035 0.305860
0.000000 0.753918 0.298653
0.000000 0.756741 0.287218
0.000000 0.760909 0.268702
0.000000 0.767161 0.236152
0.000000 0.776669 0.166429
0.142813 0.785944 0.000000
0.350762 0.784168 0.000000
0.493870 0.780837 0.000000
0.630198 0.774795 0.000000
0.769462 0.764532 0.000000
0.900980 0.737399 0.000000
1.000000 0.707277 0.172542
1.000000 0.689975 0.385486
1.000000 0.677630 0.465081
1.000000 0.673047 0.514842
1.000000 0.679937 0.558476
1.000000 0.701417 0.607126
1.000000 0.739248 0.666966
1.000000 0.793452 0.740984
1.000000 0.858900 0.825204
1.000000 0.920480 0.902540
1.000000 0.961272 0.953058
1.000000 0.982362 0.978846
1.000000 0.992680 0.991312
0.000000 0.823605 0.349867
0.000000 0.823605 0.349867
0.000000 0.823605 0.349867
0.000000 0.823841 0.349081
0.000000 0.824207 0.347866
0.000000 0.824571 0.346644
0.000000 0.825021 0.345125
0.000000 0.825731 0.342764
0.000000 0.826768 0.339257
0.000000 0.828281 0.334008
0.000000 0.830510 0.325976
0.000000 0.833832 0.313288
0.000000 0.838756 0.292629
0.000000 0.846141 0.256142
0.000000 0.857404 0.176495
0.156621 0.867604 0.000000
0.386436 0.864027 0.000000
0.542787 0.858014 0.000000
0.689848 0.848048 0.000000
0.837057 0.831840 0.000000
0.974322 0.797892 0.000000
1.000000 0.765769 0.379894
1.000000 0.744395 0.495887
1.000000 0.731121 0.553263
1.000000 0.728517 0.595625
1.000000 0.740428 0.640045
1.000000 0.769300 0.694653
1.000000 0.815017 0.762457
1.000000 0.872187 0.839215
1.000000 0.926452 0.908977
1.000000 0.963146 0.955045
1.000000 0.982875 0.979375
1.000000 0.992820 0.991454
0.000000 0.893776 0.376817
0.000000 0.893776 0.376817
0.000000 0.893776 0.376817
0.000000 0.893961 0.376215
0.000000 0.894239 0.375310
0.000000 0.894516 0.374401
0.000000 0.894878 0.373305
0.000000 0.895425 0.371575
0.000000 0.896218 0.368994
0.000000 0.897376 0.365158
0.000000 0.899062 0.359411
0.000000 0.901559 0.350547
0.000000 0.905262 0.336638
0.000000 0.910757 0.313860
0.000000 0.918986 0.273487
0.000000 0.931529 0.183723
0.172805 0.941808 0.000000
0.419642 0.936135 0.000000
0.587059 0.927054 0.000000
0.742714 0.912726 0.000000
0.896017 0.890670 0.000000
1.000000 0.848770 0.272053
1.000000 0.814663 0.513631
1.000000 0.795048 0.595931
1.000000 0.785502 0.642970
1.000000 0.788497 0.683979
1.000000 0.807408 0.731904
1.000000 0.842581 0.790934
1.000000 0.889017 0.857289
1.000000 0.933943 0.917081
1.000000 0.965614 0.957664
1.000000 0.983582 0.980104
1.000000 0.993014 0.991653
0.000000 0.956956 0.400363
0.000000 0.956956 0.400363
0.000000 0.956956 0.400363
0.000000 0.957105 0.399933
0.000000 0.957366 0.399330
0.000000 0.957628 0.398727
0.000000 0.957920 0.397904
0.000000 0.958317 0.396622
0.000000 0.958896 0.394731
0.000000 0.959741 0.391937
0.000000 0.960971 0.387783
0.000000 0.962760 0.381553
0.000000 0.965429 0.371874
0.000000 0.969357 0.356794
0.000000 0.975195 0.331971
0.000000 0.983872 0.287995
0.000000 0.995685 0.199145
0.244935 1.000000 0.000000
0.455603 0.997020 0.000000
0.625787 0.986266 0.000000
0.787709 0.967439 0.000000
0.944913 0.939613 0.000000
1.000000 0.887709 0.472917
1.000000 0.857825 0.626624
1.000000 0.844059 0.692355
1.000000 0.841195 0.735410
1.000000 0.850969 0.777045
1.000000 0.874573 0.825256
1.000000 0.908416 0.878476
1.000000 0.942816 0.926728
1.000000 0.968714 0.960954
1.000000 0.984517 0.981067
0.999995 0.993282 0.991925
0.137346 1.000000 0.442138
0.137346 1.000000 0.442138
0.137346 1.000000 0.442138
0.138934 1.000000 0.442002
0.141273 1.000000 0.441800
0.143585 1.000000 0.441599
0.146362 1.000000 0.441353
0.150332 1.000000 0.440995
0.155953 1.000000 0.440480
0.163809 1.000000 0.439739
0.174660 1.000000 0.438681
0.189374 1.000000 0.437183
0.209055 1.000000 0.435088
0.234257 1.000000 0.432044
0.267257 1.000000 0.428001
0.307764 1.000000 0.422019
0.356277 1.000000 0.412630
0.413373 1.000000 0.396770
0.492077 1.000000 0.380845
0.593683 1.000000 0.370782
0.703371 1.000000 0.337006
0.829013 1.000000 0.203111
0.983823 0.978762 0.000000
1.000000 0.918534 0.611977
1.000000 0.896344 0.726978
1.000000 0.889809 0.782655
1.000000 0.893323 0.822475
1.000000 0.906845 0.860907
1.000000 0.928530 0.900754
1.000000 0.952536 0.937334
1.000000 0.972400 0.964862
1.000000 0.985721 0.982305
0.999971 0.993649 0.992299
0.466124 1.000000 0.557358
0.466124 1.000000 0.557358
0.466124 1.000000 0.557358
0.466378 1.000000 0.557335
0.466755 1.000000 0.557296
0.467135 1.000000 0.557259
0.467599 1.000000 0.557213
0.468278 1.000000 0.557146
0.469267 1.000000 0.557046
0.470705 1.000000 0.556901
0.472796 1.000000 0.556686
0.475823 1.000000 0.556367
0.480189 1.000000 0.555891
0.486385 1.000000 0.555137
0.495234 1.000000 0.554013
0.507845 1.000000 0.552366
0.525228 1.000000 0.549668
0.549076 1.000000 0.545336
0.580926 1.000000 0.537847
0.630961 1.000000 0.533957
0.700954 1.000000 0.536999
0.780646 1.000000 0.529537
0.873626 1.000000 0.487234
1.000000 1.000000 0.310424
1.000000 0.943185 0.723524
1.000000 0.928931 0.812407
1.000000 0.927935 0.858183
1.000000 0.934502 0.891444
1.000000 0.946920 0.921160
1.000000 0.962268 0.947933
1.000000 0.976526 0.969227
1.000000 0.987204 0.983833
0.999942 0.994129 0.992790
0.620047 1.000000 0.657844
0.620047 1.000000 0.657844
0.620047 1.000000 0.657844
0.620159 1.000000 0.657844
0.620331 1.000000 0.657844
0.620502 1.000000 0.657845
0.620712 1.000000 0.657845
0.621019 1.000000 0.657846
0.621464 1.000000 0.657845
0.622117 1.000000 0.657845
0.623066 1.000000 0.657842
0.624447 1.000000 0.657838
0.626450 1.000000 0.657826
0.629348 1.000000 0.657799
0.633434 1.000000 0.657674
0.639476 1.000000 0.657602
0.647995 1.000000 0.657363
0.660035 1.000000 0.656910
0.676675 1.000000 0.655864
0.699326 1.000000 0.653580
0.735523 1.000000 0.656058
0.785577 1.000000 0.664107
0.842863 1.000000 0.665889
0.909415 1.000000 0.646615
1.000000 1.000000 0.560132
1.000000 0.962161 0.812130
1.000000 0.953948 0.878470
1.000000 0.955604 0.913044
1.000000 0.962045 0.937494
1.000000 0.971202 0.957535
1.000000 0.980816 0.973732
1.000000 0.988930 0.985605
0.999909 0.994738 0.993416
0.737080 1.000000 0.750304
0.737080 1.000000 0.750304
0.737080 1.000000 0.750304
0.737137 1.000000 0.750312
0.737222 1.000000 0.750324
0.737304 1.000000 0.750333
0.737409 1.000000 0.750348
0.737562 1.000000 0.750369
0.737784 1.000000 0.750399
0.738108 1.000000 0.750442
0.738582 1.000000 0.750506
0.739271 1.000000 0.750596
0.740272 1.000000 0.750727
0.741724 1.000000 0.750912
0.743793 1.000000 0.751147
0.746822 1.000000 0.751514
