engine/Code/CryPlugins/CinematicCamera/Assets/cinecam/luts/odt_srgb_100nit_aces2_65.cube
# Generated by tools/ocio-bake/bake.py -- do not edit by hand.
#
# ReC-LUT-Space: ACEScct
#
# preset            : odt_srgb_100nit
# config URI        : ocio://studio-config-latest
# config name       : studio-config-v4.0.0_aces-v2.0_ocio-v2.5
# ACES version      : 2.0
# input space       : ACEScct   (LUT domain is this encoding, [0,1], red fastest)
# display           : sRGB - Display
# view              : ACES 2.0 - SDR 100 nits (Rec.709)
# output encoding   : sRGB - Display (encoded display code values)
# grid size         : 65^3
# OCIO library      : 2.5.2
# baked (UTC)       : 2026-09-10T02:50:50Z
# tool git hash     : fa0f045d905e8df94b7136ca6cd9e37ebbed98ac-dirty
# tool sha256[:16]  : 48c8b086d843e6ac
#
# Default ODT. Ends in the piecewise sRGB encode, which is what an 8-bit non-sRGB-typed
# swapchain on a desktop monitor wants (decisions/s4-display-transform.md section 3A).
# The 65^3 of this file is also the FORWARD half of the Rec.709 LUT wrap: see
# odt_srgb_100nit_inv below.
# Output values are clamped to [0,1]; the shaper (linear -> ACEScct) is applied
# analytically in the shader before the fetch, so this file carries no 1D LUT.
#
TITLE "ACES 2.0 SDR 100nit sRGB display, ACEScct in"
LUT_3D_SIZE 5
DOMAIN_MIN 0.0 0.0 0.0
DOMAIN_MAX 1.0 1.0 1.0
0.000000 0.000000 0.000000
0.021475 0.000000 0.000117
0.648762 0.000000 0.027724
1.000000 0.520890 0.449460
1.000000 0.991947 0.990499
0.000000 0.026313 0.003606
0.050378 0.049639 0.000000
0.660800 0.089405 0.000000
1.000000 0.524021 0.450554
1.000000 0.991954 0.990506
0.000000 0.563549 0.213071
0.000000 0.569777 0.186281
0.595218 0.590946 0.000000
1.000000 0.591792 0.486751
1.000000 0.992104 0.990658
0.599149 1.000000 0.639025
0.600645 1.000000 0.639026
0.628635 1.000000 0.638518
1.000000 1.000000 0.535939
0.999904 0.994449 0.993053
0.998821 0.999960 0.998717
0.998821 0.999960 0.998718
0.998839 0.999960 0.998734
0.999183 0.999961 0.999062
1.000000 1.000000 1.000000
0.000000 0.000461 0.004884
0.037148 0.000000 0.025578
0.647189 0.000000 0.168738
1.000000 0.524587 0.464201
1.000000 0.991967 0.990532
0.000000 0.037163 0.034762
0.055976 0.055976 0.055976
0.675120 0.016863 0.139414
1.000000 0.529992 0.467663
1.000000 0.991975 0.990540
0.000000 0.561641 0.267151
0.000000 0.567812 0.249984
0.594650 0.586438 0.036443
1.000000 0.598753 0.503926
1.000000 0.992124 0.990691
0.604932 1.000000 0.646534
0.606408 1.000000 0.646545
0.634023 1.000000 0.646214
1.000000 1.000000 0.541841
0.999904 0.994457 0.993070
0.998821 0.999960 0.998718
0.998822 0.999960 0.998719
0.998839 0.999960 0.998735
0.999183 0.999961 0.999063
1.000000 1.000000 1.000000
0.000000 0.129236 0.430402
0.025602 0.000000 0.517855
0.672884 0.000000 0.567838
1.000000 0.525997 0.559933
1.000000 0.992332 0.991107
0.000000 0.183613 0.439492
0.004729 0.137246 0.514466
0.684096 0.015227 0.581262
1.000000 0.531818 0.563113
1.000000 0.992339 0.991113
0.000000 0.573492 0.556126
0.000000 0.576366 0.559257
0.571482 0.571482 0.571482
1.000000 0.641143 0.631864
0.999995 0.992474 0.991247
0.623997 1.000000 0.706479
0.626834 1.000000 0.707433
0.677404 1.000000 0.725301
0.999796 1.000000 0.623477
0.999876 0.994627 0.993384
0.998832 0.999960 0.998740
0.998832 0.999960 0.998740
0.998851 0.999960 0.998756
0.999192 0.999962 0.999081
1.000000 1.000000 1.000000
0.477656 0.608515 1.000000
0.482639 0.608365 1.000000
0.563304 0.601300 1.000000
1.000000 0.686146 0.928328
0.999898 0.993452 0.993466
0.479233 0.612207 1.000000
0.484925 0.612576 1.000000
0.564663 0.605492 1.000000
1.000000 0.689914 0.929083
0.999897 0.993460 0.993472
0.506870 0.674391 1.000000
0.512838 0.675273 1.000000
0.607715 0.689326 1.000000
1.000000 0.756412 0.942768
0.999884 0.993611 0.993606
0.646703 1.000000 0.983898
0.648149 1.000000 0.983941
0.674755 1.000000 0.984705
0.961201 0.961201 0.961201
0.999742 0.995772 0.995538
0.999004 0.999970 0.999061
0.999006 0.999969 0.999062
0.999023 0.999969 0.999076
0.999359 0.999972 0.999359
1.000000 1.000000 1.000000
0.977892 0.983891 1.000000
0.977915 0.983902 1.000000
0.978365 0.984108 1.000000
0.983986 0.986209 1.000000
0.999859 0.998543 0.999333
0.977905 0.983906 1.000000
0.977928 0.983916 1.000000
0.978378 0.984123 1.000000
0.983999 0.986223 1.000000
0.999859 0.998544 0.999334
0.978177 0.984182 1.000000
0.978200 0.984192 1.000000
0.978642 0.984392 1.000000
0.984226 0.986494 1.000000
0.999859 0.998569 0.999345
0.982647 0.988604 1.000000
0.982663 0.988610 1.000000
0.982956 0.988723 1.000000
0.987738 0.990602 1.000000
0.999882 0.999020 0.999544
1.000000 1.000000 1.000000
1.000000 1.000000 1.000000
1.000000 1.000000 1.000000
1.000000 1.000000 1.000000
1.000000 1.000000 1.000000
