engine/Code/CryPlugins/CinematicCamera/Assets/cinecam/luts/odt_rec1886_100nit_aces2_33.cube
# Generated by tools/ocio-bake/bake.py -- do not edit by hand.
#
# ReC-LUT-Space: ACEScct
#
# preset            : odt_rec1886_100nit
# config URI        : ocio://studio-config-latest
# config name       : studio-config-v4.0.0_aces-v2.0_ocio-v2.5
# ACES version      : 2.0
# input space       : ACEScct   (LUT domain is this encoding, [0,1], red fastest)
# display           : Rec.1886 Rec.709 - Display
# view              : ACES 2.0 - SDR 100 nits (Rec.709)
# output encoding   : Rec.1886 Rec.709 - Display (encoded display code values)
# grid size         : 33^3
# OCIO library      : 2.5.2
# baked (UTC)       : 2026-09-10T02:50:51Z
# tool git hash     : fa0f045d905e8df94b7136ca6cd9e37ebbed98ac-dirty
# tool sha256[:16]  : 48c8b086d843e6ac
#
# Same output transform as odt_srgb_100nit, differing only in the final inverse EOTF
# (pure 2.4 gamma instead of the piecewise sRGB curve). This is the reference for the
# Resolve round-trip comparison (D12), whose default viewer path is Rec.1886.
# Output values are clamped to [0,1]; the shaper (linear -> ACEScct) is applied
# analytically in the shader before the fetch, so this file carries no 1D LUT.
#
TITLE "ACES 2.0 SDR 100nit Rec.1886 Rec.709 display, ACEScct in"
LUT_3D_SIZE 5
DOMAIN_MIN 0.0 0.0 0.0
DOMAIN_MAX 1.0 1.0 1.0
0.000000 0.000000 0.000000
0.069487 0.000000 0.007915
0.667073 0.000000 0.077289
1.000000 0.545868 0.478161
1.000000 0.992367 0.990994
0.000000 0.075625 0.033038
0.099885 0.099184 0.000000
0.678483 0.136877 0.000000
1.000000 0.548835 0.479198
1.000000 0.992374 0.991001
0.000000 0.586302 0.254095
0.000000 0.592206 0.228702
0.616321 0.612271 0.000000
1.000000 0.613073 0.513508
1.000000 0.992515 0.991145
0.620047 1.000000 0.657844
0.621464 1.000000 0.657845
0.647995 1.000000 0.657363
1.000000 1.000000 0.560132
0.999909 0.994738 0.993416
0.998882 0.999962 0.998784
0.998883 0.999962 0.998785
0.998900 0.999962 0.998800
0.999226 0.999963 0.999111
1.000000 1.000000 1.000000
0.000000 0.014017 0.037490
0.087311 0.000000 0.074737
0.665582 0.000000 0.212074
1.000000 0.549372 0.492134
1.000000 0.992386 0.991025
0.000000 0.087326 0.084929
0.105190 0.105190 0.105190
0.692057 0.062829 0.184279
1.000000 0.554495 0.495415
1.000000 0.992393 0.991033
0.000000 0.584494 0.305357
0.000000 0.590343 0.289085
0.615782 0.607998 0.086617
1.000000 0.619671 0.529787
1.000000 0.992535 0.991176
0.625528 1.000000 0.664961
0.626927 1.000000 0.664971
0.653102 1.000000 0.664658
1.000000 1.000000 0.565726
0.999909 0.994746 0.993431
0.998883 0.999962 0.998785
0.998884 0.999962 0.998786
0.998900 0.999962 0.998801
0.999225 0.999964 0.999112
1.000000 1.000000 1.000000
0.000000 0.174632 0.460096
0.074767 0.000000 0.542990
0.689938 0.000000 0.590368
1.000000 0.550709 0.582875
1.000000 0.992732 0.991571
0.000000 0.226173 0.468713
0.036991 0.182223 0.539778
0.700565 0.060212 0.603092
1.000000 0.556226 0.585889
1.000000 0.992738 0.991577
0.000000 0.595727 0.579266
0.000000 0.598451 0.582234
0.593822 0.593822 0.593822
1.000000 0.659851 0.651056
0.999995 0.992867 0.991703
0.643599 1.000000 0.721781
0.646288 1.000000 0.722686
0.694221 1.000000 0.739622
0.999806 1.000000 0.643106
0.999882 0.994907 0.993729
0.998893 0.999962 0.998805
0.998893 0.999962 0.998806
0.998911 0.999962 0.998821
0.999235 0.999964 0.999129
1.000000 1.000000 1.000000
0.504887 0.628924 1.000000
0.509611 0.628782 1.000000
0.586070 0.622085 1.000000
1.000000 0.702508 0.932064
0.999903 0.993794 0.993806
0.506382 0.632424 1.000000
0.511777 0.632774 1.000000
0.587358 0.626058 1.000000
1.000000 0.706080 0.932780
0.999902 0.993801 0.993813
0.532578 0.691366 1.000000
0.538235 0.692201 1.000000
0.628166 0.705523 1.000000
1.000000 0.769111 0.945752
0.999890 0.993944 0.993940
0.665121 1.000000 0.984737
0.666492 1.000000 0.984778
0.691711 1.000000 0.985503
0.963224 0.963224 0.963224
0.999756 0.995993 0.995771
0.999056 0.999971 0.999110
0.999058 0.999971 0.999111
0.999074 0.999971 0.999124
0.999392 0.999974 0.999393
1.000000 1.000000 1.000000
0.979044 0.984731 1.000000
0.979066 0.984741 1.000000
0.979493 0.984936 1.000000
0.984821 0.986928 1.000000
0.999866 0.998619 0.999368
0.979057 0.984745 1.000000
0.979079 0.984755 1.000000
0.979506 0.984951 1.000000
0.984833 0.986941 1.000000
0.999866 0.998620 0.999369
0.979315 0.985007 1.000000
0.979337 0.985016 1.000000
0.979755 0.985206 1.000000
0.985048 0.987198 1.000000
0.999866 0.998643 0.999379
0.983552 0.989199 1.000000
0.983566 0.989204 1.000000
0.983845 0.989311 1.000000
0.988378 0.991092 1.000000
0.999888 0.999071 0.999568
1.000000 1.000000 1.000000
1.000000 1.000000 1.000000
1.000000 1.000000 1.000000
1.000000 1.000000 1.000000
1.000000 1.000000 1.000000
